Resources/LUTs/astia_100f.cube
TITLE "Astia_TrueE6_33"
LUT_3D_SIZE 33
DOMAIN_MIN 0.0 0.0 0.0
DOMAIN_MAX 1.0 1.0 1.0
0.000000 0.012000 0.014000
0.000000 0.011914 0.037427
0.000000 0.011829 0.063538
0.000000 0.011744 0.090769
0.000000 0.011658 0.118752
0.000000 0.011572 0.147309
0.000000 0.011487 0.176331
0.000000 0.011402 0.205746
0.000000 0.011316 0.235502
0.000000 0.011231 0.265558
0.000000 0.011145 0.295885
0.000000 0.011059 0.326456
0.000000 0.010974 0.357252
0.000000 0.010888 0.388254
0.000000 0.010803 0.419449
0.000000 0.010717 0.450824
0.000000 0.010632 0.482367
0.000000 0.010547 0.514068
0.000000 0.010461 0.545920
0.000000 0.010375 0.577915
0.000000 0.010290 0.610045
0.000000 0.010205 0.642304
0.000000 0.010119 0.674686
0.000000 0.010034 0.707188
0.000000 0.009948 0.739803
0.000000 0.009862 0.772527
0.000000 0.009777 0.805356
0.000000 0.009692 0.838287
0.000000 0.009606 0.871316
0.000132 0.009521 0.904440
0.000275 0.009435 0.937656
0.000418 0.009350 0.970961
0.000560 0.009264 1.000000
0.000000 0.035101 0.013413
0.000000 0.035015 0.036840
0.000000 0.034930 0.062951
0.000000 0.034844 0.090182
0.000000 0.034759 0.118165
0.000000 0.034673 0.146722
0.000000 0.034588 0.175744
0.000000 0.034502 0.205159
0.000000 0.034417 0.234915
0.000000 0.034331 0.264971
0.000000 0.034246 0.295298
0.000000 0.034160 0.325869
0.000000 0.034075 0.356665
0.000000 0.033989 0.387667
0.000000 0.033904 0.418862
0.000000 0.033818 0.450237
0.000000 0.033733 0.481780
0.000000 0.033647 0.513481
0.000000 0.033562 0.545333
0.000000 0.033476 0.577328
0.000000 0.033391 0.609458
0.000000 0.033305 0.641717
0.000000 0.033220 0.674099
0.000011 0.033134 0.706601
0.000154 0.033049 0.739216
0.000296 0.032963 0.771940
0.000439 0.032878 0.804769
0.000581 0.032792 0.837700
0.000724 0.032707 0.870729
0.000866 0.032621 0.903853
0.001009 0.032536 0.937069
0.001151 0.032450 0.970374
0.001294 0.032365 1.000000
0.000000 0.060886 0.012826
0.000000 0.060800 0.036253
0.000000 0.060715 0.062364
0.000000 0.060629 0.089595
0.000000 0.060544 0.117578
0.000000 0.060458 0.146135
0.000000 0.060373 0.175157
0.000000 0.060287 0.204572
0.000000 0.060202 0.234328
0.000000 0.060116 0.264384
0.000000 0.060031 0.294711
0.000000 0.059945 0.325282
0.000000 0.059860 0.356078
0.000000 0.059774 0.387080
0.000000 0.059689 0.418275
0.000000 0.059603 0.449650
0.000000 0.059518 0.481193
0.000000 0.059432 0.512894
0.000032 0.059347 0.544746
0.000175 0.059261 0.576741
0.000318 0.059176 0.608871
0.000460 0.059090 0.641130
0.000603 0.059005 0.673512
0.000745 0.058919 0.706014
0.000888 0.058834 0.738629
0.001030 0.058748 0.771353
0.001172 0.058663 0.804182
0.001315 0.058577 0.837113
0.001457 0.058492 0.870142
0.001600 0.058406 0.903266
0.001742 0.058321 0.936482
0.001885 0.058235 0.969787
0.002027 0.058150 1.000000
0.000000 0.087790 0.012239
0.000000 0.087705 0.035666
0.000000 0.087619 0.061777
0.000000 0.087534 0.089008
0.000000 0.087448 0.116991
0.000000 0.087363 0.145548
0.000000 0.087277 0.174570
0.000000 0.087192 0.203985
0.000000 0.087106 0.233741
0.000000 0.087021 0.263797
0.000000 0.086935 0.294124
0.000000 0.086850 0.324695
0.000000 0.086764 0.355491
0.000054 0.086679 0.386493
0.000196 0.086593 0.417688
0.000339 0.086508 0.449063
0.000481 0.086422 0.480606
0.000624 0.086337 0.512307
0.000766 0.086251 0.544159
0.000909 0.086166 0.576154
0.001051 0.086080 0.608284
0.001194 0.085995 0.640543
0.001336 0.085909 0.672925
0.001479 0.085824 0.705427
0.001621 0.085738 0.738042
0.001764 0.085653 0.770766
0.001906 0.085567 0.803595
0.002049 0.085482 0.836526
0.002191 0.085396 0.869555
0.002334 0.085311 0.902679
0.002476 0.085225 0.935895
0.002619 0.085140 0.969200
0.002761 0.085054 1.000000
0.000000 0.115447 0.011652
0.000000 0.115362 0.035079
0.000000 0.115276 0.061190
0.000000 0.115191 0.088421
0.000000 0.115105 0.116404
0.000000 0.115020 0.144961
0.000000 0.114934 0.173983
0.000000 0.114849 0.203398
0.000075 0.114763 0.233154
0.000217 0.114678 0.263210
0.000360 0.114592 0.293537
0.000503 0.114507 0.324108
0.000645 0.114421 0.354904
0.000788 0.114336 0.385906
0.000930 0.114250 0.417101
0.001072 0.114165 0.448476
0.001215 0.114079 0.480019
0.001357 0.113994 0.511720
0.001500 0.113908 0.543572
0.001642 0.113823 0.575567
0.001785 0.113737 0.607697
0.001928 0.113652 0.639956
0.002070 0.113566 0.672338
0.002212 0.113481 0.704840
0.002355 0.113395 0.737455
0.002498 0.113310 0.770179
0.002640 0.113224 0.803008
0.002783 0.113139 0.835939
0.002925 0.113053 0.868968
0.003067 0.112968 0.902092
0.003210 0.112882 0.935308
0.003352 0.112797 0.968613
0.003495 0.112711 1.000000
0.000000 0.143678 0.011065
0.000000 0.143592 0.034492
0.000000 0.143507 0.060603
0.000096 0.143421 0.087834
0.000239 0.143336 0.115817
0.000381 0.143250 0.144374
0.000524 0.143165 0.173396
0.000666 0.143079 0.202811
0.000809 0.142994 0.232567
0.000951 0.142908 0.262623
0.001094 0.142823 0.292950
0.001236 0.142737 0.323521
0.001379 0.142652 0.354317
0.001521 0.142566 0.385319
0.001664 0.142481 0.416514
0.001806 0.142395 0.447889
0.001949 0.142310 0.479432
0.002091 0.142224 0.511133
0.002234 0.142139 0.542985
0.002376 0.142053 0.574980
0.002519 0.141968 0.607110
0.002661 0.141882 0.639369
0.002804 0.141797 0.671751
0.002946 0.141711 0.704253
0.003089 0.141626 0.736868
0.003231 0.141540 0.769592
0.003374 0.141455 0.802421
0.003516 0.141369 0.835352
0.003659 0.141284 0.868381
0.003801 0.141198 0.901505
0.003944 0.141113 0.934721
0.004086 0.141027 0.968026
0.004229 0.140942 1.000000
0.000403 0.172374 0.010478
0.000545 0.172288 0.033905
0.000687 0.172203 0.060016
0.000830 0.172117 0.087247
0.000972 0.172032 0.115230
0.001115 0.171946 0.143787
0.001257 0.171861 0.172809
0.001400 0.171775 0.202224
0.001543 0.171690 0.231980
0.001685 0.171604 0.262036
0.001828 0.171519 0.292363
0.001970 0.171433 0.322934
0.002112 0.171348 0.353730
0.002255 0.171262 0.384732
0.002398 0.171177 0.415927
0.002540 0.171091 0.447302
0.002682 0.171006 0.478845
0.002825 0.170920 0.510546
0.002967 0.170835 0.542398
0.003110 0.170749 0.574393
0.003252 0.170664 0.606523
0.003395 0.170578 0.638782
0.003537 0.170493 0.671164
0.003680 0.170407 0.703666
0.003822 0.170322 0.736281
0.003965 0.170236 0.769005
0.004108 0.170151 0.801834
0.004250 0.170065 0.834765
0.004393 0.169980 0.867794
0.004535 0.169894 0.900918
0.004678 0.169809 0.934134
0.004820 0.169723 0.967439
0.004962 0.169638 1.000000
0.001136 0.201462 0.009891
0.001279 0.201377 0.033318
0.001421 0.201291 0.059429
0.001564 0.201206 0.086660
0.001706 0.201120 0.114643
0.001849 0.201035 0.143200
0.001991 0.200949 0.172222
0.002134 0.200864 0.201637
0.002276 0.200778 0.231393
0.002419 0.200693 0.261449
0.002561 0.200607 0.291776
0.002704 0.200522 0.322347
0.002846 0.200436 0.353143
0.002989 0.200351 0.384145
0.003131 0.200265 0.415340
0.003274 0.200180 0.446715
0.003416 0.200094 0.478258
0.003559 0.200009 0.509959
0.003701 0.199923 0.541811
0.003844 0.199838 0.573806
0.003986 0.199752 0.605936
0.004129 0.199667 0.638195
0.004271 0.199581 0.670577
0.004414 0.199496 0.703079
0.004556 0.199410 0.735694
0.004699 0.199325 0.768418
0.004841 0.199239 0.801247
0.004984 0.199154 0.834178
0.005126 0.199068 0.867207
0.005269 0.198983 0.900331
0.005411 0.198897 0.933547
0.005554 0.198812 0.966852
0.005696 0.198726 1.000000
0.001870 0.230892 0.009304
0.002012 0.230806 0.032731
0.002155 0.230721 0.058842
0.002297 0.230635 0.086073
0.002440 0.230550 0.114056
0.002583 0.230464 0.142613
0.002725 0.230379 0.171635
0.002867 0.230293 0.201050
0.003010 0.230208 0.230806
0.003152 0.230122 0.260862
0.003295 0.230037 0.291189
0.003437 0.229951 0.321760
0.003580 0.229866 0.352556
0.003723 0.229780 0.383558
0.003865 0.229695 0.414753
0.004007 0.229609 0.446128
0.004150 0.229524 0.477671
0.004293 0.229438 0.509372
0.004435 0.229353 0.541224
0.004577 0.229267 0.573219
0.004720 0.229182 0.605349
0.004862 0.229096 0.637608
0.005005 0.229011 0.669990
0.005147 0.228925 0.702492
0.005290 0.228840 0.735107
0.005432 0.228754 0.767831
0.005575 0.228669 0.800660
0.005718 0.228583 0.833591
0.005860 0.228498 0.866620
0.006000 0.228414 0.899746
0.006000 0.228414 0.933076
0.006000 0.228414 0.966495
0.006000 0.228414 1.000000
0.002604 0.260622 0.008717
0.002746 0.260537 0.032144
0.002889 0.260451 0.058255
0.003031 0.260366 0.085486
0.003174 0.260280 0.113469
0.003316 0.260195 0.142026
0.003459 0.260109 0.171048
0.003601 0.260024 0.200463
0.003744 0.259938 0.230219
0.003886 0.259853 0.260275
0.004029 0.259767 0.290602
0.004171 0.259682 0.321173
0.004314 0.259596 0.351969
0.004456 0.259511 0.382971
0.004599 0.259425 0.414166
0.004741 0.259340 0.445541
0.004884 0.259254 0.477084
0.005026 0.259169 0.508785
0.005169 0.259083 0.540637
0.005311 0.258998 0.572632
0.005454 0.258912 0.604762
0.005596 0.258827 0.637021
0.005739 0.258741 0.669403
0.005881 0.258656 0.701905
0.006000 0.258584 0.734539
0.006000 0.258584 0.767377
0.006000 0.258584 0.800320
0.006000 0.258584 0.833365
0.006000 0.258584 0.866508
0.006000 0.258584 0.899746
0.006000 0.258584 0.933076
0.006000 0.258584 0.966495
0.006000 0.258584 1.000000
0.003337 0.290622 0.008130
0.003480 0.290537 0.031557
0.003622 0.290451 0.057668
0.003765 0.290366 0.084899
0.003907 0.290280 0.112882
0.004050 0.290195 0.141439
0.004192 0.290109 0.170461
0.004335 0.290024 0.199876
0.004477 0.289938 0.229632
0.004620 0.289853 0.259688
0.004762 0.289767 0.290015
0.004905 0.289682 0.320586
0.005047 0.289596 0.351382
0.005190 0.289511 0.382384
0.005332 0.289425 0.413579
0.005475 0.289340 0.444954
0.005617 0.289254 0.476497
0.005760 0.289169 0.508198
0.005902 0.289083 0.540050
0.006000 0.289025 0.572081
0.006000 0.289025 0.604325
0.006000 0.289025 0.636698
0.006000 0.289025 0.669194
0.006000 0.289025 0.701810
0.006000 0.289025 0.734539
0.006000 0.289025 0.767377
0.006000 0.289025 0.800320
0.006000 0.289025 0.833365
0.006000 0.289025 0.866508
0.006000 0.289025 0.899746
0.006000 0.289025 0.933076
0.006000 0.289025 0.966495
0.006000 0.289025 1.000000
0.004071 0.320867 0.007543
0.004214 0.320782 0.030970
0.004356 0.320696 0.057081
0.004499 0.320611 0.084312
0.004641 0.320525 0.112295
0.004784 0.320440 0.140852
0.004926 0.320354 0.169874
0.005069 0.320269 0.199289
0.005211 0.320183 0.229045
0.005354 0.320098 0.259101
0.005496 0.320012 0.289428
0.005639 0.319927 0.319999
0.005781 0.319841 0.350795
0.005924 0.319756 0.381797
0.006000 0.319710 0.413045
0.006000 0.319710 0.444534
0.006000 0.319710 0.476191
0.006000 0.319710 0.508006
0.006000 0.319710 0.539972
0.006000 0.319710 0.572081
0.006000 0.319710 0.604325
0.006000 0.319710 0.636698
0.006000 0.319710 0.669194
0.006000 0.319710 0.701810
0.006000 0.319710 0.734539
0.006000 0.319710 0.767377
0.006000 0.319710 0.800320
0.006000 0.319710 0.833365
0.006000 0.319710 0.866508
0.006000 0.319710 0.899746
0.006000 0.319710 0.933076
0.006000 0.319710 0.966495
0.006000 0.319710 1.000000
0.004805 0.351337 0.006956
0.004947 0.351251 0.030383
0.005090 0.351166 0.056494
0.005232 0.351080 0.083725
0.005375 0.350995 0.111708
0.005517 0.350909 0.140265
0.005660 0.350824 0.169287
0.005802 0.350738 0.198702
0.005945 0.350653 0.228458
0.006000 0.350620 0.258584
0.006000 0.350620 0.289025
0.006000 0.350620 0.319710
0.006000 0.350620 0.350620
0.006000 0.350620 0.381736
0.006000 0.350620 0.413045
0.006000 0.350620 0.444534
0.006000 0.350620 0.476191
0.006000 0.350620 0.508006
0.006000 0.350620 0.539972
0.006000 0.350620 0.572081
0.006000 0.350620 0.604325
0.006000 0.350620 0.636698
0.006000 0.350620 0.669194
0.006000 0.350620 0.701810
0.006000 0.350620 0.734539
0.006000 0.350620 0.767377
0.006000 0.350620 0.800320
0.006000 0.350620 0.833365
0.006000 0.350620 0.866508
0.006000 0.350620 0.899746
0.006000 0.350620 0.933076
0.006000 0.350620 0.966495
0.006000 0.350620 1.000000
0.005539 0.382013 0.006369
0.005681 0.381928 0.029796
0.005824 0.381842 0.055907
0.005966 0.381757 0.083138
0.006000 0.381736 0.111208
0.006000 0.381736 0.139879
0.006000 0.381736 0.169015
0.006000 0.381736 0.198544
0.006000 0.381736 0.228414
0.006000 0.381736 0.258584
0.006000 0.381736 0.289025
0.006000 0.381736 0.319710
0.006000 0.381736 0.350620
0.006000 0.381736 0.381736
0.006000 0.381736 0.413045
0.006000 0.381736 0.444534
0.006000 0.381736 0.476191
0.006000 0.381736 0.508006
0.006000 0.381736 0.539972
0.006000 0.381736 0.572081
0.006000 0.381736 0.604325
0.006000 0.381736 0.636698
0.006000 0.381736 0.669194
0.006000 0.381736 0.701810
0.006000 0.381736 0.734539
0.006000 0.381736 0.767377
0.006000 0.381736 0.800320
0.006000 0.381736 0.833365
0.006000 0.381736 0.866508
0.006000 0.381736 0.899746
0.006000 0.381736 0.933076
0.006000 0.381736 0.966495
0.006000 0.381736 1.000000
0.006000 0.413045 0.006000
0.006000 0.413045 0.029541
0.006000 0.413045 0.055766
0.006000 0.413045 0.083111
0.006000 0.413045 0.111208
0.006000 0.413045 0.139879
0.006000 0.413045 0.169015
0.006000 0.413045 0.198544
0.006000 0.413045 0.228414
0.006000 0.413045 0.258584
0.006000 0.413045 0.289025
0.006000 0.413045 0.319710
0.006000 0.413045 0.350620
0.006000 0.413045 0.381736
0.006000 0.413045 0.413045
0.006000 0.413045 0.444534
0.006000 0.413045 0.476191
0.006000 0.413045 0.508006
0.006000 0.413045 0.539972
0.006000 0.413045 0.572081
0.006000 0.413045 0.604325
0.006000 0.413045 0.636698
0.006000 0.413045 0.669194
0.006000 0.413045 0.701810
0.006000 0.413045 0.734539
0.006000 0.413045 0.767377
0.006000 0.413045 0.800320
0.006000 0.413045 0.833365
0.006000 0.413045 0.866508
0.006000 0.413045 0.899746
0.006000 0.413045 0.933076
0.006000 0.413045 0.966495
0.006000 0.413045 1.000000
0.006000 0.444534 0.006000
0.006000 0.444534 0.029541
0.006000 0.444534 0.055766
0.006000 0.444534 0.083111
0.006000 0.444534 0.111208
0.006000 0.444534 0.139879
0.006000 0.444534 0.169015
0.006000 0.444534 0.198544
0.006000 0.444534 0.228414
0.006000 0.444534 0.258584
0.006000 0.444534 0.289025
0.006000 0.444534 0.319710
0.006000 0.444534 0.350620
0.006000 0.444534 0.381736
0.006000 0.444534 0.413045
0.006000 0.444534 0.444534
0.006000 0.444534 0.476191
0.006000 0.444534 0.508006
0.006000 0.444534 0.539972
0.006000 0.444534 0.572081
0.006000 0.444534 0.604325
0.006000 0.444534 0.636698
0.006000 0.444534 0.669194
0.006000 0.444534 0.701810
0.006000 0.444534 0.734539
0.006000 0.444534 0.767377
0.006000 0.444534 0.800320
0.006000 0.444534 0.833365
0.006000 0.444534 0.866508
0.006000 0.444534 0.899746
0.006000 0.444534 0.933076
0.006000 0.444534 0.966495
0.006000 0.444534 1.000000
0.006000 0.476191 0.006000
0.006000 0.476191 0.029541
0.006000 0.476191 0.055766
0.006000 0.476191 0.083111
0.006000 0.476191 0.111208
0.006000 0.476191 0.139879
0.006000 0.476191 0.169015
0.006000 0.476191 0.198544
0.006000 0.476191 0.228414
0.006000 0.476191 0.258584
0.006000 0.476191 0.289025
0.006000 0.476191 0.319710
0.006000 0.476191 0.350620
0.006000 0.476191 0.381736
0.006000 0.476191 0.413045
0.006000 0.476191 0.444534
0.006000 0.476191 0.476191
0.006000 0.476191 0.508006
0.006000 0.476191 0.539972
0.006000 0.476191 0.572081
0.006000 0.476191 0.604325
0.006000 0.476191 0.636698
0.006000 0.476191 0.669194
0.006000 0.476191 0.701810
0.006000 0.476191 0.734539
0.006000 0.476191 0.767377
0.006000 0.476191 0.800320
0.006000 0.476191 0.833365
0.006000 0.476191 0.866508
0.006000 0.476191 0.899746
0.006000 0.476191 0.933076
0.006000 0.476191 0.966495
0.006000 0.476191 1.000000
0.006000 0.508006 0.006000
0.006000 0.508006 0.029541
0.006000 0.508006 0.055766
0.006000 0.508006 0.083111
0.006000 0.508006 0.111208
0.006000 0.508006 0.139879
0.006000 0.508006 0.169015
0.006000 0.508006 0.198544
0.006000 0.508006 0.228414
0.006000 0.508006 0.258584
0.006000 0.508006 0.289025
0.006000 0.508006 0.319710
0.006000 0.508006 0.350620
0.006000 0.508006 0.381736
0.006000 0.508006 0.413045
0.006000 0.508006 0.444534
0.006000 0.508006 0.476191
0.006000 0.508006 0.508006
0.006000 0.508006 0.539972
0.006000 0.508006 0.572081
0.006000 0.508006 0.604325
0.006000 0.508006 0.636698
0.006000 0.508006 0.669194
0.006000 0.508006 0.701810
0.006000 0.508006 0.734539
0.006000 0.508006 0.767377
0.006000 0.508006 0.800320
0.006000 0.508006 0.833365
0.006000 0.508006 0.866508
0.006000 0.508006 0.899746
0.006000 0.508006 0.933076
0.006000 0.508006 0.966495
0.006000 0.508006 1.000000
0.006000 0.539972 0.006000
0.006000 0.539972 0.029541
0.006000 0.539972 0.055766
0.006000 0.539972 0.083111
0.006000 0.539972 0.111208
0.006000 0.539972 0.139879
0.006000 0.539972 0.169015
0.006000 0.539972 0.198544
0.006000 0.539972 0.228414
0.006000 0.539972 0.258584
0.006000 0.539972 0.289025
0.006000 0.539972 0.319710
0.006000 0.539972 0.350620
0.006000 0.539972 0.381736
0.006000 0.539972 0.413045
0.006000 0.539972 0.444534
0.006000 0.539972 0.476191
0.006000 0.539972 0.508006
0.006000 0.539972 0.539972
0.006000 0.539972 0.572081
0.006000 0.539972 0.604325
0.006000 0.539972 0.636698
0.006000 0.539972 0.669194
0.006000 0.539972 0.701810
0.006000 0.539972 0.734539
0.006000 0.539972 0.767377
0.006000 0.539972 0.800320
0.006000 0.539972 0.833365
0.006000 0.539972 0.866508
0.006000 0.539972 0.899746
0.006000 0.539972 0.933076
0.006000 0.539972 0.966495
0.006000 0.539972 1.000000
0.006000 0.572081 0.006000
0.006000 0.572081 0.029541
0.006000 0.572081 0.055766
0.006000 0.572081 0.083111
0.006000 0.572081 0.111208
0.006000 0.572081 0.139879
0.006000 0.572081 0.169015
0.006000 0.572081 0.198544
0.006000 0.572081 0.228414
0.006000 0.572081 0.258584
0.006000 0.572081 0.289025
0.006000 0.572081 0.319710
0.006000 0.572081 0.350620
0.006000 0.572081 0.381736
0.006000 0.572081 0.413045
0.006000 0.572081 0.444534
0.006000 0.572081 0.476191
0.006000 0.572081 0.508006
0.006000 0.572081 0.539972
0.006000 0.572081 0.572081
0.006000 0.572081 0.604325
0.006000 0.572081 0.636698
0.006000 0.572081 0.669194
0.006000 0.572081 0.701810
0.006000 0.572081 0.734539
0.006000 0.572081 0.767377
0.006000 0.572081 0.800320
0.006000 0.572081 0.833365
0.006000 0.572081 0.866508
0.006000 0.572081 0.899746
0.006000 0.572081 0.933076
0.006000 0.572081 0.966495
0.006000 0.572081 1.000000
0.006000 0.604325 0.006000
0.006000 0.604325 0.029541
0.006000 0.604325 0.055766
0.006000 0.604325 0.083111
0.006000 0.604325 0.111208
0.006000 0.604325 0.139879
0.006000 0.604325 0.169015
0.006000 0.604325 0.198544
0.006000 0.604325 0.228414
0.006000 0.604325 0.258584
0.006000 0.604325 0.289025
0.006000 0.604325 0.319710
0.006000 0.604325 0.350620
0.006000 0.604325 0.381736
0.006000 0.604325 0.413045
0.006000 0.604325 0.444534
0.006000 0.604325 0.476191
0.006000 0.604325 0.508006
0.006000 0.604325 0.539972
0.006000 0.604325 0.572081
0.006000 0.604325 0.604325
0.006000 0.604325 0.636698
0.006000 0.604325 0.669194
0.006000 0.604325 0.701810
0.006000 0.604325 0.734539
0.006000 0.604325 0.767377
0.006000 0.604325 0.800320
0.006000 0.604325 0.833365
0.006000 0.604325 0.866508
0.006000 0.604325 0.899746
0.006000 0.604325 0.933076
0.006000 0.604325 0.966495
0.006000 0.604325 1.000000
0.006000 0.636698 0.006000
0.006000 0.636698 0.029541
0.006000 0.636698 0.055766
0.006000 0.636698 0.083111
0.006000 0.636698 0.111208
0.006000 0.636698 0.139879
0.006000 0.636698 0.169015
0.006000 0.636698 0.198544
0.006000 0.636698 0.228414
0.006000 0.636698 0.258584
0.006000 0.636698 0.289025
0.006000 0.636698 0.319710
0.006000 0.636698 0.350620
0.006000 0.636698 0.381736
0.006000 0.636698 0.413045
0.006000 0.636698 0.444534
0.006000 0.636698 0.476191
0.006000 0.636698 0.508006
0.006000 0.636698 0.539972
0.006000 0.636698 0.572081
0.006000 0.636698 0.604325
0.006000 0.636698 0.636698
0.006000 0.636698 0.669194
0.006000 0.636698 0.701810
0.006000 0.636698 0.734539
0.006000 0.636698 0.767377
0.006000 0.636698 0.800320
0.006000 0.636698 0.833365
0.006000 0.636698 0.866508
0.006000 0.636698 0.899746
0.006000 0.636698 0.933076
0.006000 0.636698 0.966495
0.006000 0.636698 1.000000
0.006000 0.669194 0.006000
0.006000 0.669194 0.029541
0.006000 0.669194 0.055766
0.006000 0.669194 0.083111
0.006000 0.669194 0.111208
0.006000 0.669194 0.139879
0.006000 0.669194 0.169015
0.006000 0.669194 0.198544
0.006000 0.669194 0.228414
0.006000 0.669194 0.258584
0.006000 0.669194 0.289025
0.006000 0.669194 0.319710
0.006000 0.669194 0.350620
0.006000 0.669194 0.381736
0.006000 0.669194 0.413045
0.006000 0.669194 0.444534
0.006000 0.669194 0.476191
0.006000 0.669194 0.508006
0.006000 0.669194 0.539972
0.006000 0.669194 0.572081
0.006000 0.669194 0.604325
0.006000 0.669194 0.636698
0.006000 0.669194 0.669194
0.006000 0.669194 0.701810
0.006000 0.669194 0.734539
0.006000 0.669194 0.767377
0.006000 0.669194 0.800320
0.006000 0.669194 0.833365
0.006000 0.669194 0.866508
0.006000 0.669194 0.899746
0.006000 0.669194 0.933076
0.006000 0.669194 0.966495
0.006000 0.669194 1.000000
0.006000 0.701810 0.006000
0.006000 0.701810 0.029541
0.006000 0.701810 0.055766
0.006000 0.701810 0.083111
0.006000 0.701810 0.111208
0.006000 0.701810 0.139879
0.006000 0.701810 0.169015
0.006000 0.701810 0.198544
0.006000 0.701810 0.228414
0.006000 0.701810 0.258584
0.006000 0.701810 0.289025
0.006000 0.701810 0.319710
0.006000 0.701810 0.350620
0.006000 0.701810 0.381736
0.006000 0.701810 0.413045
0.006000 0.701810 0.444534
0.006000 0.701810 0.476191
0.006000 0.701810 0.508006
0.006000 0.701810 0.539972
0.006000 0.701810 0.572081
0.006000 0.701810 0.604325
0.006000 0.701810 0.636698
0.006000 0.701810 0.669194
0.006000 0.701810 0.701810
0.006000 0.701810 0.734539
0.006000 0.701810 0.767377
0.006000 0.701810 0.800320
0.006000 0.701810 0.833365
0.006000 0.701810 0.866508
0.006000 0.701810 0.899746
0.006000 0.701810 0.933076
0.006000 0.701810 0.966495
0.006000 0.701810 1.000000
0.006000 0.734539 0.006000
0.006000 0.734539 0.029541
0.006000 0.734539 0.055766
0.006000 0.734539 0.083111
0.006000 0.734539 0.111208
0.006000 0.734539 0.139879
0.006000 0.734539 0.169015
0.006000 0.734539 0.198544
0.006000 0.734539 0.228414
0.006000 0.734539 0.258584
0.006000 0.734539 0.289025
0.006000 0.734539 0.319710
0.006000 0.734539 0.350620
0.006000 0.734539 0.381736
0.006000 0.734539 0.413045
0.006000 0.734539 0.444534
0.006000 0.734539 0.476191
0.006000 0.734539 0.508006
0.006000 0.734539 0.539972
0.006000 0.734539 0.572081
0.006000 0.734539 0.604325
0.006000 0.734539 0.636698
0.006000 0.734539 0.669194
0.006000 0.734539 0.701810
0.006000 0.734539 0.734539
0.006000 0.734539 0.767377
0.006000 0.734539 0.800320
0.006000 0.734539 0.833365
0.006000 0.734539 0.866508
0.006000 0.734539 0.899746
0.006000 0.734539 0.933076
0.006000 0.734539 0.966495
0.006000 0.734539 1.000000
0.006000 0.767377 0.006000
0.006000 0.767377 0.029541
0.006000 0.767377 0.055766
0.006000 0.767377 0.083111
0.006000 0.767377 0.111208
0.006000 0.767377 0.139879
0.006000 0.767377 0.169015
0.006000 0.767377 0.198544
0.006000 0.767377 0.228414
0.006000 0.767377 0.258584
0.006000 0.767377 0.289025
0.006000 0.767377 0.319710
0.006000 0.767377 0.350620
0.006000 0.767377 0.381736
0.006000 0.767377 0.413045
0.006000 0.767377 0.444534
0.006000 0.767377 0.476191
0.006000 0.767377 0.508006
0.006000 0.767377 0.539972
0.006000 0.767377 0.572081
0.006000 0.767377 0.604325
0.006000 0.767377 0.636698
0.006000 0.767377 0.669194
0.006000 0.767377 0.701810
0.006000 0.767377 0.734539
0.006000 0.767377 0.767377
0.006000 0.767377 0.800320
0.006000 0.767377 0.833365
0.006000 0.767377 0.866508
0.006000 0.767377 0.899746
0.006000 0.767377 0.933076
0.006000 0.767377 0.966495
0.006000 0.767377 1.000000
0.006000 0.800320 0.006000
0.006000 0.800320 0.029541
0.006000 0.800320 0.055766
0.006000 0.800320 0.083111
0.006000 0.800320 0.111208
0.006000 0.800320 0.139879
0.006000 0.800320 0.169015
0.006000 0.800320 0.198544
0.006000 0.800320 0.228414
0.006000 0.800320 0.258584
0.006000 0.800320 0.289025
0.006000 0.800320 0.319710
0.006000 0.800320 0.350620
0.006000 0.800320 0.381736
0.006000 0.800320 0.413045
0.006000 0.800320 0.444534
0.006000 0.800320 0.476191
0.006000 0.800320 0.508006
0.006000 0.800320 0.539972
0.006000 0.800320 0.572081
0.006000 0.800320 0.604325
0.006000 0.800320 0.636698
0.006000 0.800320 0.669194
0.006000 0.800320 0.701810
0.006000 0.800320 0.734539
0.006000 0.800320 0.767377
0.006000 0.800320 0.800320
