Resources/LUTs/astia_100f.cube
TITLE "Astia_TrueE6_33"
LUT_3D_SIZE 5
DOMAIN_MIN 0.0 0.0 0.0
DOMAIN_MAX 1.0 1.0 1.0
0.000000 0.012000 0.014000
0.000000 0.011316 0.235502
0.000000 0.010632 0.482367
0.000000 0.009948 0.739803
0.000560 0.009264 1.000000
0.001870 0.230892 0.009304
0.003010 0.230208 0.230806
0.004150 0.229524 0.477671
0.005290 0.228840 0.735107
0.006000 0.228414 1.000000
0.006000 0.476191 0.006000
0.006000 0.476191 0.228414
0.006000 0.476191 0.476191
0.006000 0.476191 0.734539
0.006000 0.476191 1.000000
0.006000 0.734539 0.006000
0.006000 0.734539 0.228414
0.006000 0.734539 0.476191
0.006000 0.734539 0.734539
0.006000 0.734539 1.000000
0.006000 1.000000 0.006000
0.006000 1.000000 0.228414
0.006000 1.000000 0.476191
0.006000 1.000000 0.734539
0.006000 1.000000 1.000000
0.207371 0.017293 0.018554
0.222544 0.009522 0.233110
0.223684 0.008838 0.479975
0.224824 0.008154 0.737411
0.225964 0.007470 1.000000
0.227274 0.229098 0.006912
0.228414 0.228414 0.228414
0.228414 0.228414 0.476191
0.228414 0.228414 0.734539
0.228414 0.228414 1.000000
0.228414 0.476191 0.006000
0.228414 0.476191 0.228414
0.228414 0.476191 0.476191
0.228414 0.476191 0.734539
0.228414 0.476191 1.000000
0.228414 0.734539 0.006000
0.228414 0.734539 0.228414
0.228414 0.734539 0.476191
0.228414 0.734539 0.734539
0.228414 0.734539 1.000000
0.228414 1.000000 0.006000
0.228414 1.000000 0.228414
0.228414 1.000000 0.476191
0.228414 1.000000 0.734539
0.228414 1.000000 1.000000
0.441280 0.023897 0.024621
0.449705 0.030680 0.231371
0.474451 0.007044 0.477583
0.475591 0.006360 0.735019
0.476191 0.006000 1.000000
0.452258 0.229259 0.029087
0.459672 0.236673 0.236673
0.476191 0.228414 0.476191
0.476191 0.228414 0.734539
0.476191 0.228414 1.000000
0.476191 0.476191 0.006000
0.476191 0.476191 0.228414
0.476191 0.476191 0.476191
0.476191 0.476191 0.734539
0.476191 0.476191 1.000000
0.476191 0.734539 0.006000
0.476191 0.734539 0.228414
0.476191 0.734539 0.476191
0.476191 0.734539 0.734539
0.476191 0.734539 1.000000
0.476191 1.000000 0.006000
0.476191 1.000000 0.228414
0.476191 1.000000 0.476191
0.476191 1.000000 0.734539
0.476191 1.000000 1.000000
0.685056 0.030855 0.031040
0.693383 0.037698 0.237871
0.734539 0.006000 0.476191
0.734539 0.006000 0.734539
0.734539 0.006000 1.000000
0.693383 0.237871 0.037698
0.700797 0.245285 0.245285
0.709056 0.253544 0.476543
0.734539 0.228414 0.734539
0.734539 0.228414 1.000000
0.701642 0.469129 0.045958
0.709056 0.476543 0.253544
0.717315 0.484802 0.484802
0.734539 0.476191 0.734539
0.734539 0.476191 1.000000
0.734539 0.734539 0.006000
0.734539 0.734539 0.228414
0.734539 0.734539 0.476191
0.734539 0.734539 0.734539
0.734539 0.734539 1.000000
0.734539 1.000000 0.006000
0.734539 1.000000 0.228414
0.734539 1.000000 0.476191
0.734539 1.000000 0.734539
0.734539 1.000000 1.000000
0.933733 0.039133 0.039133
0.941147 0.046547 0.246719
0.949406 0.054806 0.477978
1.000000 0.006000 0.734539
1.000000 0.006000 1.000000
0.941147 0.246719 0.046547
0.948561 0.254133 0.254133
0.956820 0.262393 0.485392
1.000000 0.228414 0.734539
1.000000 0.228414 1.000000
0.949406 0.477978 0.054806
0.956820 0.485392 0.262393
0.965079 0.493651 0.493651
0.973691 0.502263 0.734776
1.000000 0.476191 1.000000
1.000000 0.734539 0.006000
0.965432 0.726516 0.271004
0.973691 0.734776 0.502263
0.982303 0.743387 0.743387
1.000000 0.734539 1.000000
1.000000 1.000000 0.006000
1.000000 1.000000 0.228414
1.000000 1.000000 0.476191
1.000000 1.000000 0.734539
1.000000 1.000000 1.000000
