Resources/LUTs/astia_100f.cube
TITLE "Astia_TrueE6_33"
LUT_3D_SIZE 9
DOMAIN_MIN 0.0 0.0 0.0
DOMAIN_MAX 1.0 1.0 1.0
0.000000 0.012000 0.014000
0.000000 0.011658 0.118752
0.000000 0.011316 0.235502
0.000000 0.010974 0.357252
0.000000 0.010632 0.482367
0.000000 0.010290 0.610045
0.000000 0.009948 0.739803
0.000000 0.009606 0.871316
0.000560 0.009264 1.000000
0.000000 0.115447 0.011652
0.000000 0.115105 0.116404
0.000075 0.114763 0.233154
0.000645 0.114421 0.354904
0.001215 0.114079 0.480019
0.001785 0.113737 0.607697
0.002355 0.113395 0.737455
0.002925 0.113053 0.868968
0.003495 0.112711 1.000000
0.001870 0.230892 0.009304
0.002440 0.230550 0.114056
0.003010 0.230208 0.230806
0.003580 0.229866 0.352556
0.004150 0.229524 0.477671
0.004720 0.229182 0.605349
0.005290 0.228840 0.735107
0.005860 0.228498 0.866620
0.006000 0.228414 1.000000
0.004805 0.351337 0.006956
0.005375 0.350995 0.111708
0.005945 0.350653 0.228458
0.006000 0.350620 0.350620
0.006000 0.350620 0.476191
0.006000 0.350620 0.604325
0.006000 0.350620 0.734539
0.006000 0.350620 0.866508
0.006000 0.350620 1.000000
0.006000 0.476191 0.006000
0.006000 0.476191 0.111208
0.006000 0.476191 0.228414
0.006000 0.476191 0.350620
0.006000 0.476191 0.476191
0.006000 0.476191 0.604325
0.006000 0.476191 0.734539
0.006000 0.476191 0.866508
0.006000 0.476191 1.000000
0.006000 0.604325 0.006000
0.006000 0.604325 0.111208
0.006000 0.604325 0.228414
0.006000 0.604325 0.350620
0.006000 0.604325 0.476191
0.006000 0.604325 0.604325
0.006000 0.604325 0.734539
0.006000 0.604325 0.866508
0.006000 0.604325 1.000000
0.006000 0.734539 0.006000
0.006000 0.734539 0.111208
0.006000 0.734539 0.228414
0.006000 0.734539 0.350620
0.006000 0.734539 0.476191
0.006000 0.734539 0.604325
0.006000 0.734539 0.734539
0.006000 0.734539 0.866508
0.006000 0.734539 1.000000
0.006000 0.866508 0.006000
0.006000 0.866508 0.111208
0.006000 0.866508 0.228414
0.006000 0.866508 0.350620
0.006000 0.866508 0.476191
0.006000 0.866508 0.604325
0.006000 0.866508 0.734539
0.006000 0.866508 0.866508
0.006000 0.866508 1.000000
0.006000 1.000000 0.006000
0.006000 1.000000 0.111208
0.006000 1.000000 0.228414
0.006000 1.000000 0.350620
0.006000 1.000000 0.476191
0.006000 1.000000 0.604325
0.006000 1.000000 0.734539
0.006000 1.000000 0.866508
0.006000 1.000000 1.000000
0.096653 0.014213 0.015744
0.103273 0.010761 0.117556
0.103843 0.010419 0.234306
0.104413 0.010077 0.356056
0.104983 0.009735 0.481171
0.105553 0.009393 0.608849
0.106123 0.009051 0.738607
0.106693 0.008709 0.870120
0.107263 0.008367 1.000000
0.105638 0.114550 0.010456
0.106208 0.114208 0.115208
0.106778 0.113866 0.231958
0.107348 0.113524 0.353708
0.107918 0.113182 0.478823
0.108488 0.112840 0.606501
0.109058 0.112498 0.736259
0.109628 0.112156 0.867772
0.110198 0.111814 1.000000
0.108573 0.229995 0.008108
0.109143 0.229653 0.112860
0.109713 0.229311 0.229610
0.110283 0.228969 0.351360
0.110853 0.228627 0.476475
0.111208 0.228414 0.604325
0.111208 0.228414 0.734539
0.111208 0.228414 0.866508
0.111208 0.228414 1.000000
0.111208 0.350620 0.006000
0.111208 0.350620 0.111208
0.111208 0.350620 0.228414
0.111208 0.350620 0.350620
0.111208 0.350620 0.476191
0.111208 0.350620 0.604325
0.111208 0.350620 0.734539
0.111208 0.350620 0.866508
0.111208 0.350620 1.000000
0.111208 0.476191 0.006000
0.111208 0.476191 0.111208
0.111208 0.476191 0.228414
0.111208 0.476191 0.350620
0.111208 0.476191 0.476191
0.111208 0.476191 0.604325
0.111208 0.476191 0.734539
0.111208 0.476191 0.866508
0.111208 0.476191 1.000000
0.111208 0.604325 0.006000
0.111208 0.604325 0.111208
0.111208 0.604325 0.228414
0.111208 0.604325 0.350620
0.111208 0.604325 0.476191
0.111208 0.604325 0.604325
0.111208 0.604325 0.734539
0.111208 0.604325 0.866508
0.111208 0.604325 1.000000
0.111208 0.734539 0.006000
0.111208 0.734539 0.111208
0.111208 0.734539 0.228414
0.111208 0.734539 0.350620
0.111208 0.734539 0.476191
0.111208 0.734539 0.604325
0.111208 0.734539 0.734539
0.111208 0.734539 0.866508
0.111208 0.734539 1.000000
0.111208 0.866508 0.006000
0.111208 0.866508 0.111208
0.111208 0.866508 0.228414
0.111208 0.866508 0.350620
0.111208 0.866508 0.476191
0.111208 0.866508 0.604325
0.111208 0.866508 0.734539
0.111208 0.866508 0.866508
0.111208 0.866508 1.000000
0.111208 1.000000 0.006000
0.111208 1.000000 0.111208
0.111208 1.000000 0.228414
0.111208 1.000000 0.350620
0.111208 1.000000 0.476191
0.111208 1.000000 0.604325
0.111208 1.000000 0.734539
0.111208 1.000000 0.866508
0.111208 1.000000 1.000000
0.207371 0.017293 0.018554
0.211383 0.020484 0.116331
0.222544 0.009522 0.233110
0.223114 0.009180 0.354860
0.223684 0.008838 0.479975
0.224254 0.008496 0.607653
0.224824 0.008154 0.737411
0.225394 0.007812 0.868924
0.225964 0.007470 1.000000
0.213480 0.113863 0.019909
0.217492 0.117054 0.117685
0.225479 0.112969 0.230762
0.226049 0.112627 0.352512
0.226619 0.112285 0.477627
0.227189 0.111943 0.605305
0.227759 0.111601 0.735063
0.228329 0.111259 0.866576
0.228414 0.111208 1.000000
0.227274 0.229098 0.006912
0.227844 0.228756 0.111664
0.228414 0.228414 0.228414
0.228414 0.228414 0.350620
0.228414 0.228414 0.476191
0.228414 0.228414 0.604325
0.228414 0.228414 0.734539
0.228414 0.228414 0.866508
0.228414 0.228414 1.000000
0.228414 0.350620 0.006000
0.228414 0.350620 0.111208
0.228414 0.350620 0.228414
0.228414 0.350620 0.350620
0.228414 0.350620 0.476191
0.228414 0.350620 0.604325
0.228414 0.350620 0.734539
0.228414 0.350620 0.866508
0.228414 0.350620 1.000000
0.228414 0.476191 0.006000
0.228414 0.476191 0.111208
0.228414 0.476191 0.228414
0.228414 0.476191 0.350620
0.228414 0.476191 0.476191
0.228414 0.476191 0.604325
0.228414 0.476191 0.734539
0.228414 0.476191 0.866508
0.228414 0.476191 1.000000
0.228414 0.604325 0.006000
0.228414 0.604325 0.111208
0.228414 0.604325 0.228414
0.228414 0.604325 0.350620
0.228414 0.604325 0.476191
0.228414 0.604325 0.604325
0.228414 0.604325 0.734539
0.228414 0.604325 0.866508
0.228414 0.604325 1.000000
0.228414 0.734539 0.006000
0.228414 0.734539 0.111208
0.228414 0.734539 0.228414
0.228414 0.734539 0.350620
0.228414 0.734539 0.476191
0.228414 0.734539 0.604325
0.228414 0.734539 0.734539
0.228414 0.734539 0.866508
0.228414 0.734539 1.000000
0.228414 0.866508 0.006000
0.228414 0.866508 0.111208
0.228414 0.866508 0.228414
0.228414 0.866508 0.350620
0.228414 0.866508 0.476191
0.228414 0.866508 0.604325
0.228414 0.866508 0.734539
0.228414 0.866508 0.866508
0.228414 0.866508 1.000000
0.228414 1.000000 0.006000
0.228414 1.000000 0.111208
0.228414 1.000000 0.228414
0.228414 1.000000 0.350620
0.228414 1.000000 0.476191
0.228414 1.000000 0.604325
0.228414 1.000000 0.734539
0.228414 1.000000 0.866508
0.228414 1.000000 1.000000
0.322755 0.020539 0.021532
0.326767 0.023730 0.119308
0.346245 0.008625 0.231914
0.346815 0.008283 0.353664
0.347385 0.007941 0.478779
0.347955 0.007599 0.606457
0.348525 0.007257 0.736215
0.349095 0.006915 0.867728
0.349665 0.006573 1.000000
0.328864 0.117109 0.022886
0.332877 0.120301 0.120662
0.337289 0.123892 0.229636
0.349750 0.111730 0.351316
0.350320 0.111388 0.476431
0.350620 0.111208 0.604325
0.350620 0.111208 0.734539
0.350620 0.111208 0.866508
0.350620 0.111208 1.000000
0.335059 0.225073 0.024901
0.338566 0.228580 0.123095
0.342473 0.232487 0.232487
0.350620 0.228414 0.350620
0.350620 0.228414 0.476191
0.350620 0.228414 0.604325
0.350620 0.228414 0.734539
0.350620 0.228414 0.866508
0.350620 0.228414 1.000000
0.350620 0.350620 0.006000
0.350620 0.350620 0.111208
0.350620 0.350620 0.228414
0.350620 0.350620 0.350620
0.350620 0.350620 0.476191
0.350620 0.350620 0.604325
0.350620 0.350620 0.734539
0.350620 0.350620 0.866508
0.350620 0.350620 1.000000
0.350620 0.476191 0.006000
0.350620 0.476191 0.111208
0.350620 0.476191 0.228414
0.350620 0.476191 0.350620
0.350620 0.476191 0.476191
0.350620 0.476191 0.604325
0.350620 0.476191 0.734539
0.350620 0.476191 0.866508
0.350620 0.476191 1.000000
0.350620 0.604325 0.006000
0.350620 0.604325 0.111208
0.350620 0.604325 0.228414
0.350620 0.604325 0.350620
0.350620 0.604325 0.476191
0.350620 0.604325 0.604325
0.350620 0.604325 0.734539
0.350620 0.604325 0.866508
0.350620 0.604325 1.000000
0.350620 0.734539 0.006000
0.350620 0.734539 0.111208
0.350620 0.734539 0.228414
0.350620 0.734539 0.350620
0.350620 0.734539 0.476191
0.350620 0.734539 0.604325
0.350620 0.734539 0.734539
0.350620 0.734539 0.866508
0.350620 0.734539 1.000000
0.350620 0.866508 0.006000
0.350620 0.866508 0.111208
0.350620 0.866508 0.228414
0.350620 0.866508 0.350620
0.350620 0.866508 0.476191
0.350620 0.866508 0.604325
0.350620 0.866508 0.734539
0.350620 0.866508 0.866508
0.350620 0.866508 1.000000
0.350620 1.000000 0.006000
0.350620 1.000000 0.111208
0.350620 1.000000 0.228414
0.350620 1.000000 0.350620
0.350620 1.000000 0.476191
0.350620 1.000000 0.604325
0.350620 1.000000 0.734539
0.350620 1.000000 0.866508
0.350620 1.000000 1.000000
0.441280 0.023897 0.024621
0.445293 0.027089 0.122397
0.449705 0.030680 0.231371
0.473881 0.007386 0.352468
0.474451 0.007044 0.477583
0.475021 0.006702 0.605261
0.475591 0.006360 0.735019
0.476161 0.006018 0.866532
0.476191 0.006000 1.000000
0.447390 0.120468 0.025976
0.451402 0.123659 0.123752
0.455765 0.127281 0.232766
0.476191 0.111208 0.350620
0.476191 0.111208 0.476191
0.476191 0.111208 0.604325
0.476191 0.111208 0.734539
0.476191 0.111208 0.866508
0.476191 0.111208 1.000000
0.452258 0.229259 0.029087
0.455765 0.232766 0.127281
0.459672 0.236673 0.236673
0.463746 0.240746 0.350732
0.476191 0.228414 0.476191
0.476191 0.228414 0.604325
0.476191 0.228414 0.734539
0.476191 0.228414 0.866508
0.476191 0.228414 1.000000
0.476191 0.350620 0.006000
0.459839 0.346825 0.131355
0.463746 0.350732 0.240746
0.467819 0.354805 0.354805
0.476191 0.350620 0.476191
0.476191 0.350620 0.604325
0.476191 0.350620 0.734539
0.476191 0.350620 0.866508
0.476191 0.350620 1.000000
0.476191 0.476191 0.006000
0.476191 0.476191 0.111208
0.476191 0.476191 0.228414
0.476191 0.476191 0.350620
0.476191 0.476191 0.476191
0.476191 0.476191 0.604325
0.476191 0.476191 0.734539
0.476191 0.476191 0.866508
0.476191 0.476191 1.000000
0.476191 0.604325 0.006000
0.476191 0.604325 0.111208
0.476191 0.604325 0.228414
0.476191 0.604325 0.350620
0.476191 0.604325 0.476191
0.476191 0.604325 0.604325
0.476191 0.604325 0.734539
0.476191 0.604325 0.866508
0.476191 0.604325 1.000000
0.476191 0.734539 0.006000
0.476191 0.734539 0.111208
0.476191 0.734539 0.228414
0.476191 0.734539 0.350620
0.476191 0.734539 0.476191
0.476191 0.734539 0.604325
0.476191 0.734539 0.734539
0.476191 0.734539 0.866508
0.476191 0.734539 1.000000
0.476191 0.866508 0.006000
0.476191 0.866508 0.111208
0.476191 0.866508 0.228414
0.476191 0.866508 0.350620
0.476191 0.866508 0.476191
0.476191 0.866508 0.604325
0.476191 0.866508 0.734539
0.476191 0.866508 0.866508
0.476191 0.866508 1.000000
0.476191 1.000000 0.006000
0.476191 1.000000 0.111208
0.476191 1.000000 0.228414
0.476191 1.000000 0.350620
0.476191 1.000000 0.476191
0.476191 1.000000 0.604325
0.476191 1.000000 0.734539
0.476191 1.000000 0.866508
0.476191 1.000000 1.000000
0.562197 0.027341 0.027796
0.566210 0.030533 0.125572
0.570622 0.034124 0.234546
0.575201 0.037882 0.348187
0.604080 0.006147 0.476387
0.604325 0.006000 0.604325
0.604325 0.006000 0.734539
0.604325 0.006000 0.866508
0.604325 0.006000 1.000000
0.567943 0.124138 0.029451
0.571450 0.127645 0.127645
0.575357 0.131552 0.237037
0.579430 0.135626 0.351096
0.604325 0.111208 0.476191
0.604325 0.111208 0.604325
0.604325 0.111208 0.734539
0.604325 0.111208 0.866508
0.604325 0.111208 1.000000
0.571850 0.233530 0.033358
0.575357 0.237037 0.131552
0.579264 0.240944 0.240944
0.583337 0.245018 0.355003
0.604325 0.228414 0.476191
0.604325 0.228414 0.604325
0.604325 0.228414 0.734539
0.604325 0.228414 0.866508
0.604325 0.228414 1.000000
0.575924 0.347589 0.037431
0.579430 0.351096 0.135626
0.583337 0.355003 0.245018
0.587411 0.359077 0.359077
0.591597 0.363262 0.476276
0.604325 0.350620 0.604325
0.604325 0.350620 0.734539
0.604325 0.350620 0.866508
0.604325 0.350620 1.000000
0.604325 0.476191 0.006000
0.604325 0.476191 0.111208
0.587523 0.472203 0.249203
0.591597 0.476276 0.363262
0.595782 0.480462 0.480462
0.604325 0.476191 0.604325
0.604325 0.476191 0.734539
0.604325 0.476191 0.866508
0.604325 0.476191 1.000000
0.604325 0.604325 0.006000
0.604325 0.604325 0.111208
0.604325 0.604325 0.228414
0.604325 0.604325 0.350620
0.604325 0.604325 0.476191
0.604325 0.604325 0.604325
0.604325 0.604325 0.734539
0.604325 0.604325 0.866508
0.604325 0.604325 1.000000
0.604325 0.734539 0.006000
0.604325 0.734539 0.111208
0.604325 0.734539 0.228414
0.604325 0.734539 0.350620
0.604325 0.734539 0.476191
0.604325 0.734539 0.604325
0.604325 0.734539 0.734539
0.604325 0.734539 0.866508
0.604325 0.734539 1.000000
0.604325 0.866508 0.006000
0.604325 0.866508 0.111208
0.604325 0.866508 0.228414
0.604325 0.866508 0.350620
0.604325 0.866508 0.476191
0.604325 0.866508 0.604325
0.604325 0.866508 0.734539
0.604325 0.866508 0.866508
0.604325 0.866508 1.000000
0.604325 1.000000 0.006000
0.604325 1.000000 0.111208
0.604325 1.000000 0.228414
0.604325 1.000000 0.350620
0.604325 1.000000 0.476191
0.604325 1.000000 0.604325
0.604325 1.000000 0.734539
0.604325 1.000000 0.866508
0.604325 1.000000 1.000000
0.685056 0.030855 0.031040
0.689068 0.034046 0.128816
0.693383 0.037698 0.237871
0.697457 0.041772 0.351930
0.734539 0.006000 0.476191
0.734539 0.006000 0.604325
0.734539 0.006000 0.734539
0.734539 0.006000 0.866508
0.734539 0.006000 1.000000
0.689476 0.128479 0.033792
0.692983 0.131986 0.131986
0.696890 0.135893 0.241378
0.700964 0.139966 0.355437
0.705149 0.144152 0.472636
0.734539 0.111208 0.604325
0.734539 0.111208 0.734539
0.734539 0.111208 0.866508
0.734539 0.111208 1.000000
0.693383 0.237871 0.037698
0.696890 0.241378 0.135893
0.700797 0.245285 0.245285
0.704870 0.249358 0.359344
0.709056 0.253544 0.476543
0.734539 0.228414 0.604325
0.734539 0.228414 0.734539
0.734539 0.228414 0.866508
0.734539 0.228414 1.000000
0.697457 0.351930 0.041772
0.700964 0.355437 0.139966
0.704870 0.359344 0.249358
0.708944 0.363417 0.363417
0.713130 0.367603 0.480617
0.734539 0.350620 0.604325
0.734539 0.350620 0.734539
0.734539 0.350620 0.866508
0.734539 0.350620 1.000000
0.701642 0.469129 0.045958
0.705149 0.472636 0.144152
0.709056 0.476543 0.253544
0.713130 0.480617 0.367603
0.717315 0.484802 0.484802
0.721587 0.489073 0.604394
0.734539 0.476191 0.734539
0.734539 0.476191 0.866508
0.734539 0.476191 1.000000
0.734539 0.604325 0.006000
0.734539 0.604325 0.111208
0.734539 0.604325 0.228414
0.717401 0.600208 0.371874
0.721587 0.604394 0.489073
0.725858 0.608665 0.608665
0.734539 0.604325 0.734539
0.734539 0.604325 0.866508
0.734539 0.604325 1.000000
0.734539 0.734539 0.006000
0.734539 0.734539 0.111208
0.734539 0.734539 0.228414
0.734539 0.734539 0.350620
0.734539 0.734539 0.476191
0.734539 0.734539 0.604325
0.734539 0.734539 0.734539
0.734539 0.734539 0.866508
0.734539 0.734539 1.000000
0.734539 0.866508 0.006000
0.734539 0.866508 0.111208
0.734539 0.866508 0.228414
0.734539 0.866508 0.350620
0.734539 0.866508 0.476191
0.734539 0.866508 0.604325
0.734539 0.866508 0.734539
0.734539 0.866508 0.866508
0.734539 0.866508 1.000000
0.734539 1.000000 0.006000
0.734539 1.000000 0.111208
0.734539 1.000000 0.228414
0.734539 1.000000 0.350620
0.734539 1.000000 0.476191
0.734539 1.000000 0.604325
0.734539 1.000000 0.734539
0.734539 1.000000 0.866508
0.734539 1.000000 1.000000
0.809141 0.034684 0.034684
0.812648 0.038191 0.132878
0.816555 0.042097 0.242270
0.820628 0.046171 0.356329
0.824814 0.050357 0.473528
0.866508 0.006000 0.604325
0.866508 0.006000 0.734539
0.866508 0.006000 0.866508
0.866508 0.006000 1.000000
0.812648 0.132878 0.038191
0.816155 0.136385 0.136385
0.820062 0.140292 0.245777
0.824135 0.144365 0.359836
0.828321 0.148551 0.477035
0.866508 0.111208 0.604325
0.866508 0.111208 0.734539
0.866508 0.111208 0.866508
0.866508 0.111208 1.000000
0.816555 0.242270 0.042097
0.820062 0.245777 0.140292
0.823969 0.249684 0.249684
0.828042 0.253757 0.363742
0.832228 0.257943 0.480942
0.836499 0.262214 0.600534
0.866508 0.228414 0.734539
0.866508 0.228414 0.866508
0.866508 0.228414 1.000000
0.820628 0.356329 0.046171
0.824135 0.359836 0.144365
0.828042 0.363742 0.253757
0.832116 0.367816 0.367816
0.836301 0.372002 0.485016
0.840573 0.376273 0.604607
0.866508 0.350620 0.734539
0.866508 0.350620 0.866508
0.866508 0.350620 1.000000
0.824814 0.473528 0.050357
0.828321 0.477035 0.148551
0.832228 0.480942 0.257943
0.836301 0.485016 0.372002
0.840487 0.489201 0.489201
0.844758 0.493472 0.608793
0.866508 0.476191 0.734539
0.866508 0.476191 0.866508
0.866508 0.476191 1.000000
0.829085 0.593120 0.054628
0.832592 0.596627 0.152822
0.836499 0.600534 0.262214
0.840573 0.604607 0.376273
0.844758 0.608793 0.493472
0.849029 0.613064 0.613064
0.853370 0.617404 0.734597
0.866508 0.604325 0.866508
0.866508 0.604325 1.000000
0.866508 0.734539 0.006000
0.866508 0.734539 0.111208
0.866508 0.734539 0.228414
0.866508 0.734539 0.350620
0.849099 0.730326 0.497813
0.853370 0.734597 0.617404
0.857710 0.738938 0.738938
0.866508 0.734539 0.866508
0.866508 0.734539 1.000000
0.866508 0.866508 0.006000
0.866508 0.866508 0.111208
0.866508 0.866508 0.228414
0.866508 0.866508 0.350620
0.866508 0.866508 0.476191
0.866508 0.866508 0.604325
0.866508 0.866508 0.734539
0.866508 0.866508 0.866508
0.866508 0.866508 1.000000
0.866508 1.000000 0.006000
0.866508 1.000000 0.111208
0.866508 1.000000 0.228414
0.866508 1.000000 0.350620
0.866508 1.000000 0.476191
0.866508 1.000000 0.604325
0.866508 1.000000 0.734539
0.866508 1.000000 0.866508
0.866508 1.000000 1.000000
0.933733 0.039133 0.039133
0.937240 0.042640 0.137328
0.941147 0.046547 0.246719
0.945221 0.050621 0.360778
0.949406 0.054806 0.477978
1.000000 0.006000 0.604325
1.000000 0.006000 0.734539
1.000000 0.006000 0.866508
1.000000 0.006000 1.000000
0.937240 0.137328 0.042640
0.940747 0.140835 0.140835
0.944654 0.144741 0.250226
0.948728 0.148815 0.364285
0.952913 0.153001 0.481485
0.957184 0.157272 0.601076
1.000000 0.111208 0.734539
1.000000 0.111208 0.866508
1.000000 0.111208 1.000000
0.941147 0.246719 0.046547
0.944654 0.250226 0.144741
0.948561 0.254133 0.254133
0.952634 0.258207 0.368192
0.956820 0.262393 0.485392
0.961091 0.266664 0.604983
1.000000 0.228414 0.734539
1.000000 0.228414 0.866508
1.000000 0.228414 1.000000
0.945221 0.360778 0.050621
0.948728 0.364285 0.148815
0.952634 0.368192 0.258207
0.956708 0.372266 0.372266
0.960894 0.376451 0.489465
0.965165 0.380723 0.609057
0.969505 0.385063 0.730590
1.000000 0.350620 0.866508
1.000000 0.350620 1.000000
0.949406 0.477978 0.054806
0.952913 0.481485 0.153001
0.956820 0.485392 0.262393
0.960894 0.489465 0.376451
0.965079 0.493651 0.493651
0.969351 0.497922 0.613243
0.973691 0.502263 0.734776
1.000000 0.476191 0.866508
1.000000 0.476191 1.000000
0.953677 0.597570 0.059077
0.957184 0.601076 0.157272
0.961091 0.604983 0.266664
0.965165 0.609057 0.380723
0.969351 0.613243 0.497922
0.973622 0.617514 0.617514
0.977962 0.621854 0.739047
1.000000 0.604325 0.866508
1.000000 0.604325 1.000000
1.000000 0.734539 0.006000
0.961525 0.722610 0.161612
0.965432 0.726516 0.271004
0.969505 0.730590 0.385063
0.973691 0.734776 0.502263
0.977962 0.739047 0.621854
0.982303 0.743387 0.743387
0.986702 0.747786 0.866559
1.000000 0.734539 1.000000
1.000000 0.866508 0.006000
1.000000 0.866508 0.111208
1.000000 0.866508 0.228414
1.000000 0.866508 0.350620
1.000000 0.866508 0.476191
0.982361 0.862219 0.626253
0.986702 0.866559 0.747786
0.991101 0.870958 0.870958
1.000000 0.866508 1.000000
1.000000 1.000000 0.006000
1.000000 1.000000 0.111208
1.000000 1.000000 0.228414
1.000000 1.000000 0.350620
1.000000 1.000000 0.476191
1.000000 1.000000 0.604325
1.000000 1.000000 0.734539
1.000000 1.000000 0.866508
1.000000 1.000000 1.000000
