Resources/LUTs/classic_chrome_linear.cube
TITLE "Classic Chrome Linear v1.0"
LUT_3D_SIZE 9
DOMAIN_MIN 0.0 0.0 0.0
DOMAIN_MAX 1.0 1.0 1.0
# Classic Chrome film simulation for LINEAR workflow
# Input: Linear RGB, Output: Linear RGB
# Pipeline: sRGB -> Linear -> THIS LUT -> Linear -> sRGB
0.002015 0.003055 0.005868
0.068098 0.013946 0.015391
0.140363 0.021346 0.020930
0.216495 0.028224 0.025801
0.288851 0.034853 0.030321
0.357190 0.041353 0.034629
0.417377 0.047759 0.038777
0.468758 0.054101 0.042803
0.516855 0.060427 0.046757
0.011708 0.066467 0.026835
0.067353 0.063918 0.014841
0.153070 0.094256 0.018154
0.234858 0.108785 0.022561
0.312079 0.121780 0.026664
0.371109 0.169702 0.034960
0.433817 0.187559 0.039528
0.487022 0.204351 0.043967
0.536769 0.220320 0.048328
0.018846 0.133911 0.043086
0.102969 0.187361 0.014973
0.140670 0.131394 0.022174
0.240942 0.182808 0.024014
0.319096 0.200708 0.028304
0.392428 0.216686 0.032377
0.454115 0.231204 0.036271
0.508475 0.244643 0.040043
0.559131 0.257253 0.043732
0.025890 0.208708 0.060155
0.116422 0.286231 0.018604
0.184562 0.224732 0.029442
0.219008 0.203970 0.029280
0.324063 0.270849 0.029530
0.398455 0.289115 0.033619
0.460930 0.305612 0.037508
0.516062 0.320806 0.041262
0.567427 0.334999 0.044922
0.032691 0.280979 0.077338
0.127967 0.378217 0.021898
0.220767 0.381114 0.022333
0.271314 0.302542 0.036074
0.296653 0.275906 0.035660
0.366005 0.294672 0.041084
0.467414 0.372688 0.038294
0.522908 0.388997 0.042064
0.574571 0.404171 0.045738
0.039274 0.349212 0.094728
0.066545 0.350201 0.044400
0.236294 0.462482 0.025162
0.321694 0.464818 0.025456
0.354390 0.376913 0.042205
0.371064 0.344813 0.041659
0.435050 0.362837 0.046922
0.528718 0.449079 0.042654
0.580454 0.462648 0.046302
0.045983 0.414365 0.112018
0.071594 0.415697 0.050716
0.250237 0.530541 0.027709
0.337547 0.533064 0.028008
0.381264 0.444534 0.047884
0.432347 0.445711 0.048037
0.439668 0.410444 0.047401
0.492442 0.427574 0.052513
0.585343 0.511246 0.046683
0.052776 0.468922 0.128940
0.076222 0.469999 0.056736
0.263159 0.593284 0.030105
0.352134 0.595958 0.030409
0.431107 0.598040 0.030636
0.454423 0.501056 0.053392
0.494853 0.502003 0.053482
0.496498 0.467341 0.052832
0.545825 0.481278 0.057813
0.059591 0.518648 0.145876
0.080608 0.519520 0.062607
0.275247 0.651300 0.032382
0.365698 0.654098 0.032689
0.444810 0.656252 0.032916
0.474922 0.552876 0.058616
0.515732 0.553860 0.058703
0.551237 0.552867 0.058738
0.549574 0.517262 0.058059
0.013306 0.012193 0.080420
0.081044 0.007575 0.094456
0.170188 0.010144 0.106421
0.259227 0.012353 0.115906
0.342339 0.014369 0.124097
0.414657 0.016249 0.131431
0.475209 0.018029 0.138148
0.531041 0.019747 0.144452
0.582702 0.021419 0.150434
0.010434 0.071645 0.075157
0.122718 0.125918 0.126652
0.225461 0.159426 0.152454
0.318492 0.187555 0.173664
0.402819 0.212162 0.192305
0.470312 0.234263 0.208918
0.530057 0.254613 0.224136
0.584821 0.273539 0.238348
0.635295 0.291303 0.251762
0.016474 0.146648 0.093341
0.156529 0.229067 0.177271
0.227469 0.227982 0.157863
0.329233 0.263329 0.173638
0.409839 0.305889 0.197085
0.477735 0.331080 0.213963
0.537761 0.354006 0.229416
0.593064 0.375362 0.243641
0.644152 0.395385 0.256962
0.026235 0.209944 0.177707
0.184176 0.321344 0.221550
0.263349 0.356186 0.165324
0.322550 0.319454 0.183833
0.422199 0.363937 0.193649
0.490847 0.384096 0.208517
0.552592 0.402275 0.222082
0.600817 0.455314 0.245854
0.652001 0.473449 0.259001
0.033027 0.282080 0.213508
0.209084 0.405440 0.260311
0.231652 0.405896 0.209504
0.373298 0.454834 0.179319
0.411401 0.403680 0.205346
0.497182 0.453551 0.210121
0.559098 0.469929 0.223579
0.615705 0.484855 0.236056
0.667748 0.498636 0.247754
0.039699 0.350578 0.246537
0.232194 0.475731 0.294671
0.243715 0.475813 0.229393
0.392146 0.531678 0.190444
0.454161 0.489606 0.224581
0.483845 0.474670 0.224018
0.564398 0.524847 0.224469
0.621194 0.540090 0.236941
0.673385 0.554132 0.248634
0.046662 0.416282 0.276679
0.253530 0.536120 0.326189
0.254534 0.535833 0.247383
0.409138 0.601303 0.200471
0.483403 0.603153 0.200931
0.524778 0.552847 0.241504
0.547377 0.534892 0.240768
0.626040 0.589801 0.237595
0.678348 0.603986 0.249283
0.053557 0.470990 0.304614
0.273566 0.591701 0.355639
0.274192 0.591397 0.273441
0.326341 0.593017 0.264571
0.497761 0.666676 0.210047
0.559676 0.668181 0.210345
0.589239 0.610931 0.257118
0.605800 0.590327 0.256246
0.655978 0.604751 0.270412
0.060458 0.520854 0.330995
0.292526 0.643129 0.383394
0.293211 0.642816 0.298658
0.336483 0.644134 0.280195
0.510957 0.724829 0.218476
0.573205 0.726383 0.218770
0.610552 0.663652 0.271612
0.648406 0.664531 0.271705
0.659755 0.641605 0.270724
0.021535 0.018100 0.152685
0.093348 0.010110 0.185162
0.170526 0.010159 0.184042
0.259689 0.012374 0.197422
0.342910 0.014395 0.208705
0.415351 0.016281 0.218605
0.475979 0.018066 0.227507
0.531880 0.019790 0.235724
0.583603 0.021467 0.243403
0.015583 0.089624 0.145168
0.158300 0.154270 0.222595
0.235562 0.144522 0.235880
0.337697 0.158870 0.253351
0.427436 0.171232 0.267945
0.498461 0.182229 0.280612
0.562722 0.192190 0.292054
0.582350 0.242154 0.294170
0.632384 0.255818 0.305374
0.016587 0.147080 0.146394
0.153504 0.233824 0.228669
0.265614 0.271507 0.265026
0.363991 0.306169 0.292498
0.447788 0.335589 0.315657
0.514841 0.361558 0.335990
0.575653 0.385264 0.354276
0.631280 0.407239 0.371006
0.682377 0.427775 0.386567
0.022453 0.228716 0.169574
0.184517 0.321796 0.296559
0.300437 0.369408 0.316723
0.366128 0.368744 0.297620
0.457036 0.402035 0.314660
0.521981 0.442619 0.339142
0.583142 0.464291 0.357064
0.638887 0.484111 0.373549
0.690015 0.502459 0.388893
0.027940 0.305770 0.190400
0.209724 0.406134 0.339674
0.331608 0.454670 0.360138
0.401099 0.480223 0.305071
0.454426 0.454045 0.323627
0.532146 0.488110 0.334524
0.594554 0.504723 0.350660
0.651319 0.519839 0.365483
0.696223 0.563179 0.390300
0.039910 0.351187 0.324024
0.232911 0.476485 0.377484
0.359136 0.522301 0.398313
0.375566 0.522581 0.350024
0.493022 0.559507 0.319779
0.525193 0.521357 0.345712
0.599913 0.560278 0.351856
0.656846 0.575640 0.366668
0.708926 0.589773 0.380441
0.046920 0.416991 0.357347
0.254300 0.536923 0.411785
0.384290 0.583590 0.433090
0.388406 0.583510 0.371119
0.509001 0.629516 0.332211
0.560936 0.594730 0.366096
0.589394 0.582380 0.365537
0.661714 0.625633 0.367560
0.713893 0.639851 0.381326
0.053847 0.471735 0.387916
0.274373 0.592534 0.442731
0.407567 0.639591 0.461859
0.408138 0.639423 0.398198
0.455225 0.640689 0.390903
0.585819 0.694579 0.343881
0.625767 0.653061 0.384395
0.648062 0.638174 0.383671
0.718329 0.685232 0.382012
0.060776 0.521639 0.416533
0.293346 0.643957 0.468314
0.429330 0.691092 0.487618
0.429963 0.690946 0.426883
0.465234 0.691874 0.408858
0.599400 0.752596 0.354203
0.655170 0.753908 0.354529
0.684953 0.706596 0.401343
0.701935 0.689475 0.400491
0.029388 0.023484 0.225470
0.103163 0.012285 0.272477
0.184901 0.012342 0.271368
0.260013 0.012387 0.270624
0.343306 0.014412 0.283523
0.415830 0.016301 0.294776
0.476508 0.018090 0.304844
0.532454 0.019817 0.314100
0.584219 0.021498 0.322719
0.020291 0.104713 0.218295
0.188398 0.177812 0.309162
0.252661 0.158062 0.333729
0.338293 0.159270 0.335313
0.428105 0.171647 0.351577
0.499185 0.182655 0.365609
0.563413 0.192533 0.378289
0.621938 0.201629 0.389892
0.675551 0.210129 0.400630
0.021509 0.168690 0.220423
0.175474 0.260522 0.317385
0.302605 0.301301 0.357441
0.372720 0.291014 0.369247
0.461354 0.306826 0.386163
0.533766 0.320584 0.400737
0.599255 0.333108 0.413579
0.629782 0.380632 0.418171
0.680507 0.396923 0.430542
0.022541 0.229038 0.223979
0.178238 0.330610 0.322028
0.297592 0.373628 0.362990
0.399234 0.406364 0.393794
0.481234 0.438892 0.418920
0.549568 0.463550 0.439978
0.610984 0.485412 0.456804
0.666739 0.505380 0.472140
0.717696 0.523843 0.486301
0.028039 0.306147 0.247510
0.200863 0.418920 0.348174
0.332213 0.455189 0.424092
0.433447 0.488324 0.439309
0.484312 0.487901 0.422087
0.557970 0.513733 0.438280
0.616928 0.545799 0.458772
0.672857 0.566150 0.474077
0.723942 0.584912 0.488209
0.033523 0.379359 0.268069
0.233420 0.477007 0.440568
0.359762 0.522832 0.459972
0.459808 0.556719 0.474084
0.511785 0.578660 0.428978
0.555801 0.556006 0.445506
0.625995 0.586387 0.455284
0.682903 0.601790 0.469115
0.729301 0.637999 0.489632
0.039118 0.445726 0.286026
0.254823 0.537443 0.471518
0.384920 0.584112 0.491127
0.483238 0.618334 0.505298
0.494089 0.618545 0.467649
0.590127 0.650277 0.443338
0.620300 0.617388 0.464356
0.687779 0.651896 0.470406
0.739750 0.666096 0.483161
0.054048 0.472233 0.448535
0.274907 0.593051 0.499838
0.408214 0.640125 0.519598
0.504666 0.674381 0.533791
0.505210 0.674302 0.485601
0.604998 0.713840 0.454844
0.660677 0.715118 0.455317
0.678972 0.673242 0.481429
0.744174 0.711411 0.484200
0.060989 0.522135 0.474228
0.293903 0.644490 0.526053
0.429994 0.691638 0.545918
0.524486 0.725705 0.560108
0.524920 0.725612 0.511373
0.559244 0.726495 0.502480
0.674393 0.772959 0.465377
0.711579 0.737216 0.497741
0.732624 0.724369 0.497130
0.037113 0.028625 0.293600
0.111710 0.014275 0.353138
0.197046 0.014339 0.352119
0.273944 0.014386 0.351423
0.343608 0.014422 0.350863
0.416196 0.016315 0.363061
0.476914 0.018106 0.373936
0.532895 0.019837 0.383907
0.584692 0.021520 0.393170
0.024791 0.118341 0.287674
0.214808 0.198408 0.387584
0.298092 0.199910 0.389384
0.354260 0.171023 0.422325
0.428613 0.171964 0.423673
0.499684 0.182930 0.436682
0.563906 0.192776 0.448356
0.622445 0.201869 0.458961
0.676068 0.210367 0.468727
0.026197 0.187668 0.290772
0.194687 0.283230 0.397612
0.334190 0.326533 0.437493
0.389135 0.306193 0.455418
0.461787 0.307145 0.456863
0.534355 0.320971 0.470086
0.599898 0.333510 0.481729
0.659418 0.345014 0.492265
0.713744 0.355694 0.501939
0.027324 0.250487 0.294944
0.197573 0.355357 0.402804
0.321419 0.399469 0.443988
0.433776 0.434267 0.471513
0.487866 0.424911 0.479895
0.561746 0.440546 0.493014
0.627901 0.452889 0.504564
0.687703 0.463835 0.515006
0.716654 0.502838 0.519901
0.028116 0.306442 0.298619
0.201263 0.419372 0.405693
0.326275 0.461717 0.446622
0.430834 0.491516 0.474566
0.508969 0.515887 0.497392
0.577961 0.541025 0.516815
0.639724 0.563474 0.534133
0.695581 0.583888 0.549865
0.746456 0.602692 0.564348
0.033653 0.379793 0.320671
0.221832 0.490575 0.428912
0.351079 0.531932 0.467276
0.460308 0.557119 0.521362
0.535910 0.584820 0.532958
0.580909 0.584477 0.519426
0.647265 0.607737 0.532548
0.700871 0.636968 0.551478
0.751824 0.655852 0.565937
0.039270 0.446205 0.339915
0.240791 0.553386 0.447390
0.385421 0.584520 0.538616
0.483753 0.618751 0.553089
0.560021 0.646648 0.564730
0.605712 0.665959 0.525660
0.645554 0.646037 0.538903
0.708971 0.673304 0.548225
0.760722 0.687485 0.561313
0.044783 0.501801 0.357166
0.275337 0.593460 0.547332
0.408733 0.640546 0.567498
0.505191 0.674809 0.581945
0.581963 0.702674 0.593606
0.590696 0.702836 0.559502
0.676290 0.730711 0.537721
0.704144 0.701835 0.556482
0.765130 0.732690 0.562480
0.050289 0.553859 0.373154
0.294351 0.644911 0.573897
0.430528 0.692068 0.594112
0.525019 0.726139 0.608511
0.602167 0.753798 0.620173
0.602546 0.753722 0.577735
0.689987 0.788349 0.548197
0.740075 0.789468 0.548638
0.757540 0.752726 0.572599
0.044805 0.033628 0.357537
0.165286 0.033134 0.351957
0.207753 0.016214 0.420539
0.286145 0.016264 0.420300
0.356819 0.016302 0.420095
0.416460 0.016319 0.419825
0.477197 0.018111 0.429729
0.533195 0.019842 0.438768
0.585005 0.021527 0.447131
0.029174 0.131063 0.353145
0.238706 0.216910 0.452528
0.325120 0.218463 0.454492
0.368166 0.181558 0.490688
0.441313 0.182501 0.492109
0.500025 0.183103 0.493212
0.564269 0.192952 0.505209
0.622828 0.202048 0.516086
0.676468 0.210549 0.526086
0.030745 0.204740 0.357135
0.211905 0.303345 0.463209
0.362244 0.348815 0.500673
0.432724 0.349827 0.502226
0.474654 0.320394 0.526784
0.534834 0.321278 0.527758
0.600422 0.333834 0.539657
0.659973 0.345348 0.550409
0.714323 0.356036 0.560267
0.031954 0.269597 0.361826
0.214936 0.377158 0.468697
0.342442 0.422125 0.508052
0.459771 0.455980 0.535401
0.501059 0.439759 0.550593
0.562295 0.440945 0.551416
0.628478 0.453284 0.563189
0.688301 0.464233 0.573815
0.742702 0.474320 0.583556
0.032807 0.327035 0.365897
0.218834 0.441363 0.471854
0.347274 0.481808 0.510666
0.451258 0.511795 0.539282
0.535697 0.537387 0.561857
0.583958 0.530411 0.569300
0.650493 0.542936 0.581055
0.710478 0.554283 0.591678
0.745806 0.586788 0.596243
0.033764 0.380159 0.368612
0.222177 0.490935 0.473729
0.351511 0.532300 0.512492
0.455728 0.562811 0.541069
0.533993 0.587657 0.564328
0.602618 0.609112 0.584415
0.664567 0.631796 0.601957
0.720411 0.652351 0.617849
0.771123 0.671226 0.632442
0.039398 0.446607 0.388845
0.241159 0.553768 0.492248
0.374140 0.595864 0.531207
0.477007 0.626668 0.559818
0.560482 0.647003 0.606354
0.627042 0.671031 0.616450
0.667312 0.670732 0.604227
0.727173 0.691728 0.616314
0.775835 0.718336 0.633814
0.044926 0.502233 0.406925
0.258932 0.611449 0.509005
0.409173 0.640898 0.609000
0.505635 0.675167 0.623609
0.582430 0.703035 0.635382
0.649178 0.726953 0.645460
0.689715 0.744098 0.610024
0.725762 0.726401 0.622055
0.783081 0.750954 0.630811
0.050445 0.554314 0.423639
0.294731 0.645263 0.615309
0.430979 0.692427 0.635747
0.525468 0.726502 0.650271
0.602638 0.754162 0.662016
0.669482 0.777826 0.672065
0.676721 0.777940 0.641106
0.753359 0.802647 0.621222
0.778873 0.777011 0.638362
0.052497 0.038541 0.412854
0.183835 0.038015 0.408946
0.217448 0.018005 0.478883
0.297129 0.018057 0.478754
0.368665 0.018096 0.478636
0.427101 0.018109 0.478396
0.477419 0.018111 0.478132
0.533439 0.019844 0.487401
0.585269 0.021531 0.495965
0.033483 0.143154 0.412695
0.260780 0.233914 0.508501
0.349809 0.235510 0.510572
0.380661 0.191158 0.552659
0.452658 0.192101 0.554136
0.511597 0.192656 0.555340
0.564575 0.193099 0.556373
0.623150 0.202198 0.567415
0.676805 0.210701 0.577552
0.035203 0.220433 0.417868
0.227705 0.321629 0.520199
0.387796 0.369033 0.557899
0.455758 0.369997 0.559441
0.486196 0.332362 0.589781
0.546663 0.333290 0.590780
0.600875 0.334111 0.591572
0.660451 0.345634 0.602442
0.714821 0.356329 0.612396
0.036482 0.287029 0.423012
0.230915 0.396896 0.525920
0.361483 0.442090 0.565986
0.483083 0.474649 0.592891
0.536328 0.475757 0.593595
0.574139 0.452622 0.614878
0.628973 0.453620 0.615592
0.688816 0.464573 0.626306
0.743230 0.474662 0.636115
0.037389 0.345724 0.427357
0.234864 0.459030 0.529053
0.366304 0.499795 0.568587
0.468868 0.529909 0.597526
0.559592 0.556587 0.619695
0.595839 0.542205 0.633080
0.651008 0.543309 0.633762
0.711009 0.554659 0.644454
0.765424 0.565083 0.654239
0.038454 0.399877 0.430291
0.238319 0.508987 0.531057
0.370629 0.550580 0.570539
0.473384 0.581147 0.599436
0.552113 0.606055 0.622907
0.626730 0.628514 0.642479
0.669922 0.622249 0.649105
0.729990 0.633762 0.659775
0.784344 0.644312 0.669538
0.039508 0.446945 0.432226
0.241480 0.554098 0.532638
0.374536 0.596200 0.572085
0.477415 0.627006 0.600951
0.556373 0.652030 0.624401
0.625332 0.673563 0.644591
0.686613 0.692643 0.662492
0.742370 0.713139 0.678385
0.792870 0.731906 0.692948
0.045045 0.502579 0.448596
0.259271 0.611796 0.549666
0.395464 0.654215 0.589203
0.496858 0.685028 0.618032
0.576333 0.710009 0.641478
0.649599 0.727267 0.682542
0.708730 0.748408 0.691470
0.744886 0.748134 0.680397
0.798930 0.767107 0.691504
0.050572 0.554664 0.463646
0.276066 0.665032 0.565264
0.415000 0.707458 0.604862
0.525861 0.726814 0.687238
0.603048 0.754476 0.699023
0.669904 0.778140 0.709095
0.728947 0.798994 0.717974
0.765107 0.814287 0.685777
0.797693 0.798435 0.696744
0.060215 0.043394 0.460711
0.201380 0.042834 0.457058
0.226395 0.019737 0.532617
0.307216 0.019790 0.532603
0.379510 0.019831 0.532574
0.436799 0.019839 0.532369
0.487323 0.019842 0.532159
0.533648 0.019845 0.531975
0.585496 0.021533 0.540673
0.037737 0.154765 0.462186
0.281448 0.249780 0.560004
0.372713 0.251413 0.562165
0.440957 0.252504 0.563580
0.462964 0.200953 0.610774
0.522113 0.201492 0.612050
0.575214 0.201942 0.613130
0.623428 0.202327 0.614064
0.677095 0.210831 0.624267
0.039590 0.235049 0.467997
0.242429 0.338532 0.572561
0.411426 0.387681 0.610220
0.476855 0.388597 0.611739
0.529278 0.389353 0.612776
0.557407 0.344307 0.648048
0.611714 0.345143 0.648879
0.660873 0.345884 0.649568
0.715258 0.356585 0.659553
0.040932 0.303155 0.473465
0.245813 0.415063 0.578466
0.378917 0.458090 0.618732
0.504396 0.491698 0.645198
0.557953 0.492813 0.645931
0.584865 0.462989 0.672350
0.639747 0.463993 0.673109
0.689267 0.464869 0.673740
0.743694 0.474961 0.683555
0.041889 0.362936 0.478042
0.249792 0.475170 0.581558
0.383838 0.516196 0.621466
0.484943 0.546402 0.650488
0.581340 0.574054 0.672146
0.628147 0.575078 0.672687
0.661797 0.554022 0.691456
0.711475 0.554985 0.692060
0.765901 0.565412 0.701835
0.043059 0.417978 0.481068
0.253345 0.525441 0.583677
0.388240 0.567211 0.623530
0.489497 0.597807 0.652507
0.568591 0.622754 0.676006
0.648594 0.646110 0.694988
0.680710 0.633085 0.706914
0.730466 0.634110 0.707500
0.784828 0.644661 0.717238
0.044146 0.462860 0.482957
0.256590 0.570742 0.585358
0.392210 0.612948 0.625173
0.493558 0.643727 0.654116
0.572869 0.668747 0.677592
0.641928 0.690257 0.697748
0.708386 0.710179 0.715001
0.747170 0.704528 0.720947
0.801429 0.715063 0.730650
0.045147 0.502868 0.484401
0.259574 0.612101 0.586735
0.395831 0.654523 0.626521
0.497230 0.685336 0.655436
0.576723 0.710317 0.678895
0.645903 0.731744 0.699036
0.707197 0.750677 0.716850
0.762137 0.767736 0.732918
0.812389 0.786267 0.747353
0.050683 0.554968 0.499732
0.276381 0.665348 0.602485
0.415377 0.707774 0.642281
0.515196 0.738380 0.671108
0.595086 0.763151 0.694521
0.670279 0.778416 0.742380
0.729327 0.799268 0.751250
0.782128 0.818003 0.759228
0.814625 0.817704 0.749200
0.067979 0.048214 0.505504
0.218120 0.047619 0.502132
0.234751 0.021424 0.582301
0.316597 0.021478 0.582405
0.389567 0.021520 0.582468
0.445756 0.021524 0.582299
0.496458 0.021527 0.582146
0.542885 0.021530 0.582012
0.585694 0.021535 0.581896
0.041963 0.166023 0.508585
0.300975 0.264733 0.607670
0.394182 0.266398 0.609908
0.460220 0.267466 0.611303
0.472453 0.209213 0.662748
0.531799 0.209761 0.664072
0.585001 0.210217 0.665192
0.633246 0.210607 0.666161
0.677348 0.210944 0.667013
0.043937 0.248826 0.514956
0.256291 0.354336 0.620951
0.433292 0.405077 0.658364
0.496409 0.405950 0.659857
0.549227 0.406767 0.660863
0.567300 0.354541 0.700377
0.621679 0.355390 0.701243
0.670841 0.356140 0.701963
0.715649 0.356812 0.702573
0.045336 0.318270 0.520708
0.259844 0.431981 0.627003
0.395175 0.472905 0.667205
0.524121 0.507466 0.693127
0.577910 0.508587 0.693887
0.624485 0.509527 0.694484
0.649642 0.473565 0.725518
0.699128 0.474445 0.726184
0.744107 0.475225 0.726747
0.046337 0.379008 0.525485
0.263838 0.490104 0.630040
0.400184 0.531345 0.670058
0.499806 0.561617 0.698983
0.601386 0.590152 0.720065
0.648227 0.591177 0.720628
0.671701 0.563883 0.743923
0.721321 0.564848 0.744561
0.766326 0.565702 0.745101
0.047598 0.433996 0.528531
0.267479 0.540633 0.632265
0.404653 0.582543 0.672225
0.504392 0.613146 0.701103
0.583775 0.638115 0.724489
0.668682 0.662283 0.742841
0.710206 0.663213 0.743283
0.740285 0.644065 0.760016
0.785260 0.644969 0.760540
0.048726 0.477596 0.530415
0.270799 0.586083 0.634036
0.408679 0.628360 0.673956
0.508478 0.659096 0.702798
0.588067 0.684099 0.726160
0.657180 0.705576 0.746167
0.728332 0.726258 0.762748
0.756956 0.714447 0.773450
0.801865 0.715384 0.773963
0.049787 0.517828 0.531945
0.273847 0.627511 0.635493
0.412347 0.669944 0.675381
0.512169 0.700668 0.704193
0.591930 0.725596 0.727537
0.661154 0.746960 0.747528
0.722346 0.765823 0.765170
0.781811 0.783601 0.780532
0.816699 0.778481 0.785898
0.050785 0.555242 0.533223
0.276667 0.665631 0.636717
0.415719 0.708057 0.676580
0.515537 0.738661 0.705367
0.595441 0.763430 0.728698
0.664752 0.784609 0.748679
0.725991 0.803269 0.766317
0.780741 0.820031 0.782201
0.830064 0.835261 0.796730
