Resources/LUTs/classic_chrome_linear.cube
TITLE "Classic Chrome Linear v1.0"
LUT_3D_SIZE 5
DOMAIN_MIN 0.0 0.0 0.0
DOMAIN_MAX 1.0 1.0 1.0
# Classic Chrome film simulation for LINEAR workflow
# Input: Linear RGB, Output: Linear RGB
# Pipeline: sRGB -> Linear -> THIS LUT -> Linear -> sRGB
0.002015 0.003055 0.005868
0.140363 0.021346 0.020930
0.288851 0.034853 0.030321
0.417377 0.047759 0.038777
0.516855 0.060427 0.046757
0.018846 0.133911 0.043086
0.140670 0.131394 0.022174
0.319096 0.200708 0.028304
0.454115 0.231204 0.036271
0.559131 0.257253 0.043732
0.032691 0.280979 0.077338
0.220767 0.381114 0.022333
0.296653 0.275906 0.035660
0.467414 0.372688 0.038294
0.574571 0.404171 0.045738
0.045983 0.414365 0.112018
0.250237 0.530541 0.027709
0.381264 0.444534 0.047884
0.439668 0.410444 0.047401
0.585343 0.511246 0.046683
0.059591 0.518648 0.145876
0.275247 0.651300 0.032382
0.444810 0.656252 0.032916
0.515732 0.553860 0.058703
0.549574 0.517262 0.058059
0.021535 0.018100 0.152685
0.170526 0.010159 0.184042
0.342910 0.014395 0.208705
0.475979 0.018066 0.227507
0.583603 0.021467 0.243403
0.016587 0.147080 0.146394
0.265614 0.271507 0.265026
0.447788 0.335589 0.315657
0.575653 0.385264 0.354276
0.682377 0.427775 0.386567
0.027940 0.305770 0.190400
0.331608 0.454670 0.360138
0.454426 0.454045 0.323627
0.594554 0.504723 0.350660
0.696223 0.563179 0.390300
0.046920 0.416991 0.357347
0.384290 0.583590 0.433090
0.509001 0.629516 0.332211
0.589394 0.582380 0.365537
0.713893 0.639851 0.381326
0.060776 0.521639 0.416533
0.429330 0.691092 0.487618
0.465234 0.691874 0.408858
0.655170 0.753908 0.354529
0.701935 0.689475 0.400491
0.037113 0.028625 0.293600
0.197046 0.014339 0.352119
0.343608 0.014422 0.350863
0.476914 0.018106 0.373936
0.584692 0.021520 0.393170
0.026197 0.187668 0.290772
0.334190 0.326533 0.437493
0.461787 0.307145 0.456863
0.599898 0.333510 0.481729
0.713744 0.355694 0.501939
0.028116 0.306442 0.298619
0.326275 0.461717 0.446622
0.508969 0.515887 0.497392
0.639724 0.563474 0.534133
0.746456 0.602692 0.564348
0.039270 0.446205 0.339915
0.385421 0.584520 0.538616
0.560021 0.646648 0.564730
0.645554 0.646037 0.538903
0.760722 0.687485 0.561313
0.050289 0.553859 0.373154
0.430528 0.692068 0.594112
0.602167 0.753798 0.620173
0.689987 0.788349 0.548197
0.757540 0.752726 0.572599
0.052497 0.038541 0.412854
0.217448 0.018005 0.478883
0.368665 0.018096 0.478636
0.477419 0.018111 0.478132
0.585269 0.021531 0.495965
0.035203 0.220433 0.417868
0.387796 0.369033 0.557899
0.486196 0.332362 0.589781
0.600875 0.334111 0.591572
0.714821 0.356329 0.612396
0.037389 0.345724 0.427357
0.366304 0.499795 0.568587
0.559592 0.556587 0.619695
0.651008 0.543309 0.633762
0.765424 0.565083 0.654239
0.039508 0.446945 0.432226
0.374536 0.596200 0.572085
0.556373 0.652030 0.624401
0.686613 0.692643 0.662492
0.792870 0.731906 0.692948
0.050572 0.554664 0.463646
0.415000 0.707458 0.604862
0.603048 0.754476 0.699023
0.728947 0.798994 0.717974
0.797693 0.798435 0.696744
0.067979 0.048214 0.505504
0.234751 0.021424 0.582301
0.389567 0.021520 0.582468
0.496458 0.021527 0.582146
0.585694 0.021535 0.581896
0.043937 0.248826 0.514956
0.433292 0.405077 0.658364
0.549227 0.406767 0.660863
0.621679 0.355390 0.701243
0.715649 0.356812 0.702573
0.046337 0.379008 0.525485
0.400184 0.531345 0.670058
0.601386 0.590152 0.720065
0.671701 0.563883 0.743923
0.766326 0.565702 0.745101
0.048726 0.477596 0.530415
0.408679 0.628360 0.673956
0.588067 0.684099 0.726160
0.728332 0.726258 0.762748
0.801865 0.715384 0.773963
0.050785 0.555242 0.533223
0.415719 0.708057 0.676580
0.595441 0.763430 0.728698
0.725991 0.803269 0.766317
0.830064 0.835261 0.796730
