Resources/LUTs/classic_chrome_linear.cube
TITLE "Classic Chrome Linear v1.0"
LUT_3D_SIZE 33
DOMAIN_MIN 0.0 0.0 0.0
DOMAIN_MAX 1.0 1.0 1.0
# Classic Chrome film simulation for LINEAR workflow
# Input: Linear RGB, Output: Linear RGB
# Pipeline: sRGB -> Linear -> THIS LUT -> Linear -> sRGB
0.002015 0.003055 0.005868
0.019112 0.007179 0.009827
0.035031 0.009713 0.011995
0.051314 0.011912 0.013787
0.068098 0.013946 0.015391
0.085404 0.015880 0.016878
0.103226 0.017747 0.018284
0.121550 0.019564 0.019630
0.140363 0.021346 0.020930
0.159615 0.023099 0.022193
0.178811 0.024827 0.023423
0.197775 0.026534 0.024624
0.216495 0.028224 0.025801
0.234965 0.029898 0.026956
0.253181 0.031560 0.028093
0.271143 0.033211 0.029214
0.288851 0.034853 0.030321
0.306307 0.036487 0.031414
0.323514 0.038115 0.032496
0.340473 0.039736 0.033567
0.357190 0.041353 0.034629
0.373667 0.042965 0.035682
0.389908 0.044573 0.036728
0.403972 0.046169 0.037757
0.417377 0.047759 0.038777
0.430551 0.049347 0.039792
0.443502 0.050933 0.040801
0.456235 0.052518 0.041804
0.468758 0.054101 0.042803
0.481077 0.055684 0.043797
0.493195 0.057265 0.044788
0.505120 0.058846 0.045774
0.516855 0.060427 0.046757
0.005581 0.020347 0.013431
0.018831 0.019545 0.009204
0.037193 0.026229 0.010438
0.054441 0.029339 0.011948
0.072232 0.032078 0.013297
0.086995 0.041957 0.015911
0.105031 0.045590 0.017303
0.123566 0.049073 0.018639
0.142588 0.052441 0.019933
0.162068 0.055718 0.021192
0.181539 0.058915 0.022421
0.200775 0.062045 0.023624
0.219764 0.065117 0.024805
0.238500 0.068139 0.025966
0.256980 0.071118 0.027111
0.275203 0.074059 0.028242
0.293169 0.076967 0.029359
0.310881 0.079845 0.030465
0.328340 0.082697 0.031561
0.345550 0.085525 0.032648
0.362514 0.088332 0.033726
0.379236 0.091119 0.034798
0.395720 0.093889 0.035862
0.410341 0.096631 0.036913
0.423961 0.099352 0.037956
0.437347 0.102060 0.038993
0.450507 0.104756 0.040026
0.463447 0.107442 0.041055
0.476175 0.110117 0.042080
0.488695 0.112784 0.043102
0.501014 0.115442 0.044121
0.513136 0.118093 0.045137
0.525068 0.120737 0.046151
0.007825 0.035535 0.018302
0.026010 0.045212 0.008865
0.034514 0.034036 0.011247
0.055201 0.044194 0.011806
0.073147 0.047847 0.013166
0.091652 0.051175 0.014427
0.110713 0.054275 0.015620
0.130318 0.057205 0.016762
0.150452 0.060004 0.017867
0.170961 0.062695 0.018939
0.183219 0.081056 0.022342
0.202607 0.085004 0.023563
0.221746 0.088871 0.024764
0.240630 0.092668 0.025946
0.259256 0.096404 0.027112
0.277623 0.100087 0.028265
0.295732 0.103723 0.029406
0.313584 0.107317 0.030537
0.331183 0.110875 0.031658
0.348531 0.114399 0.032772
0.365633 0.117893 0.033879
0.382491 0.121361 0.034979
0.399110 0.124805 0.036074
0.413923 0.128214 0.037158
0.427661 0.131595 0.038234
0.441166 0.134960 0.039308
0.454445 0.138311 0.040379
0.467505 0.141650 0.041448
0.480355 0.144981 0.042519
0.493002 0.148312 0.043593
0.505447 0.151631 0.044665
0.517693 0.154936 0.045734
0.529744 0.158228 0.046800
0.009823 0.050819 0.022671
0.028771 0.066234 0.009872
0.043148 0.053054 0.013233
0.050634 0.048725 0.013074
0.073945 0.062595 0.013173
0.092584 0.066639 0.014453
0.111777 0.070399 0.015665
0.131514 0.073948 0.016829
0.151780 0.077332 0.017954
0.172428 0.080583 0.019050
0.192881 0.083718 0.020118
0.213061 0.086755 0.021164
0.232959 0.089708 0.022191
0.252571 0.092590 0.023202
0.271895 0.095411 0.024200
0.279791 0.123465 0.028538
0.298038 0.127757 0.029720
0.316037 0.132016 0.030900
0.333781 0.136228 0.032071
0.351269 0.140392 0.033232
0.368505 0.144513 0.034385
0.385493 0.148596 0.035530
0.402237 0.152642 0.036668
0.417142 0.156638 0.037792
0.430980 0.160595 0.038906
0.444579 0.164524 0.040014
0.457946 0.168427 0.041118
0.471090 0.172305 0.042216
0.484015 0.176156 0.043310
0.496726 0.179967 0.044400
0.509228 0.183735 0.045485
0.521528 0.187464 0.046566
0.533630 0.191154 0.047643
0.011708 0.066467 0.026835
0.017686 0.065846 0.015723
0.050055 0.088326 0.010854
0.061354 0.069882 0.015008
0.067353 0.063918 0.014841
0.093468 0.081768 0.014564
0.112793 0.086159 0.015804
0.132664 0.090302 0.016996
0.153070 0.094256 0.018154
0.173866 0.098063 0.019287
0.194480 0.101755 0.020402
0.214814 0.105324 0.021493
0.234858 0.108785 0.022561
0.254606 0.112151 0.023610
0.274059 0.115432 0.024643
0.293216 0.118640 0.025660
0.312079 0.121780 0.026664
0.330653 0.124859 0.027657
0.348940 0.127884 0.028638
0.366945 0.130858 0.029609
0.371109 0.169702 0.034960
0.388173 0.174280 0.036118
0.404989 0.178790 0.037268
0.419927 0.183212 0.038403
0.433817 0.187559 0.039528
0.447465 0.191843 0.040646
0.460877 0.196068 0.041759
0.474060 0.200236 0.042865
0.487022 0.204351 0.043967
0.499768 0.208414 0.045064
0.512304 0.212429 0.046156
0.524636 0.216397 0.047244
0.536769 0.220320 0.048328
0.013532 0.082564 0.030906
0.018834 0.081938 0.017543
0.053180 0.111252 0.011796
0.072024 0.111586 0.011869
0.080281 0.087497 0.016810
0.084746 0.079822 0.016646
0.102005 0.084309 0.018269
0.133867 0.106754 0.017289
0.154418 0.111269 0.018484
0.175345 0.115588 0.019644
0.196064 0.119736 0.020775
0.216497 0.123738 0.021878
0.236635 0.127614 0.022959
0.256473 0.131380 0.024021
0.276012 0.135050 0.025065
0.295251 0.138633 0.026094
0.314194 0.142139 0.027110
0.332844 0.145575 0.028113
0.351205 0.148947 0.029105
0.369281 0.152262 0.030087
0.387078 0.155522 0.031060
0.404600 0.158734 0.032024
0.419843 0.161879 0.032972
0.434267 0.164976 0.033911
0.448425 0.168035 0.034844
0.462327 0.171056 0.035770
0.463336 0.221328 0.042310
0.476520 0.225675 0.043430
0.489481 0.229962 0.044545
0.502226 0.234191 0.045655
0.514760 0.238366 0.046761
0.527090 0.242489 0.047862
0.539220 0.246562 0.048959
0.015319 0.099149 0.034944
0.019923 0.098583 0.019345
0.056139 0.135210 0.012746
0.075699 0.135791 0.012872
0.086661 0.105835 0.018637
0.100037 0.106134 0.018727
0.102845 0.096552 0.018534
0.120635 0.101195 0.020112
0.155663 0.128189 0.018800
0.176692 0.132960 0.019974
0.197505 0.137538 0.021117
0.218027 0.141952 0.022232
0.238250 0.146223 0.023325
0.258169 0.150370 0.024398
0.277785 0.154408 0.025453
0.297099 0.158349 0.026492
0.316114 0.162202 0.027518
0.334833 0.165977 0.028531
0.353250 0.169667 0.029534
0.371349 0.173258 0.030533
0.389166 0.176777 0.031521
0.406704 0.180224 0.032501
0.421958 0.183580 0.033464
0.436390 0.186867 0.034417
0.450554 0.190095 0.035364
0.464459 0.193267 0.036303
0.478114 0.196386 0.037237
0.491525 0.199456 0.038166
0.504700 0.202480 0.039089
0.517645 0.205458 0.040007
0.530368 0.208394 0.040920
0.529126 0.266526 0.048430
0.541278 0.270754 0.049534
0.017086 0.116253 0.038992
0.020981 0.115887 0.021181
0.059005 0.160342 0.013741
0.079206 0.161015 0.013878
0.099099 0.161584 0.013996
0.106786 0.125076 0.020524
0.120470 0.125376 0.020611
0.121493 0.113747 0.020372
0.139794 0.118536 0.021918
0.177937 0.150269 0.020282
0.198837 0.155261 0.021436
0.219442 0.160070 0.022562
0.239743 0.164721 0.023666
0.259704 0.169195 0.024754
0.279345 0.173529 0.025826
0.298679 0.177732 0.026881
0.317709 0.181815 0.027923
0.336439 0.185788 0.028951
0.354874 0.189660 0.029967
0.373018 0.193440 0.030973
0.390878 0.197134 0.031969
0.408457 0.200749 0.032955
0.423763 0.204267 0.033925
0.438227 0.207710 0.034885
0.452423 0.211089 0.035838
0.466358 0.214407 0.036784
0.480041 0.217669 0.037724
0.493479 0.220876 0.038659
0.506681 0.224034 0.039588
0.519652 0.227143 0.040511
0.532400 0.230206 0.041431
0.544930 0.233225 0.042345
0.557248 0.236203 0.043256
0.018846 0.133911 0.043086
0.022017 0.133854 0.023056
0.061737 0.186005 0.014707
0.082533 0.186739 0.014851
0.102969 0.187361 0.014973
0.113282 0.144530 0.022282
0.127533 0.144858 0.022374
0.141460 0.145078 0.022456
0.140670 0.131394 0.022174
0.159428 0.136276 0.023700
0.178415 0.140952 0.025197
0.220625 0.177927 0.022894
0.240942 0.182808 0.024014
0.260946 0.187508 0.025112
0.280638 0.192047 0.026192
0.300020 0.196442 0.027256
0.319096 0.200708 0.028304
0.337870 0.204856 0.029340
0.356346 0.208896 0.030363
0.374530 0.212837 0.031375
0.392428 0.216686 0.032377
0.410044 0.220451 0.033370
0.425399 0.224112 0.034347
0.439892 0.227692 0.035312
0.454115 0.231204 0.036271
0.468077 0.234651 0.037223
0.481786 0.238038 0.038169
0.495249 0.241367 0.039109
0.508475 0.244643 0.040043
0.521470 0.247866 0.040972
0.534240 0.251041 0.041896
0.546792 0.254169 0.042816
0.559131 0.257253 0.043732
0.020615 0.152241 0.047298
0.023015 0.152270 0.024902
0.033242 0.152863 0.025064
0.085688 0.212154 0.015785
0.106633 0.212824 0.015913
0.127471 0.213417 0.016027
0.134331 0.164776 0.024113
0.148800 0.165023 0.024212
0.161018 0.163168 0.024254
0.160166 0.149215 0.023984
0.179206 0.154201 0.025492
0.198037 0.159006 0.026971
0.242032 0.200365 0.024338
0.262085 0.205256 0.025444
0.281823 0.209977 0.026531
0.301249 0.214544 0.027601
0.320366 0.218974 0.028657
0.339180 0.223279 0.029699
0.357694 0.227469 0.030728
0.375915 0.231554 0.031747
0.393848 0.235542 0.032755
0.411498 0.239441 0.033754
0.426898 0.243229 0.034736
0.441417 0.246932 0.035707
0.455665 0.250563 0.036671
0.469651 0.254126 0.037628
0.483384 0.257624 0.038579
0.496909 0.261081 0.039517
0.510217 0.264492 0.040446
0.523300 0.267851 0.041367
0.536161 0.271161 0.042283
0.548805 0.274423 0.043194
0.561238 0.277639 0.044099
0.022388 0.171138 0.051591
0.023981 0.171097 0.026725
0.034467 0.171732 0.026893
0.088697 0.237188 0.016688
0.110079 0.237801 0.016828
0.131305 0.238315 0.016956
0.152541 0.238785 0.017072
0.155782 0.185054 0.025950
0.170517 0.185303 0.026047
0.180820 0.181466 0.026039
0.179959 0.167411 0.025773
0.198839 0.172501 0.027263
0.217471 0.177393 0.028728
0.263137 0.222498 0.025753
0.282918 0.227382 0.026847
0.302385 0.232106 0.027924
0.321541 0.236684 0.028985
0.340391 0.241131 0.030033
0.358941 0.245457 0.031069
0.377196 0.249672 0.032093
0.395161 0.253785 0.033106
0.412870 0.257816 0.034107
0.428373 0.261754 0.035083
0.442991 0.265607 0.036047
0.457342 0.269385 0.037002
0.471433 0.273094 0.037950
0.485272 0.276736 0.038890
0.498866 0.280316 0.039823
0.512221 0.283836 0.040750
0.525344 0.287300 0.041671
0.538242 0.290709 0.042587
0.550920 0.294067 0.043498
0.563384 0.297377 0.044403
0.024147 0.190020 0.055876
0.024912 0.189897 0.028521
0.035637 0.190534 0.028701
0.091504 0.261608 0.017580
0.113314 0.262223 0.017728
0.134954 0.262771 0.017860
0.156585 0.263270 0.017980
0.162554 0.204874 0.027657
0.177668 0.205139 0.027758
0.192265 0.205381 0.027850
0.200445 0.199634 0.027796
0.199594 0.185780 0.027540
0.218264 0.190836 0.029012
0.236679 0.195703 0.030461
0.283938 0.244315 0.027143
0.303442 0.249181 0.028226
0.322640 0.253897 0.029293
0.341602 0.258509 0.030336
0.360279 0.263003 0.031364
0.378669 0.267384 0.032379
0.396773 0.271660 0.033382
0.414597 0.275838 0.034375
0.430101 0.279897 0.035350
0.444767 0.283863 0.036313
0.459160 0.287750 0.037269
0.473290 0.291562 0.038217
0.487164 0.295305 0.039157
0.500791 0.298980 0.040091
0.514177 0.302593 0.041019
0.527330 0.306147 0.041941
0.540256 0.309644 0.042857
0.552960 0.313087 0.043769
0.565449 0.316478 0.044675
0.025890 0.208708 0.060155
0.025803 0.208458 0.030296
0.036725 0.208954 0.030506
0.094192 0.285581 0.018451
0.116422 0.286231 0.018604
0.138457 0.286810 0.018740
0.160465 0.287338 0.018864
0.182450 0.287826 0.018979
0.184562 0.224732 0.029442
0.199404 0.224987 0.029537
0.213744 0.225222 0.029626
0.219848 0.217621 0.029529
0.219008 0.203970 0.029280
0.237523 0.209012 0.030726
0.255811 0.213894 0.032147
0.273852 0.218624 0.033549
0.324063 0.270849 0.029530
0.343106 0.275601 0.030571
0.361849 0.280223 0.031599
0.380297 0.284724 0.032614
0.398455 0.289115 0.033619
0.416328 0.293403 0.034612
0.431803 0.297564 0.035588
0.446504 0.301630 0.036552
0.460930 0.305612 0.037508
0.475091 0.309517 0.038457
0.488994 0.313348 0.039399
0.502649 0.317110 0.040334
0.516062 0.320806 0.041262
0.529240 0.324440 0.042185
0.542189 0.328015 0.043103
0.554916 0.331534 0.044015
0.567427 0.334999 0.044922
0.027621 0.227190 0.064429
0.027478 0.226704 0.032957
0.037775 0.227158 0.032290
0.096786 0.309139 0.019301
0.119420 0.309823 0.019458
0.141834 0.310431 0.019599
0.164203 0.310986 0.019726
0.186475 0.311497 0.019844
0.191228 0.244074 0.031102
0.206300 0.244340 0.031200
0.220933 0.244631 0.031278
0.235136 0.244920 0.031346
0.239335 0.235580 0.031190
0.238625 0.222184 0.030930
0.256982 0.227208 0.032351
0.275083 0.232069 0.033753
0.292930 0.236785 0.035139
0.344609 0.292305 0.030782
0.363403 0.297039 0.031811
0.381899 0.301648 0.032828
0.400102 0.306141 0.033833
0.418017 0.310528 0.034828
0.433454 0.314781 0.035804
0.448184 0.318936 0.036770
0.462639 0.323005 0.037727
0.476828 0.326993 0.038677
0.490758 0.330905 0.039620
0.504437 0.334745 0.040556
0.517874 0.338517 0.041486
0.531074 0.342224 0.042410
0.544045 0.345870 0.043328
0.556792 0.349458 0.044241
0.569323 0.352990 0.045149
0.029341 0.245458 0.068702
0.029156 0.244733 0.035659
0.038791 0.245138 0.034056
0.048962 0.245558 0.034227
0.122321 0.333000 0.020294
0.145097 0.333636 0.020438
0.167813 0.334217 0.020569
0.190379 0.334773 0.020686
0.212316 0.335331 0.020781
0.213268 0.263603 0.032794
0.228163 0.263936 0.032865
0.242585 0.264250 0.032929
0.256583 0.264549 0.032989
0.258834 0.253468 0.032791
0.258152 0.240271 0.032535
0.276304 0.245252 0.033939
0.294199 0.250080 0.035326
0.311838 0.254771 0.036698
0.364919 0.313471 0.032006
0.383458 0.318178 0.033024
0.401702 0.322765 0.034031
0.419656 0.327241 0.035027
0.435048 0.331579 0.036004
0.449807 0.335816 0.036971
0.464288 0.339963 0.037930
0.478501 0.344027 0.038881
0.492455 0.348013 0.039824
0.506157 0.351923 0.040761
0.519615 0.355764 0.041692
0.532836 0.359538 0.042617
0.545827 0.363249 0.043536
0.558593 0.366899 0.044450
0.571141 0.370492 0.045359
0.031026 0.263361 0.073011
0.030822 0.262540 0.038385
0.039776 0.262893 0.035804
0.050111 0.263332 0.035981
0.125133 0.355766 0.021112
0.148289 0.356453 0.021256
0.171477 0.357154 0.021372
0.194410 0.357810 0.021476
0.216589 0.358412 0.021568
0.238081 0.358967 0.021651
0.235241 0.283018 0.034421
0.249861 0.283351 0.034484
0.264040 0.283667 0.034543
0.277822 0.283966 0.034598
0.278165 0.271190 0.034361
0.277502 0.258183 0.034111
0.295441 0.263116 0.035499
0.313121 0.267906 0.036873
0.330547 0.272566 0.038232
0.384972 0.334338 0.033207
0.403254 0.339011 0.034215
0.421243 0.343569 0.035212
0.436589 0.347984 0.036190
0.451373 0.352296 0.037158
0.465879 0.356516 0.038118
0.480115 0.360649 0.039070
0.494091 0.364702 0.040015
0.507814 0.368678 0.040953
0.521292 0.372581 0.041884
0.534532 0.376416 0.042810
0.547541 0.380186 0.043730
0.560324 0.383893 0.044645
0.572889 0.387542 0.045555
0.032691 0.280979 0.077338
0.032479 0.280124 0.041134
0.040734 0.280420 0.037538
0.051226 0.280877 0.037721
0.127967 0.378217 0.021898
0.151605 0.379034 0.022025
0.175183 0.379788 0.022139
0.198373 0.380482 0.022241
0.220767 0.381114 0.022333
0.242452 0.381696 0.022415
0.242160 0.301862 0.035952
0.256964 0.302212 0.036015
0.271314 0.302542 0.036074
0.285253 0.302855 0.036128
0.297965 0.302289 0.036160
0.297299 0.288729 0.035906
0.296653 0.275906 0.035660
0.314372 0.280790 0.037036
0.331835 0.285538 0.038397
0.349044 0.290162 0.039746
0.366005 0.294672 0.041084
0.422781 0.359536 0.035385
0.438078 0.364021 0.036364
0.452885 0.368402 0.037333
0.467414 0.372688 0.038294
0.481672 0.376886 0.039247
0.495668 0.381000 0.040193
0.509411 0.385036 0.041131
0.522908 0.388997 0.042064
0.536166 0.392888 0.042991
0.549191 0.396711 0.043912
0.561991 0.400472 0.044827
0.574571 0.404171 0.045738
0.034347 0.298373 0.081673
0.034128 0.297484 0.043907
0.041667 0.297720 0.039258
0.052395 0.298322 0.039404
0.130863 0.400390 0.022646
0.154888 0.401256 0.022771
0.178829 0.402050 0.022885
0.202248 0.402774 0.022987
0.224846 0.403433 0.023079
0.246712 0.404038 0.023161
0.267917 0.404600 0.023237
0.263905 0.320828 0.037526
0.278415 0.321172 0.037584
0.292502 0.321497 0.037638
0.306204 0.321807 0.037688
0.316872 0.319391 0.037678
0.316222 0.306076 0.037429
0.315590 0.293435 0.037188
0.333088 0.298266 0.038551
0.350330 0.302969 0.039901
0.367322 0.307555 0.041240
0.384068 0.312032 0.042569
0.439517 0.379712 0.036527
0.454348 0.384156 0.037497
0.468898 0.388504 0.038459
0.483176 0.392761 0.039413
0.497192 0.396932 0.040360
0.510953 0.401022 0.041299
0.524468 0.405037 0.042233
0.537742 0.408979 0.043160
0.550784 0.412852 0.044082
0.563599 0.416661 0.044998
0.576194 0.420407 0.045910
0.035996 0.315541 0.086015
0.035769 0.314621 0.046703
0.042656 0.314935 0.040919
0.053578 0.315608 0.041053
0.133724 0.422200 0.023374
0.158121 0.423106 0.023500
0.182400 0.423934 0.023614
0.206037 0.424686 0.023716
0.228827 0.425368 0.023808
0.250866 0.425996 0.023891
0.272228 0.426577 0.023966
0.270691 0.339198 0.039017
0.285354 0.339554 0.039075
0.299581 0.339892 0.039129
0.313414 0.340212 0.039180
0.326884 0.340518 0.039227
0.335561 0.336308 0.039177
0.334926 0.323228 0.038933
0.334307 0.310763 0.038696
0.351582 0.315541 0.040048
0.368604 0.320198 0.041388
0.385377 0.324744 0.042718
0.401908 0.329185 0.044038
0.455764 0.399580 0.037652
0.470334 0.403984 0.038615
0.484632 0.408295 0.039569
0.498666 0.412518 0.040517
0.512444 0.416659 0.041457
0.525975 0.420723 0.042392
0.539266 0.424712 0.043320
0.552322 0.428631 0.044242
0.565152 0.432484 0.045159
0.577760 0.436273 0.046071
0.037638 0.332487 0.090367
0.037448 0.331627 0.049487
0.043651 0.331978 0.042552
0.054750 0.332691 0.042682
0.065237 0.333299 0.042789
0.161225 0.442257 0.024188
0.185813 0.443101 0.024302
0.209652 0.443863 0.024405
0.232620 0.444554 0.024496
0.254819 0.445188 0.024579
0.276325 0.445775 0.024655
0.297200 0.446322 0.024725
0.292141 0.357690 0.040550
0.306503 0.358038 0.040604
0.320459 0.358369 0.040654
0.334044 0.358684 0.040702
0.347287 0.358985 0.040746
0.354028 0.353038 0.040658
0.353406 0.340181 0.040419
0.352800 0.327890 0.040186
0.369850 0.332614 0.041527
0.386651 0.337223 0.042858
0.403208 0.341726 0.044179
0.419523 0.346130 0.045492
0.433815 0.350412 0.046787
0.486041 0.423506 0.039717
0.500093 0.427779 0.040665
0.513888 0.431966 0.041607
0.527435 0.436075 0.042542
0.540718 0.439775 0.043465
0.553751 0.443173 0.044380
0.566557 0.446511 0.045289
0.579140 0.449790 0.046193
0.039274 0.349212 0.094728
0.039168 0.348502 0.052256
0.044638 0.348818 0.044166
0.055907 0.349566 0.044294
0.066545 0.350201 0.044400
0.164252 0.460126 0.024852
0.189126 0.460993 0.024967
0.213156 0.461774 0.025070
0.236294 0.462482 0.025162
0.258645 0.463132 0.025245
0.280287 0.463733 0.025321
0.301286 0.464293 0.025391
0.321694 0.464818 0.025456
0.313276 0.375939 0.042063
0.327350 0.376279 0.042113
0.341045 0.376603 0.042161
0.354390 0.376913 0.042205
0.367412 0.377210 0.042248
0.372268 0.369578 0.042122
0.371660 0.356935 0.041888
0.371064 0.344813 0.041659
0.387892 0.349483 0.042991
0.404473 0.354044 0.044313
0.420812 0.358503 0.045627
0.435050 0.362837 0.046922
0.448528 0.367074 0.048208
0.501424 0.441896 0.040794
0.515196 0.445524 0.041727
0.528718 0.449079 0.042654
0.541998 0.452566 0.043574
0.555044 0.455988 0.044489
0.567860 0.459347 0.045398
0.580454 0.462648 0.046302
0.040904 0.365719 0.099100
0.040895 0.365183 0.055035
0.045614 0.365453 0.045764
0.057049 0.366231 0.045891
0.067834 0.366890 0.045997
0.167231 0.477620 0.025504
0.192372 0.478510 0.025620
0.216587 0.479309 0.025723
0.239889 0.480033 0.025815
0.262385 0.480697 0.025898
0.284159 0.481311 0.025975
0.305276 0.481884 0.026045
0.325793 0.482420 0.026111
0.319910 0.393596 0.043508
0.334097 0.393945 0.043558
0.347897 0.394277 0.043606
0.361339 0.394595 0.043650
0.374451 0.394899 0.043692
0.387256 0.395192 0.043732
0.390282 0.385926 0.043573
0.389685 0.373488 0.043342
0.389100 0.361533 0.043118
0.405705 0.366149 0.044441
0.422068 0.370661 0.045755
0.436250 0.375043 0.047051
0.449745 0.379328 0.048337
0.463006 0.383528 0.049617
0.516414 0.457976 0.041829
0.529949 0.461554 0.042756
0.543241 0.465063 0.043677
0.556298 0.468507 0.044592
0.569125 0.471887 0.045501
0.581729 0.475208 0.046405
0.042560 0.382069 0.103445
0.042628 0.381663 0.057826
0.046579 0.381880 0.047349
0.058176 0.382687 0.047476
0.069105 0.383369 0.047582
0.170165 0.494754 0.026145
0.195556 0.495664 0.026261
0.219949 0.496479 0.026364
0.243408 0.497219 0.026457
0.266045 0.497896 0.026541
0.287945 0.498523 0.026617
0.309177 0.499107 0.026688
0.329797 0.499653 0.026753
0.349852 0.500168 0.026815
0.340709 0.411369 0.044990
0.354608 0.411709 0.045038
0.368144 0.412034 0.045082
0.381343 0.412346 0.045124
0.394228 0.412645 0.045164
0.406820 0.412932 0.045202
0.408067 0.402082 0.045009
0.407482 0.389843 0.044783
0.406907 0.378051 0.044562
0.423291 0.382612 0.045877
0.437419 0.387040 0.047173
0.450929 0.391370 0.048460
0.464205 0.395613 0.049740
0.477255 0.399774 0.051014
0.531146 0.473754 0.042853
0.544449 0.477284 0.043774
0.557516 0.480746 0.044689
0.570354 0.484146 0.045599
0.582968 0.487484 0.046503
0.044266 0.398310 0.107735
0.044365 0.397942 0.060629
0.047533 0.398100 0.048922
0.059288 0.398934 0.049048
0.070358 0.399637 0.049155
0.081037 0.400258 0.049248
0.198680 0.512466 0.026892
0.223245 0.513298 0.026995
0.246856 0.514051 0.027088
0.269628 0.514741 0.027172
0.291650 0.515380 0.027249
0.312993 0.515974 0.027320
0.333714 0.516531 0.027386
0.353860 0.517055 0.027447
0.347193 0.428553 0.046410
0.361188 0.428901 0.046458
0.374813 0.429233 0.046502
0.388094 0.429551 0.046544
0.401057 0.429857 0.046584
0.413721 0.430151 0.046622
0.426106 0.430434 0.046658
0.425625 0.418047 0.046433
0.425050 0.405998 0.046211
0.424485 0.394366 0.045993
0.438558 0.398837 0.047290
0.452083 0.403209 0.048578
0.465373 0.407493 0.049858
0.478436 0.411694 0.051132
0.491279 0.415817 0.052400
0.503907 0.419865 0.053662
0.558701 0.492721 0.044781
0.571549 0.496138 0.045691
0.584172 0.499493 0.046596
0.045983 0.414365 0.112018
0.046106 0.414019 0.063444
0.048475 0.414115 0.050484
0.060386 0.414974 0.050610
0.071594 0.415697 0.050716
0.082400 0.416336 0.050810
0.201748 0.528928 0.027512
0.226479 0.529774 0.027616
0.250237 0.530541 0.027709
0.273141 0.531244 0.027794
0.295280 0.531893 0.027871
0.316729 0.532498 0.027942
0.337547 0.533064 0.028008
0.357782 0.533597 0.028069
0.377476 0.534101 0.028127
0.367557 0.444205 0.047840
0.381264 0.444534 0.047884
0.394623 0.444849 0.047926
0.407657 0.445150 0.047966
0.420388 0.445441 0.048003
0.432347 0.445711 0.048037
0.441338 0.444588 0.048034
0.440829 0.433781 0.047834
0.440244 0.421918 0.047615
0.439668 0.410444 0.047401
0.453207 0.414855 0.048689
0.466511 0.419178 0.049971
0.479587 0.423416 0.051245
0.492442 0.427574 0.052513
0.505083 0.431657 0.053776
0.517515 0.435668 0.055033
0.572711 0.507876 0.045779
0.585343 0.511246 0.046683
0.047696 0.429601 0.116281
0.047838 0.429206 0.066259
0.049395 0.429204 0.052023
0.061455 0.430062 0.052149
0.072798 0.430785 0.052255
0.083727 0.431422 0.052349
0.204762 0.545060 0.028123
0.229655 0.545921 0.028227
0.253555 0.546700 0.028321
0.276585 0.547414 0.028406
0.298839 0.548074 0.028483
0.320390 0.548688 0.028555
0.341301 0.549264 0.028621
0.361621 0.549805 0.028683
0.381393 0.550317 0.028740
0.400654 0.550802 0.028795
0.387550 0.458720 0.049242
0.400982 0.459040 0.049284
0.414084 0.459346 0.049323
0.426878 0.459641 0.049361
0.438032 0.459899 0.049390
0.448401 0.460139 0.049414
0.455806 0.457615 0.049382
0.455329 0.447395 0.049192
0.454860 0.437478 0.049005
0.454305 0.426316 0.048796
0.467622 0.430675 0.050078
0.480710 0.434947 0.051353
0.493560 0.438867 0.052617
0.506175 0.442397 0.053870
0.518580 0.445862 0.055118
0.530782 0.449265 0.056360
0.586485 0.522757 0.046767
0.049386 0.442910 0.120498
0.049545 0.442520 0.069054
0.050278 0.442449 0.053524
0.062482 0.443326 0.053651
0.073953 0.444064 0.053757
0.085001 0.444714 0.053852
0.207725 0.560872 0.028725
0.232774 0.561746 0.028830
0.256813 0.562537 0.028924
0.279966 0.563262 0.029009
0.302329 0.563932 0.029087
0.323980 0.564556 0.029159
0.344981 0.565139 0.029225
0.365383 0.565689 0.029287
0.385231 0.566208 0.029345
0.404561 0.566700 0.029399
0.393724 0.472669 0.050590
0.407225 0.472993 0.050631
0.420392 0.473303 0.050671
0.432941 0.473596 0.050707
0.443603 0.473848 0.050733
