Resources/LUTs/Fuji_Velvia_100_Linear.cube
# Fuji Velvia 100 - High Saturation Slide Film Emulation
# 33x33x33 3D LUT for Linear Colorspace
# Characteristics: Vivid colors, high contrast, punchy reds/greens/blues
# Film Type: E-6 Reversal (Slide Film)
#
# Created for Film Emulation Pro Filters
TITLE "Fuji Velvia 100 Linear"
LUT_3D_SIZE 33
DOMAIN_MIN 0.0 0.0 0.0
DOMAIN_MAX 1.0 1.0 1.0
0.000000 0.000000 0.000000
0.006809 0.000365 0.000000
0.025411 0.000822 0.000000
0.068715 0.001379 0.000000
0.108724 0.001724 0.000000
0.152963 0.002028 0.000000
0.200585 0.002301 0.000000
0.250523 0.002551 0.000000
0.299217 0.002776 0.000000
0.348643 0.002983 0.000000
0.398591 0.003176 0.000000
0.448894 0.003364 0.000000
0.499421 0.003547 0.000000
0.550063 0.003724 0.000000
0.600726 0.003897 0.000000
0.651331 0.004066 0.000000
0.701806 0.004231 0.000000
0.752083 0.004392 0.000000
0.802102 0.004549 0.000000
0.851802 0.004703 0.000000
0.901124 0.004853 0.000000
0.950007 0.005000 0.000000
0.998387 0.005144 0.000000
1.000000 0.005284 0.000000
1.000000 0.005421 0.000000
1.000000 0.005424 0.000000
1.000000 0.005424 0.000000
1.000000 0.005424 0.000000
1.000000 0.005424 0.000000
1.000000 0.005424 0.000000
1.000000 0.005424 0.000000
1.000000 0.005424 0.000000
1.000000 0.005424 0.000000
0.000635 0.006065 0.000000
0.006809 0.006065 0.000000
0.025411 0.006829 0.000000
0.068715 0.010182 0.000000
0.108724 0.010895 0.000000
0.152963 0.011544 0.000000
0.200585 0.012149 0.000000
0.250523 0.012718 0.000000
0.299217 0.013241 0.000000
0.348643 0.013735 0.000000
0.398591 0.014203 0.000000
0.448894 0.014650 0.000000
0.499421 0.015077 0.000000
0.550063 0.015487 0.000000
0.600726 0.015882 0.000000
0.651331 0.016263 0.000000
0.701806 0.016631 0.000000
0.752083 0.016987 0.000000
0.802102 0.017332 0.000000
0.851802 0.017666 0.000000
0.901124 0.017990 0.000000
0.950007 0.018305 0.000000
0.998387 0.018610 0.000000
1.000000 0.018906 0.000000
1.000000 0.019192 0.000000
1.000000 0.019199 0.000000
1.000000 0.019199 0.000000
1.000000 0.019199 0.000000
1.000000 0.019199 0.000000
1.000000 0.019199 0.000000
1.000000 0.019199 0.000000
1.000000 0.019199 0.000000
1.000000 0.019199 0.000000
0.001431 0.021829 0.000000
0.009329 0.021829 0.000000
0.025411 0.021829 0.000000
0.068715 0.029345 0.000000
0.108724 0.033378 0.000000
0.152963 0.034119 0.000000
0.200585 0.034795 0.000000
0.250523 0.035420 0.000000
0.299217 0.035987 0.000000
0.348643 0.041808 0.000000
0.398591 0.042702 0.000000
0.448894 0.043548 0.000000
0.499421 0.044352 0.000000
0.550063 0.045120 0.000000
0.600726 0.045855 0.000000
0.651331 0.046560 0.000000
0.701806 0.047238 0.000000
0.752083 0.047892 0.000000
0.802102 0.048521 0.000000
0.851802 0.049130 0.000000
0.901124 0.049717 0.000000
0.950007 0.050285 0.000000
0.998387 0.050834 0.000000
1.000000 0.051365 0.000000
1.000000 0.051877 0.000000
1.000000 0.051888 0.000000
1.000000 0.051888 0.000000
1.000000 0.051888 0.000000
1.000000 0.051888 0.000000
1.000000 0.051888 0.000000
1.000000 0.051888 0.000000
1.000000 0.051888 0.000000
1.000000 0.051888 0.000000
0.002400 0.058039 0.000000
0.013694 0.058039 0.000000
0.034361 0.058039 0.000000
0.068715 0.058039 0.000000
0.108724 0.058039 0.000000
0.152963 0.058039 0.000000
0.200585 0.066052 0.000000
0.250523 0.066960 0.000000
0.299217 0.067780 0.000000
0.348643 0.068543 0.000000
0.398591 0.069255 0.000000
0.448894 0.069926 0.000000
0.499421 0.070561 0.000000
0.550063 0.071163 0.000000
0.600726 0.071737 0.000000
0.651331 0.072286 0.000000
0.701806 0.072810 0.000000
0.752083 0.084669 0.000000
0.802102 0.085547 0.000000
0.851802 0.086393 0.000000
0.901124 0.087209 0.000000
0.950007 0.087996 0.000000
0.998387 0.088757 0.000000
1.000000 0.089491 0.000000
1.000000 0.090200 0.000000
1.000000 0.090215 0.000000
1.000000 0.090215 0.000000
1.000000 0.090215 0.000000
1.000000 0.090215 0.000000
1.000000 0.090215 0.000000
1.000000 0.090215 0.000000
1.000000 0.090215 0.000000
1.000000 0.090215 0.000000
0.003001 0.091305 0.000000
0.015185 0.091305 0.000000
0.034361 0.091305 0.000000
0.068715 0.091305 0.000000
0.108724 0.091305 0.000000
0.152963 0.091305 0.000000
0.200585 0.091305 0.000000
0.250523 0.091305 0.000000
0.299217 0.103894 0.000000
0.348643 0.104871 0.000000
0.398591 0.105784 0.000000
0.448894 0.106643 0.000000
0.499421 0.107454 0.000000
0.550063 0.108224 0.000000
0.600726 0.108957 0.000000
0.651331 0.109656 0.000000
0.701806 0.110325 0.000000
0.752083 0.110966 0.000000
0.802102 0.111582 0.000000
0.851802 0.112174 0.000000
0.901124 0.112743 0.000000
0.950007 0.113291 0.000000
0.998387 0.113820 0.000000
1.000000 0.114328 0.000000
1.000000 0.114818 0.000000
1.000000 0.114829 0.000000
1.000000 0.114829 0.000000
1.000000 0.114829 0.000000
1.000000 0.114829 0.000000
1.000000 0.114829 0.000000
1.000000 0.114829 0.000000
1.000000 0.114829 0.000000
1.000000 0.114829 0.000000
0.003552 0.127989 0.000000
0.016570 0.127989 0.000000
0.050711 0.127989 0.000000
0.068715 0.127989 0.000000
0.108724 0.127989 0.000000
0.152963 0.127989 0.000000
0.200585 0.127989 0.000000
0.250523 0.127989 0.000000
0.299217 0.127989 0.000000
0.348643 0.127989 0.000000
0.398591 0.145522 0.000000
0.448894 0.146556 0.000000
0.499421 0.147533 0.000000
0.550063 0.148458 0.000000
0.600726 0.149339 0.000000
0.651331 0.150180 0.000000
0.701806 0.150983 0.000000
0.752083 0.151753 0.000000
0.802102 0.152492 0.000000
0.851802 0.153202 0.000000
0.901124 0.153885 0.000000
0.950007 0.154542 0.000000
0.998387 0.155175 0.000000
1.000000 0.155784 0.000000
1.000000 0.156371 0.000000
1.000000 0.156384 0.000000
1.000000 0.156384 0.000000
1.000000 0.156384 0.000000
1.000000 0.156384 0.000000
1.000000 0.156384 0.000000
1.000000 0.156384 0.000000
1.000000 0.156384 0.000000
1.000000 0.156384 0.000000
0.004096 0.167410 0.000000
0.017879 0.167410 0.000000
0.053205 0.167410 0.000000
0.068715 0.167410 0.000000
0.108724 0.167410 0.000000
0.152963 0.167410 0.000000
0.200585 0.167410 0.000000
0.250523 0.167410 0.000000
0.299217 0.167410 0.000000
0.348643 0.167410 0.000000
0.398591 0.167410 0.000000
0.448894 0.167410 0.000000
0.499421 0.190167 0.000000
0.550063 0.191240 0.000000
0.600726 0.192261 0.000000
0.651331 0.193234 0.000000
0.701806 0.194165 0.000000
0.752083 0.195056 0.000000
0.802102 0.195912 0.000000
0.851802 0.196733 0.000000
0.901124 0.197523 0.000000
0.950007 0.198283 0.000000
0.998387 0.199015 0.000000
1.000000 0.199720 0.000000
1.000000 0.200398 0.000000
1.000000 0.200413 0.000000
1.000000 0.200413 0.000000
1.000000 0.200413 0.000000
1.000000 0.200413 0.000000
1.000000 0.200413 0.000000
1.000000 0.200413 0.000000
1.000000 0.200413 0.000000
1.000000 0.200413 0.000000
0.004632 0.208937 0.000000
0.019127 0.208937 0.000000
0.055545 0.208937 0.000000
0.068715 0.208937 0.000000
0.108724 0.208937 0.000000
0.152963 0.208937 0.000000
0.200585 0.208937 0.000000
0.250523 0.208937 0.000000
0.299217 0.208937 0.000000
0.348643 0.208937 0.000000
0.398591 0.208937 0.000000
0.448894 0.208937 0.000000
0.499421 0.208937 0.000000
0.550063 0.208937 0.000000
0.600726 0.237116 0.000000
0.651331 0.238216 0.000000
0.701806 0.239268 0.000000
0.752083 0.240275 0.000000
0.802102 0.241240 0.000000
0.851802 0.242168 0.000000
0.901124 0.243059 0.000000
0.950007 0.243917 0.000000
0.998387 0.244743 0.000000
1.000000 0.245538 0.000000
1.000000 0.246303 0.000000
1.000000 0.246319 0.000000
1.000000 0.246319 0.000000
1.000000 0.246319 0.000000
1.000000 0.246319 0.000000
1.000000 0.246319 0.000000
1.000000 0.246319 0.000000
1.000000 0.246319 0.000000
1.000000 0.246319 0.000000
0.005148 0.250878 0.000000
0.020289 0.250878 0.000000
0.057696 0.250878 0.000000
0.102348 0.250878 0.000000
0.108724 0.250878 0.000000
0.152963 0.250878 0.000000
0.200585 0.250878 0.000000
0.250523 0.250878 0.000000
0.299217 0.250878 0.000000
0.348643 0.250878 0.000000
0.398591 0.250878 0.000000
0.448894 0.250878 0.000000
0.499421 0.250878 0.000000
0.550063 0.250878 0.000000
0.600726 0.250878 0.000000
0.651331 0.250878 0.000000
0.701806 0.250878 0.000000
0.752083 0.285640 0.000000
0.802102 0.286708 0.000000
0.851802 0.287734 0.000000
0.901124 0.288720 0.000000
0.950007 0.289668 0.000000
0.998387 0.290581 0.000000
1.000000 0.291459 0.000000
1.000000 0.292305 0.000000
1.000000 0.292323 0.000000
1.000000 0.292323 0.000000
1.000000 0.292323 0.000000
1.000000 0.292323 0.000000
1.000000 0.292323 0.000000
1.000000 0.292323 0.000000
1.000000 0.292323 0.000000
1.000000 0.292323 0.000000
0.005651 0.293569 0.000000
0.021397 0.293569 0.000000
0.059723 0.293569 0.000000
0.105173 0.293569 0.000000
0.108724 0.293569 0.000000
0.152963 0.293569 0.000000
0.200585 0.293569 0.000000
0.250523 0.293569 0.000000
0.299217 0.293569 0.000000
0.348643 0.293569 0.000000
0.398591 0.293569 0.000000
0.448894 0.293569 0.000000
0.499421 0.293569 0.000000
0.550063 0.293569 0.000000
0.600726 0.293569 0.000000
0.651331 0.293569 0.000000
0.701806 0.293569 0.000000
0.752083 0.293569 0.000000
0.802102 0.293569 0.000000
0.851802 0.333860 0.000000
0.901124 0.334935 0.000000
0.950007 0.335969 0.000000
0.998387 0.336965 0.000000
1.000000 0.337922 0.000000
1.000000 0.338844 0.000000
1.000000 0.338864 0.000000
1.000000 0.338864 0.000000
1.000000 0.338864 0.000000
1.000000 0.338864 0.000000
1.000000 0.338864 0.000000
1.000000 0.338864 0.000000
1.000000 0.338864 0.000000
1.000000 0.338864 0.000000
0.006144 0.336807 0.000000
0.022457 0.336807 0.000000
0.061643 0.336807 0.000000
0.107840 0.336807 0.000000
0.108724 0.336807 0.000000
0.152963 0.336807 0.000000
0.200585 0.336807 0.000000
0.250523 0.336807 0.000000
0.299217 0.336807 0.000000
0.348643 0.336807 0.000000
0.398591 0.336807 0.000000
0.448894 0.336807 0.000000
0.499421 0.336807 0.000000
0.550063 0.336807 0.000000
0.600726 0.336807 0.000000
0.651331 0.336807 0.000000
0.701806 0.336807 0.000000
0.752083 0.336807 0.000000
0.802102 0.336807 0.000000
0.851802 0.336807 0.000000
0.901124 0.336807 0.000000
0.950007 0.336807 0.000000
0.998387 0.383718 0.000000
1.000000 0.384751 0.000000
1.000000 0.385745 0.000000
1.000000 0.385766 0.000000
1.000000 0.385766 0.000000
1.000000 0.385766 0.000000
1.000000 0.385766 0.000000
1.000000 0.385766 0.000000
1.000000 0.385766 0.000000
1.000000 0.385766 0.000000
1.000000 0.385766 0.000000
0.006627 0.380434 0.000000
0.023476 0.380434 0.000000
0.063472 0.380434 0.000000
0.110370 0.380434 0.000000
0.108724 0.380434 0.000000
0.152963 0.380434 0.000000
0.200585 0.380434 0.000000
0.250523 0.380434 0.000000
0.299217 0.380434 0.000000
0.348643 0.380434 0.000000
0.398591 0.380434 0.000000
0.448894 0.380434 0.000000
0.499421 0.380434 0.000000
0.550063 0.380434 0.000000
0.600726 0.380434 0.000000
0.651331 0.380434 0.000000
0.701806 0.380434 0.000000
0.752083 0.380434 0.000000
0.802102 0.380434 0.000000
0.851802 0.380434 0.000000
0.901124 0.380434 0.000000
0.950007 0.380434 0.000000
0.998387 0.380434 0.000000
1.000000 0.380434 0.000000
1.000000 0.380434 0.000000
1.000000 0.380434 0.000000
1.000000 0.380434 0.000000
1.000000 0.380434 0.000000
1.000000 0.380434 0.000000
1.000000 0.380434 0.000000
1.000000 0.380434 0.000000
1.000000 0.380434 0.000000
1.000000 0.380434 0.000000
0.007101 0.424325 0.000000
0.024459 0.424325 0.000000
0.065221 0.424325 0.000000
0.112781 0.424325 0.000000
0.164860 0.424325 0.000000
0.152963 0.424325 0.000000
0.200585 0.424325 0.000000
0.250523 0.424325 0.000000
0.299217 0.424325 0.000000
0.348643 0.424325 0.000000
0.398591 0.424325 0.000000
0.448894 0.424325 0.000000
0.499421 0.424325 0.000000
0.550063 0.424325 0.000000
0.600726 0.424325 0.000000
0.651331 0.424325 0.000000
0.701806 0.424325 0.000000
0.752083 0.424325 0.000000
0.802102 0.424325 0.000000
0.851802 0.424325 0.000000
0.901124 0.424325 0.000000
0.950007 0.424325 0.000000
0.998387 0.424325 0.000000
1.000000 0.424325 0.000000
1.000000 0.424325 0.000000
1.000000 0.424325 0.000000
1.000000 0.424325 0.000000
1.000000 0.424325 0.000000
1.000000 0.424325 0.000000
1.000000 0.424325 0.000000
1.000000 0.424325 0.000000
1.000000 0.424325 0.000000
1.000000 0.424325 0.000000
0.007567 0.468377 0.000000
0.025410 0.468377 0.000000
0.066899 0.468377 0.000000
0.115087 0.468377 0.000000
0.167735 0.468377 0.000000
0.152963 0.468377 0.000000
0.200585 0.468377 0.000000
0.250523 0.468377 0.000000
0.299217 0.468377 0.000000
0.348643 0.468377 0.000000
0.398591 0.468377 0.000000
0.448894 0.468377 0.000000
0.499421 0.468377 0.000000
0.550063 0.468377 0.000000
0.600726 0.468377 0.000000
0.651331 0.468377 0.000000
0.701806 0.468377 0.000000
0.752083 0.468377 0.000000
0.802102 0.468377 0.000000
0.851802 0.468377 0.000000
0.901124 0.468377 0.000000
0.950007 0.468377 0.000000
0.998387 0.468377 0.000000
1.000000 0.468377 0.000000
1.000000 0.468377 0.000000
1.000000 0.468377 0.000000
1.000000 0.468377 0.000000
1.000000 0.468377 0.000000
1.000000 0.468377 0.000000
1.000000 0.468377 0.000000
1.000000 0.468377 0.000000
1.000000 0.468377 0.000000
1.000000 0.468377 0.000000
0.008024 0.512500 0.000000
0.026330 0.512500 0.000000
0.068512 0.512500 0.000000
0.117298 0.512500 0.000000
0.170487 0.512500 0.000000
0.152963 0.512500 0.000000
0.200585 0.512500 0.000000
0.250523 0.512500 0.000000
0.299217 0.512500 0.000000
0.348643 0.512500 0.000000
0.398591 0.512500 0.000000
0.448894 0.512500 0.000000
0.499421 0.512500 0.000000
0.550063 0.512500 0.000000
0.600726 0.512500 0.000000
0.651331 0.512500 0.000000
0.701806 0.512500 0.000000
0.752083 0.512500 0.000000
0.802102 0.512500 0.000000
0.851802 0.512500 0.000000
0.901124 0.512500 0.000000
0.950007 0.512500 0.000000
0.998387 0.512500 0.000000
1.000000 0.512500 0.000000
1.000000 0.512500 0.000000
1.000000 0.512500 0.000000
1.000000 0.512500 0.000000
1.000000 0.512500 0.000000
1.000000 0.512500 0.000000
1.000000 0.512500 0.000000
1.000000 0.512500 0.000000
1.000000 0.512500 0.000000
1.000000 0.512500 0.000000
0.008473 0.556619 0.000000
0.027223 0.556619 0.000000
0.070067 0.556619 0.000000
0.119423 0.556619 0.000000
0.173128 0.556619 0.000000
0.152963 0.556619 0.000000
0.200585 0.556619 0.000000
0.250523 0.556619 0.000000
0.299217 0.556619 0.000000
0.348643 0.556619 0.000000
0.398591 0.556619 0.000000
0.448894 0.556619 0.000000
0.499421 0.556619 0.000000
0.550063 0.556619 0.000000
0.600726 0.556619 0.000000
0.651331 0.556619 0.000000
0.701806 0.556619 0.000000
0.752083 0.556619 0.000000
0.802102 0.556619 0.000000
0.851802 0.556619 0.000000
0.901124 0.556619 0.000000
0.950007 0.556619 0.000000
0.998387 0.556619 0.000000
1.000000 0.556619 0.000000
1.000000 0.556619 0.000000
1.000000 0.556619 0.000000
1.000000 0.556619 0.000000
1.000000 0.556619 0.000000
1.000000 0.556619 0.000000
1.000000 0.556619 0.000000
1.000000 0.556619 0.000000
1.000000 0.556619 0.000000
1.000000 0.556619 0.000000
0.008915 0.600665 0.000000
0.028091 0.600665 0.000000
0.071569 0.600665 0.000000
0.121469 0.600665 0.000000
0.175668 0.600665 0.000000
0.233134 0.600665 0.000000
0.200585 0.600665 0.000000
0.250523 0.600665 0.000000
0.299217 0.600665 0.000000
0.348643 0.600665 0.000000
0.398591 0.600665 0.000000
0.448894 0.600665 0.000000
0.499421 0.600665 0.000000
0.550063 0.600665 0.000000
0.600726 0.600665 0.000000
0.651331 0.600665 0.000000
0.701806 0.600665 0.000000
0.752083 0.600665 0.000000
0.802102 0.600665 0.000000
0.851802 0.600665 0.000000
0.901124 0.600665 0.000000
0.950007 0.600665 0.000000
0.998387 0.600665 0.000000
1.000000 0.600665 0.000000
1.000000 0.600665 0.000000
1.000000 0.600665 0.000000
1.000000 0.600665 0.000000
1.000000 0.600665 0.000000
1.000000 0.600665 0.000000
1.000000 0.600665 0.000000
1.000000 0.600665 0.000000
1.000000 0.600665 0.000000
1.000000 0.600665 0.000000
0.009349 0.644576 0.000000
0.028934 0.644576 0.000000
0.073020 0.644576 0.000000
0.123443 0.644576 0.000000
0.178114 0.644576 0.000000
0.236018 0.644576 0.000000
0.200585 0.644576 0.000000
0.250523 0.644576 0.000000
0.299217 0.644576 0.000000
0.348643 0.644576 0.000000
0.398591 0.644576 0.000000
0.448894 0.644576 0.000000
0.499421 0.644576 0.000000
0.550063 0.644576 0.000000
0.600726 0.644576 0.000000
0.651331 0.644576 0.000000
0.701806 0.644576 0.000000
0.752083 0.644576 0.000000
0.802102 0.644576 0.000000
0.851802 0.644576 0.000000
0.901124 0.644576 0.000000
0.950007 0.644576 0.000000
0.998387 0.644576 0.000000
1.000000 0.644576 0.000000
1.000000 0.644576 0.000000
1.000000 0.644576 0.000000
1.000000 0.644576 0.000000
1.000000 0.644576 0.000000
1.000000 0.644576 0.000000
1.000000 0.644576 0.000000
1.000000 0.644576 0.000000
1.000000 0.644576 0.000000
1.000000 0.644576 0.000000
0.009776 0.688294 0.000000
0.029755 0.688294 0.000000
0.074425 0.688294 0.000000
0.125349 0.688294 0.000000
0.180473 0.688294 0.000000
0.238797 0.688294 0.000000
0.200585 0.688294 0.000000
0.250523 0.688294 0.000000
0.299217 0.688294 0.000000
0.348643 0.688294 0.000000
0.398591 0.688294 0.000000
0.448894 0.688294 0.000000
0.499421 0.688294 0.000000
0.550063 0.688294 0.000000
0.600726 0.688294 0.000000
0.651331 0.688294 0.000000
0.701806 0.688294 0.000000
0.752083 0.688294 0.000000
0.802102 0.688294 0.000000
0.851802 0.688294 0.000000
0.901124 0.688294 0.000000
0.950007 0.688294 0.000000
0.998387 0.688294 0.000000
1.000000 0.688294 0.000000
1.000000 0.688294 0.000000
1.000000 0.688294 0.000000
1.000000 0.688294 0.000000
1.000000 0.688294 0.000000
1.000000 0.688294 0.000000
1.000000 0.688294 0.000000
1.000000 0.688294 0.000000
1.000000 0.688294 0.000000
1.000000 0.688294 0.000000
0.010195 0.731763 0.000000
0.030554 0.731763 0.000000
0.075785 0.731763 0.000000
0.127191 0.731763 0.000000
0.182751 0.731763 0.000000
0.241477 0.731763 0.000000
0.200585 0.731763 0.000000
0.250523 0.731763 0.000000
0.299217 0.731763 0.000000
0.348643 0.731763 0.000000
0.398591 0.731763 0.000000
0.448894 0.731763 0.000000
0.499421 0.731763 0.000000
0.550063 0.731763 0.000000
0.600726 0.731763 0.000000
0.651331 0.731763 0.000000
0.701806 0.731763 0.000000
0.752083 0.731763 0.000000
0.802102 0.731763 0.000000
0.851802 0.731763 0.000000
0.901124 0.731763 0.000000
0.950007 0.731763 0.000000
0.998387 0.731763 0.000000
1.000000 0.731763 0.000000
1.000000 0.731763 0.000000
1.000000 0.731763 0.000000
1.000000 0.731763 0.000000
1.000000 0.731763 0.000000
1.000000 0.731763 0.000000
1.000000 0.731763 0.000000
1.000000 0.731763 0.000000
1.000000 0.731763 0.000000
1.000000 0.731763 0.000000
0.010607 0.774929 0.000000
0.031332 0.774929 0.000000
0.077104 0.774929 0.000000
0.128973 0.774929 0.000000
0.184951 0.774929 0.000000
0.244034 0.774929 0.000000
0.303173 0.774929 0.000000
0.250523 0.774929 0.000000
0.299217 0.774929 0.000000
0.348643 0.774929 0.000000
0.398591 0.774929 0.000000
0.448894 0.774929 0.000000
0.499421 0.774929 0.000000
0.550063 0.774929 0.000000
0.600726 0.774929 0.000000
0.651331 0.774929 0.000000
0.701806 0.774929 0.000000
0.752083 0.774929 0.000000
0.802102 0.774929 0.000000
0.851802 0.774929 0.000000
0.901124 0.774929 0.000000
0.950007 0.774929 0.000000
0.998387 0.774929 0.000000
1.000000 0.774929 0.000000
1.000000 0.774929 0.000000
1.000000 0.774929 0.000000
1.000000 0.774929 0.000000
1.000000 0.774929 0.000000
1.000000 0.774929 0.000000
1.000000 0.774929 0.000000
1.000000 0.774929 0.000000
1.000000 0.774929 0.000000
1.000000 0.774929 0.000000
0.011011 0.817735 0.000000
0.032090 0.817735 0.000000
0.078383 0.817735 0.000000
0.130698 0.817735 0.000000
0.187078 0.817735 0.000000
0.246437 0.817735 0.000000
0.305900 0.817735 0.000000
0.250523 0.817735 0.000000
0.299217 0.817735 0.000000
0.348643 0.817735 0.000000
0.398591 0.817735 0.000000
0.448894 0.817735 0.000000
0.499421 0.817735 0.000000
0.550063 0.817735 0.000000
0.600726 0.817735 0.000000
0.651331 0.817735 0.000000
0.701806 0.817735 0.000000
0.752083 0.817735 0.000000
0.802102 0.817735 0.000000
0.851802 0.817735 0.000000
0.901124 0.817735 0.000000
0.950007 0.817735 0.000000
0.998387 0.817735 0.000000
1.000000 0.817735 0.000000
1.000000 0.817735 0.000000
1.000000 0.817735 0.000000
1.000000 0.817735 0.000000
1.000000 0.817735 0.000000
1.000000 0.817735 0.000000
1.000000 0.817735 0.000000
1.000000 0.817735 0.000000
1.000000 0.817735 0.000000
1.000000 0.817735 0.000000
0.011408 0.860124 0.000000
0.032828 0.860124 0.000000
0.079623 0.860124 0.000000
0.132367 0.860124 0.000000
0.189134 0.860124 0.000000
0.248758 0.860124 0.000000
0.308532 0.860124 0.000000
0.250523 0.860124 0.000000
0.299217 0.860124 0.000000
0.348643 0.860124 0.000000
0.398591 0.860124 0.000000
0.448894 0.860124 0.000000
0.499421 0.860124 0.000000
0.550063 0.860124 0.000000
0.600726 0.860124 0.000000
0.651331 0.860124 0.000000
0.701806 0.860124 0.000000
0.752083 0.860124 0.000000
0.802102 0.860124 0.000000
0.851802 0.860124 0.000000
0.901124 0.860124 0.000000
0.950007 0.860124 0.000000
0.998387 0.860124 0.000000
1.000000 0.860124 0.000000
1.000000 0.860124 0.000000
1.000000 0.860124 0.000000
1.000000 0.860124 0.000000
1.000000 0.860124 0.000000
1.000000 0.860124 0.000000
1.000000 0.860124 0.000000
1.000000 0.860124 0.000000
1.000000 0.860124 0.000000
1.000000 0.860124 0.000000
0.011797 0.902032 0.000000
0.033546 0.902032 0.000000
0.080824 0.902032 0.000000
0.133982 0.902032 0.000000
0.191123 0.902032 0.000000
0.251001 0.902032 0.000000
0.311074 0.902032 0.000000
0.250523 0.902032 0.000000
0.299217 0.902032 0.000000
0.348643 0.902032 0.000000
0.398591 0.902032 0.000000
0.448894 0.902032 0.000000
0.499421 0.902032 0.000000
0.550063 0.902032 0.000000
0.600726 0.902032 0.000000
0.651331 0.902032 0.000000
0.701806 0.902032 0.000000
0.752083 0.902032 0.000000
0.802102 0.902032 0.000000
0.851802 0.902032 0.000000
0.901124 0.902032 0.000000
0.950007 0.902032 0.000000
0.998387 0.902032 0.000000
1.000000 0.902032 0.000000
1.000000 0.902032 0.000000
1.000000 0.902032 0.000000
1.000000 0.902032 0.000000
1.000000 0.902032 0.000000
1.000000 0.902032 0.000000
1.000000 0.902032 0.000000
1.000000 0.902032 0.000000
1.000000 0.902032 0.000000
1.000000 0.902032 0.000000
0.012178 0.943391 0.000000
0.034245 0.943391 0.000000
0.081989 0.943391 0.000000
0.135545 0.943391 0.000000
0.193044 0.943391 0.000000
0.253166 0.943391 0.000000
0.313527 0.943391 0.000000
0.250523 0.943391 0.000000
0.299217 0.943391 0.000000
0.348643 0.943391 0.000000
0.398591 0.943391 0.000000
0.448894 0.943391 0.000000
0.499421 0.943391 0.000000
0.550063 0.943391 0.000000
0.600726 0.943391 0.000000
0.651331 0.943391 0.000000
0.701806 0.943391 0.000000
0.752083 0.943391 0.000000
0.802102 0.943391 0.000000
0.851802 0.943391 0.000000
0.901124 0.943391 0.000000
0.950007 0.943391 0.000000
0.998387 0.943391 0.000000
1.000000 0.943391 0.000000
1.000000 0.943391 0.000000
1.000000 0.943391 0.000000
1.000000 0.943391 0.000000
1.000000 0.943391 0.000000
1.000000 0.943391 0.000000
1.000000 0.943391 0.000000
1.000000 0.943391 0.000000
1.000000 0.943391 0.000000
1.000000 0.943391 0.000000
0.012186 0.944288 0.000000
0.034260 0.944288 0.000000
0.082014 0.944288 0.000000
0.135578 0.944288 0.000000
0.193085 0.944288 0.000000
0.253212 0.944288 0.000000
0.313580 0.944288 0.000000
0.250523 0.944288 0.000000
0.299217 0.944288 0.000000
0.348643 0.944288 0.000000
0.398591 0.944288 0.000000
0.448894 0.944288 0.000000
0.499421 0.944288 0.000000
0.550063 0.944288 0.000000
0.600726 0.944288 0.000000
0.651331 0.944288 0.000000
0.701806 0.944288 0.000000
0.752083 0.944288 0.000000
0.802102 0.944288 0.000000
0.851802 0.944288 0.000000
0.901124 0.944288 0.000000
0.950007 0.944288 0.000000
0.998387 0.944288 0.000000
1.000000 0.944288 0.000000
1.000000 0.944288 0.000000
1.000000 0.944288 0.000000
1.000000 0.944288 0.000000
1.000000 0.944288 0.000000
1.000000 0.944288 0.000000
1.000000 0.944288 0.000000
1.000000 0.944288 0.000000
1.000000 0.944288 0.000000
1.000000 0.944288 0.000000
0.012186 0.944288 0.000000
0.034260 0.944288 0.000000
0.082014 0.944288 0.000000
0.135578 0.944288 0.000000
0.193085 0.944288 0.000000
0.253212 0.944288 0.000000
0.313580 0.944288 0.000000
0.250523 0.944288 0.000000
0.299217 0.944288 0.000000
0.348643 0.944288 0.000000
0.398591 0.944288 0.000000
0.448894 0.944288 0.000000
0.499421 0.944288 0.000000
0.550063 0.944288 0.000000
0.600726 0.944288 0.000000
0.651331 0.944288 0.000000
0.701806 0.944288 0.000000
0.752083 0.944288 0.000000
