Resources/LUTs/Fuji_Eterna_linear.cube
TITLE "Fuji_Eterna_Cinema_v2_Improved"
LUT_3D_SIZE 5
DOMAIN_MIN 0.0 0.0 0.0
DOMAIN_MAX 1.0 1.0 1.0
0.023259 0.057192 0.063470
0.186654 0.065533 0.070461
0.370123 0.075214 0.078798
0.579269 0.086736 0.089053
0.804154 0.099917 0.101306
0.067920 0.250990 0.078803
0.238016 0.241736 0.097089
0.433986 0.251882 0.095153
0.642765 0.263693 0.106964
0.869483 0.276518 0.119790
0.101839 0.458101 0.104339
0.269233 0.465565 0.111803
0.456014 0.457264 0.147184
0.677391 0.469974 0.141591
0.904110 0.482800 0.154417
0.134348 0.697679 0.136848
0.301741 0.705142 0.144312
0.490620 0.713564 0.152733
0.703978 0.705228 0.205757
0.943902 0.719518 0.194138
0.169686 0.957853 0.172143
0.337579 0.965466 0.179507
0.527728 0.974269 0.187674
0.746839 0.984646 0.196862
0.981133 0.976865 0.267785
0.029151 0.060001 0.212083
0.192302 0.068415 0.219195
0.375459 0.078190 0.227688
0.584161 0.089845 0.238165
0.808253 0.103264 0.250814
0.082599 0.235579 0.237667
0.242458 0.244980 0.246426
0.420186 0.256383 0.257633
0.622999 0.269805 0.271055
0.843240 0.284380 0.285630
0.104374 0.460636 0.266804
0.271767 0.468100 0.274267
0.459534 0.460784 0.296982
0.680489 0.473072 0.296817
0.907208 0.485898 0.309643
0.136883 0.700213 0.299312
0.304276 0.707677 0.306776
0.493155 0.716099 0.315198
0.707499 0.708749 0.355554
0.947123 0.722653 0.349339
0.172324 0.960419 0.334587
0.340417 0.968092 0.341910
0.530791 0.976962 0.350033
0.750160 0.987417 0.359169
0.985721 0.980705 0.417370
0.035703 0.063200 0.379817
0.198569 0.071699 0.387072
0.381352 0.081585 0.395752
0.589508 0.093405 0.406503
0.812339 0.107202 0.419782
0.087975 0.239130 0.405990
0.247186 0.248725 0.415072
0.424158 0.260355 0.426658
0.626971 0.273777 0.440079
0.847212 0.288352 0.454654
0.130114 0.442693 0.443943
0.286757 0.453060 0.454310
0.463506 0.464756 0.466006
0.666320 0.478178 0.479428
0.886560 0.492753 0.494003
0.139743 0.703073 0.482630
0.307136 0.710537 0.490093
0.496015 0.718959 0.498515
0.711471 0.712721 0.524579
0.950840 0.726215 0.524445
0.175383 0.963338 0.517864
0.343701 0.971079 0.525143
0.534329 0.980026 0.533215
0.753990 0.990568 0.542293
0.990979 0.985063 0.586137
0.043090 0.066909 0.572353
0.205612 0.075512 0.579780
0.387937 0.085536 0.588689
0.595381 0.097568 0.599795
0.816898 0.111760 0.613732
0.093889 0.243281 0.599262
0.251967 0.253217 0.608911
0.428716 0.264913 0.620608
0.631529 0.278335 0.634029
0.851770 0.292910 0.648604
0.134672 0.447251 0.637893
0.291315 0.457618 0.648260
0.468064 0.469314 0.659956
0.670878 0.482736 0.673378
0.891119 0.497311 0.687953
0.179823 0.681795 0.683045
0.336466 0.692161 0.693411
0.513215 0.703857 0.705107
0.716041 0.717283 0.718527
0.937033 0.732083 0.732951
0.178999 0.966720 0.728148
0.347575 0.974539 0.735375
0.538495 0.983573 0.743388
0.758491 0.994215 0.752399
0.997120 0.990096 0.779771
0.050947 0.070986 0.781515
0.213069 0.079709 0.789141
0.394849 0.089897 0.798323
0.601348 0.102212 0.809901
0.821847 0.116710 0.824347
0.099919 0.247907 0.809338
0.256916 0.258166 0.819527
0.433665 0.269863 0.831223
0.636479 0.283285 0.844645
0.856720 0.297860 0.859220
0.139621 0.452201 0.848509
0.296265 0.462567 0.858875
0.473014 0.474264 0.870572
0.675828 0.487686 0.883993
0.896068 0.502260 0.898568
0.184772 0.686744 0.893660
0.341416 0.697110 0.904026
0.518165 0.708807 0.915723
0.721116 0.722270 0.929117
0.942502 0.737188 0.943463
0.234967 0.941790 0.942458
0.393074 0.952595 0.952531
0.572180 0.964999 0.963757
0.778621 0.979509 0.976453
1.000000 0.995600 0.990017
