Resources/LUTs/Fuji_Astia_100F_Linear.cube
TITLE "Fuji_Astia_100F_Linear_v2"
LUT_3D_SIZE 9
DOMAIN_MIN 0.0 0.0 0.0
DOMAIN_MAX 1.0 1.0 1.0
# Fuji Astia 100F (RDP III) Linear LUT v2.0
# ========================================
# Input/Output: Linear RGB
# 
# Film Characteristics:
# - Soft S-curve (lower contrast than Provia)
# - Excellent skin tone rendering (desaturated reds/oranges)
# - Subtle cyan bias in shadows
# - Clean, slightly warm highlights
# - High vibrance, moderate saturation
# - Muted greens with cyan shift
# 
# Usage: Apply in linear space pipeline
# sRGB -> Linear -> LUT -> Grain/Bloom -> Linear -> sRGB
0.002984 0.008984 0.023016
0.105809 0.026742 0.039491
0.231762 0.034673 0.047261
0.349041 0.048742 0.060014
0.463022 0.062407 0.072354
0.573507 0.075642 0.084256
0.681186 0.088533 0.095806
0.809394 0.103944 0.109930
0.900018 0.114898 0.119878
0.023429 0.107663 0.041664
0.107542 0.109815 0.033697
0.226013 0.136258 0.047645
0.339705 0.156920 0.063830
0.450197 0.176988 0.079502
0.556849 0.196648 0.095521
0.660692 0.215844 0.111275
0.784460 0.238743 0.130223
0.872007 0.254920 0.143432
0.034333 0.229026 0.054037
0.115822 0.228693 0.039615
0.231573 0.230985 0.034720
0.338023 0.251357 0.058678
0.447983 0.271690 0.075413
0.554615 0.291448 0.092005
0.658609 0.310770 0.108672
0.782527 0.333794 0.128532
0.870213 0.350086 0.142585
0.049881 0.342571 0.073194
0.123964 0.342156 0.052751
0.244704 0.346229 0.046753
0.346258 0.345371 0.046194
0.446139 0.352578 0.074070
0.552856 0.384809 0.091174
0.656849 0.404131 0.107840
0.780768 0.427155 0.127701
0.868454 0.443447 0.141754
0.064578 0.453114 0.094271
0.132459 0.452835 0.068363
0.232307 0.451830 0.067652
0.359275 0.457618 0.060180
0.458008 0.456831 0.059684
0.551146 0.460173 0.090366
0.655139 0.476584 0.107033
0.779058 0.517879 0.126893
0.866744 0.534171 0.140946
0.078822 0.560250 0.115614
0.140727 0.560128 0.083670
0.240576 0.559123 0.082959
0.372021 0.566534 0.073864
0.470577 0.565571 0.073191
0.566315 0.564856 0.072757
0.673600 0.578054 0.086165
0.777896 0.584096 0.125780
0.865981 0.622098 0.139567
0.092702 0.664652 0.136412
0.148784 0.664683 0.098587
0.248633 0.663677 0.097875
0.384683 0.672671 0.087037
0.483638 0.671707 0.086098
0.579555 0.670774 0.085180
0.673295 0.670124 0.084539
0.801419 0.685850 0.100327
0.865707 0.683646 0.137911
0.109629 0.789058 0.160938
0.159171 0.789270 0.115837
0.259419 0.788265 0.114860
0.357771 0.787279 0.113897
0.499779 0.798180 0.101094
0.595696 0.797246 0.100176
0.689176 0.796336 0.099275
0.800799 0.795561 0.098561
0.891577 0.806689 0.109654
0.122674 0.877089 0.177581
0.167306 0.877430 0.127521
0.267554 0.876425 0.126544
0.365906 0.875438 0.125581
0.511593 0.887673 0.111443
0.607510 0.886740 0.110526
0.700989 0.885830 0.109624
0.812303 0.884746 0.108601
0.891531 0.884322 0.108143
0.016221 0.022234 0.132663
0.107467 0.027347 0.123647
0.231371 0.034294 0.141924
0.348650 0.048364 0.154678
0.462631 0.062028 0.167018
0.573116 0.075264 0.178920
0.680794 0.088154 0.190470
0.809003 0.103566 0.204593
0.899447 0.114609 0.214902
0.014292 0.117613 0.126771
0.126175 0.128425 0.137948
0.248624 0.140133 0.146715
0.368570 0.151535 0.156772
0.485076 0.162628 0.166655
0.597567 0.173591 0.177053
0.694115 0.197347 0.200093
0.821791 0.213024 0.215279
0.912136 0.224117 0.226125
0.033947 0.228643 0.145464
0.140576 0.246420 0.151343
0.248225 0.247903 0.141133
0.360023 0.265948 0.159743
0.472436 0.284018 0.174024
0.581483 0.301608 0.188563
0.675653 0.325101 0.215053
0.799571 0.348125 0.234913
0.887258 0.364417 0.248966
0.049314 0.342278 0.164983
0.153111 0.362766 0.169134
0.258529 0.365696 0.151080
0.365407 0.364772 0.150470
0.470624 0.372417 0.173011
0.579699 0.399950 0.187756
0.673893 0.418461 0.214222
0.797812 0.441485 0.234082
0.885498 0.457777 0.248135
0.064011 0.452821 0.186328
0.165286 0.475832 0.189019
0.250356 0.475241 0.168035
0.375846 0.479663 0.161929
0.479744 0.478803 0.161374
0.577965 0.482482 0.186972
0.672184 0.509185 0.213414
0.796102 0.532209 0.233274
0.883788 0.548501 0.247327
0.078255 0.559957 0.207671
0.177085 0.585413 0.208291
0.255833 0.584955 0.180921
0.386037 0.591086 0.173106
0.489823 0.590115 0.172441
0.590556 0.589319 0.171942
0.670759 0.581849 0.212476
0.795076 0.620137 0.232071
0.883161 0.636429 0.245858
0.092136 0.664359 0.228469
0.201174 0.679606 0.237737
0.270246 0.679409 0.205938
0.368577 0.678422 0.204989
0.497592 0.685809 0.195700
0.593509 0.684876 0.194782
0.687206 0.684183 0.194099
0.794802 0.687117 0.230414
0.882887 0.700954 0.244202
0.109198 0.788765 0.252904
0.218635 0.804012 0.261907
0.281167 0.803996 0.222833
0.379519 0.803010 0.221870
0.475105 0.802052 0.220926
0.609650 0.811348 0.209778
0.703130 0.810438 0.208877
0.814710 0.809621 0.208120
0.905489 0.820749 0.219214
0.122243 0.876796 0.269547
0.231680 0.892043 0.278550
0.289302 0.892156 0.234516
0.387654 0.891170 0.233553
0.483240 0.890211 0.232609
0.621464 0.900842 0.220127
0.714943 0.899932 0.219226
0.826257 0.898848 0.218203
0.905442 0.898382 0.217703
0.017093 0.023220 0.263943
0.126990 0.021976 0.261295
0.231700 0.034657 0.244506
0.348216 0.047964 0.256498
0.462197 0.061628 0.268838
0.572682 0.074864 0.280740
0.680361 0.087754 0.292290
0.808487 0.103206 0.306576
0.898832 0.114300 0.317083
0.012214 0.130107 0.261003
0.131458 0.133802 0.264818
0.248559 0.140174 0.254369
0.368128 0.151143 0.263994
0.484453 0.162327 0.274238
0.596945 0.173289 0.284636
0.693500 0.197037 0.302273
0.821177 0.212714 0.317460
0.911522 0.223808 0.328584
0.011918 0.250143 0.253293
0.128160 0.258027 0.260579
0.259798 0.259798 0.261893
0.382422 0.268351 0.269486
0.495892 0.282261 0.282885
0.607848 0.293760 0.294676
0.717468 0.304442 0.305648
0.834819 0.330445 0.331917
0.925165 0.341539 0.343242
0.048705 0.341963 0.263684
0.152494 0.362459 0.273336
0.269357 0.379214 0.277753
0.380640 0.380307 0.267931
0.486989 0.395103 0.289340
0.595496 0.412676 0.304654
0.701787 0.429840 0.319022
0.816136 0.456892 0.348451
0.903822 0.473184 0.362505
0.063402 0.452506 0.285297
0.164669 0.475525 0.293221
0.284070 0.489742 0.299788
0.387986 0.492785 0.281897
0.492471 0.491847 0.281340
0.593762 0.498578 0.303870
0.700053 0.525405 0.318238
0.814427 0.547616 0.347644
0.902113 0.563908 0.361697
0.077646 0.559642 0.306640
0.176468 0.585105 0.312494
0.296348 0.598844 0.319466
0.379943 0.598261 0.299021
0.501959 0.602571 0.293075
0.602654 0.601738 0.292538
0.698741 0.605328 0.317234
0.813536 0.635543 0.346350
0.901620 0.651835 0.360138
0.091527 0.664044 0.327439
0.200565 0.679291 0.336707
0.307961 0.705628 0.338170
0.385794 0.705175 0.311237
0.512800 0.711150 0.303360
0.613786 0.710209 0.302449
0.712347 0.709433 0.301697
0.813262 0.705725 0.344693
0.901347 0.719562 0.358481
0.108724 0.788450 0.351784
0.218161 0.803697 0.360786
0.335786 0.820089 0.370484
0.402891 0.819923 0.337957
0.498476 0.818964 0.337013
0.624642 0.826509 0.327617
0.718121 0.825599 0.326716
0.829656 0.824736 0.325913
0.920435 0.835864 0.337007
0.121769 0.876481 0.368427
0.231206 0.891728 0.377429
0.348831 0.908120 0.387127
0.411026 0.908082 0.349640
0.506611 0.907124 0.348697
0.636456 0.916002 0.337966
0.729935 0.915093 0.337065
0.841249 0.914008 0.336042
0.920388 0.913497 0.335496
0.024886 0.031082 0.385785
0.134807 0.029862 0.383161
0.252869 0.028498 0.380417
0.348242 0.048018 0.356821
0.461775 0.061234 0.368713
0.572260 0.074469 0.380615
0.679938 0.087360 0.392165
0.807884 0.102902 0.406813
0.898230 0.113996 0.417320
0.024684 0.138218 0.378166
0.136235 0.138666 0.389674
0.260587 0.137348 0.386946
0.367844 0.150903 0.369316
0.483843 0.162031 0.379774
0.596334 0.172993 0.390172
0.692897 0.196733 0.402510
0.820574 0.212410 0.417773
0.910919 0.223504 0.429098
0.017302 0.255785 0.377661
0.130345 0.260584 0.388209
0.260954 0.261332 0.390552
0.381809 0.268057 0.381193
0.495285 0.281961 0.389249
0.607237 0.293464 0.400504
0.716858 0.304146 0.411476
0.834216 0.330141 0.432431
0.924562 0.341235 0.443756
0.015299 0.374462 0.373585
0.128388 0.385658 0.384907
0.256451 0.391213 0.390820
0.389373 0.389373 0.389373
0.509783 0.396344 0.396675
0.621541 0.408040 0.408663
0.727554 0.422330 0.423221
0.847600 0.445638 0.446811
0.937945 0.456732 0.458136
0.019284 0.495718 0.378543
0.129287 0.510000 0.387010
0.283501 0.489404 0.402488
0.397366 0.506622 0.405715
0.508027 0.507696 0.395961
0.612691 0.520970 0.415117
0.715550 0.537889 0.432917
0.832403 0.562730 0.459843
0.920089 0.579022 0.473896
0.077048 0.559333 0.403732
0.175863 0.584804 0.414719
0.295743 0.598542 0.421691
0.409798 0.615569 0.425524
0.513892 0.618535 0.407675
0.618369 0.617641 0.407033
0.714373 0.621118 0.431822
0.831648 0.650658 0.458459
0.919732 0.666950 0.472247
0.090929 0.663735 0.424530
0.199967 0.678982 0.433798
0.307491 0.705326 0.440305
0.425494 0.718804 0.446879
0.507127 0.718238 0.426745
0.625827 0.722429 0.420703
0.724351 0.721616 0.419914
0.831374 0.723980 0.456802
0.919459 0.752633 0.470590
0.108262 0.788141 0.448785
0.217699 0.803388 0.457787
0.335324 0.819780 0.467485
0.450724 0.835861 0.476994
0.521407 0.835556 0.450896
0.614059 0.834627 0.449973
0.732831 0.840472 0.442316
0.844321 0.839564 0.441469
0.918875 0.839952 0.468787
0.121307 0.876172 0.465428
0.230744 0.891419 0.474430
0.348369 0.907811 0.484128
0.463769 0.923891 0.493637
0.529542 0.923715 0.462579
0.622194 0.922786 0.461656
0.744644 0.929966 0.452666
0.855958 0.928881 0.451643
0.935053 0.928325 0.451052
0.032463 0.038718 0.504165
0.142408 0.037523 0.501565
0.260470 0.036159 0.498821
0.362543 0.062339 0.468565
0.461509 0.060987 0.465889
0.571855 0.074084 0.477652
0.679533 0.086974 0.489202
0.807299 0.102607 0.504210
0.897644 0.113700 0.514717
0.032261 0.145855 0.496547
0.140882 0.143389 0.510985
0.265250 0.142087 0.508272
0.379455 0.162706 0.483839
0.483249 0.161743 0.482321
0.595741 0.172706 0.492720
0.692312 0.196438 0.499908
0.819988 0.212115 0.515449
0.910334 0.223208 0.526773
0.022472 0.261298 0.498630
0.132467 0.263067 0.512225
0.268269 0.268979 0.509374
0.390475 0.267898 0.507765
0.494695 0.281670 0.492617
0.606644 0.293176 0.503344
0.716264 0.303859 0.514315
0.833631 0.329846 0.530107
0.923976 0.340939 0.541431
0.020433 0.379939 0.494674
0.130502 0.388133 0.509259
0.261589 0.390033 0.512186
0.388944 0.389321 0.516302
0.509183 0.396063 0.508080
0.620968 0.407732 0.515115
0.726961 0.422043 0.526061
0.847014 0.445343 0.544487
0.937360 0.456436 0.555811
0.018672 0.495449 0.494057
0.128666 0.509740 0.508628
0.259910 0.512114 0.511378
0.384532 0.518574 0.518183
0.515243 0.515243 0.515243
0.631832 0.522109 0.522429
0.737709 0.536535 0.537122
0.867979 0.549619 0.550548
0.950460 0.568671 0.569722
0.022534 0.612967 0.499028
0.129537 0.630249 0.510666
0.261279 0.632125 0.512920
0.409211 0.615276 0.528426
0.523081 0.628786 0.531159
0.630386 0.629826 0.521561
0.730024 0.642671 0.542716
0.856623 0.663092 0.560028
0.937337 0.681637 0.581187
0.026297 0.727486 0.503872
0.199386 0.678682 0.528147
0.307038 0.705033 0.539553
0.425041 0.718511 0.546127
0.539270 0.732061 0.552124
0.637534 0.734902 0.535016
0.736614 0.734046 0.534195
0.856327 0.753348 0.558393
0.937063 0.767320 0.579530
0.107817 0.787841 0.543044
0.217254 0.803088 0.552046
0.334878 0.819479 0.561744
0.450279 0.835560 0.571253
0.554766 0.858852 0.573993
0.632491 0.858333 0.553053
0.749124 0.862769 0.546806
0.866433 0.861785 0.545901
0.936480 0.857691 0.577727
0.120861 0.875871 0.559687
0.230298 0.891118 0.568689
0.347923 0.907510 0.578387
0.463323 0.923591 0.587896
0.575476 0.939218 0.597129
0.644480 0.938909 0.572320
0.734778 0.938004 0.571414
0.870256 0.943334 0.563977
0.949307 0.942735 0.563342
0.039812 0.046116 0.618875
0.149779 0.044943 0.616299
0.267841 0.043579 0.613554
0.383671 0.042235 0.610823
0.475373 0.074863 0.574167
0.571467 0.073707 0.571678
0.679054 0.086644 0.583411
0.806731 0.102321 0.598598
0.897076 0.113414 0.609105
0.039610 0.153252 0.611257
0.145391 0.147964 0.628535
0.269773 0.146677 0.625837
0.391459 0.145490 0.623660
0.494318 0.173108 0.593343
0.595165 0.172427 0.592097
0.691744 0.196152 0.594295
0.819420 0.211829 0.610114
0.909766 0.222922 0.621438
0.027482 0.266641 0.615859
0.144099 0.270012 0.622833
0.273317 0.274359 0.626566
0.394807 0.273347 0.625068
0.505122 0.293479 0.603299
0.606069 0.292897 0.603014
0.715689 0.303580 0.613985
0.833063 0.329560 0.624772
0.923408 0.340653 0.636096
0.025459 0.385298 0.612248
0.132566 0.390547 0.629795
0.264317 0.392431 0.632058
0.393975 0.394684 0.633871
0.516381 0.393675 0.633279
0.620413 0.407434 0.618335
0.726386 0.421764 0.625730
0.846447 0.445057 0.639151
0.936792 0.456150 0.650476
0.023628 0.500738 0.611561
0.130705 0.512129 0.629138
0.262456 0.514014 0.631401
0.387324 0.515978 0.638005
0.514943 0.515307 0.638144
0.631257 0.521830 0.630189
0.737169 0.536221 0.637145
0.867404 0.549340 0.650217
0.950027 0.568385 0.664297
0.021940 0.612706 0.610982
0.128935 0.629997 0.628535
0.260677 0.631873 0.630790
0.385579 0.638054 0.637317
0.510658 0.640355 0.639977
0.637609 0.637234 0.636984
0.750558 0.644986 0.644776
0.878650 0.660646 0.660498
0.963973 0.677160 0.676946
0.025704 0.727225 0.615826
0.145346 0.731990 0.620845
0.262046 0.749306 0.632429
0.391687 0.751146 0.634375
0.538839 0.731774 0.648763
0.647602 0.746864 0.652459
0.750289 0.747868 0.643166
0.871058 0.765105 0.666308
0.954129 0.781555 0.685110
0.031252 0.863686 0.620889
0.216826 0.802797 0.643397
0.334451 0.819188 0.653095
0.449851 0.835269 0.662604
0.554331 0.858568 0.670179
0.665490 0.871262 0.676355
0.747058 0.870634 0.661818
0.877747 0.873259 0.657233
0.953545 0.874884 0.683307
0.120434 0.875580 0.651038
0.229871 0.890827 0.660040
0.347496 0.907219 0.669738
0.462896 0.923300 0.679247
0.575048 0.938927 0.688480
0.683756 0.954072 0.697420
0.756382 0.953630 0.678664
0.884118 0.957342 0.672845
0.963126 0.956700 0.672168
0.046977 0.053322 0.730640
0.156967 0.052172 0.728086
0.275029 0.050808 0.725342
0.390859 0.049463 0.722610
0.488888 0.088381 0.679664
0.584815 0.087059 0.677009
0.678501 0.086365 0.675382
0.806178 0.102042 0.690569
0.896523 0.113135 0.701076
0.046775 0.160458 0.723022
0.164576 0.167120 0.728279
0.282757 0.165875 0.725654
0.398122 0.164763 0.723854
0.510162 0.163713 0.722205
0.597494 0.196166 0.687103
0.691191 0.195873 0.686358
0.818867 0.211550 0.702362
0.909213 0.222643 0.713687
0.032363 0.271847 0.730088
0.163051 0.282981 0.722990
0.277535 0.278904 0.741458
0.399054 0.277921 0.740321
0.517105 0.276929 0.739677
0.616636 0.303753 0.711267
0.715129 0.303308 0.711111
0.832510 0.329281 0.717020
0.922855 0.340374 0.728345
0.030357 0.390520 0.726821
0.149895 0.395301 0.731937
0.275621 0.399136 0.740225
0.402429 0.403441 0.744888
0.520524 0.402494 0.744288
0.627456 0.422060 0.723135
0.725825 0.421492 0.722856
0.845893 0.444778 0.731400
0.936239 0.455871 0.742725
0.028526 0.505960 0.726135
0.148064 0.510741 0.731251
0.264468 0.516367 0.748861
0.393719 0.518215 0.751081
0.523192 0.523861 0.749366
0.638274 0.522885 0.748809
0.736644 0.535914 0.734685
0.866843 0.549068 0.747343
0.949610 0.568106 0.756455
0.026752 0.617842 0.725469
0.146290 0.622623 0.730585
0.262665 0.634201 0.748224
0.391916 0.636050 0.750445
0.516999 0.637861 0.753156
0.638625 0.638463 0.755483
0.750141 0.644706 0.747606
0.878225 0.660375 0.757533
0.963555 0.676881 0.769104
0.025126 0.726971 0.724923
0.144903 0.731736 0.729851
0.261595 0.749061 0.747199
0.391236 0.750901 0.749145
0.516681 0.753235 0.751572
0.635862 0.757907 0.756311
0.758360 0.756110 0.754610
0.889383 0.768840 0.767418
0.977179 0.782881 0.781407
0.030809 0.863432 0.729896
0.150729 0.868197 0.734729
0.279624 0.873319 0.739946
0.406080 0.878344 0.745058
0.553911 0.858292 0.763908
0.665070 0.870985 0.770083
0.773403 0.883354 0.776095
0.888774 0.884441 0.765722
0.970179 0.897527 0.786189
0.035324 0.959994 0.733086
0.155243 0.964758 0.737920
0.284138 0.969880 0.743136
0.462483 0.923016 0.768264
0.574635 0.938643 0.777497
0.683343 0.953788 0.786437
0.789286 0.968547 0.795143
0.897629 0.970992 0.778932
0.976596 0.970309 0.778215
0.055484 0.061930 0.863953
0.165501 0.060807 0.861426
0.283563 0.059443 0.858681
0.399393 0.058098 0.855950
0.511965 0.056782 0.853238
0.600893 0.103192 0.802850
0.693930 0.102120 0.801116
0.805518 0.101710 0.800215
0.895864 0.112803 0.810722
0.055282 0.169067 0.856335
0.173084 0.175728 0.861593
0.291177 0.174567 0.859223
0.406475 0.173488 0.857555
0.518516 0.172438 0.855906
0.613390 0.212390 0.813305
0.706404 0.211413 0.812155
0.818208 0.211217 0.812286
0.908553 0.222311 0.823611
0.054108 0.284752 0.850344
0.171378 0.291680 0.856664
0.297460 0.299132 0.863534
0.412934 0.298229 0.862800
0.525041 0.297246 0.862147
0.633693 0.296293 0.861514
0.720199 0.329296 0.826965
0.831851 0.328949 0.826944
0.922196 0.340042 0.838269
0.036194 0.396743 0.863347
0.155731 0.401524 0.868463
0.295586 0.413296 0.862622
0.419340 0.420673 0.870339
0.531544 0.419786 0.869782
0.640196 0.418834 0.869149
0.733732 0.444943 0.841494
0.845234 0.444445 0.841324
0.935580 0.455539 0.852649
0.034363 0.512183 0.862660
0.153901 0.516964 0.867776
0.282415 0.522104 0.873276
0.417532 0.531625 0.869630
0.528861 0.529917 0.886059
0.643319 0.529001 0.885480
0.754811 0.528065 0.884872
0.866278 0.548744 0.863011
0.949086 0.567774 0.866289
0.032589 0.624065 0.861995
0.152126 0.628846 0.867111
0.280640 0.633986 0.872611
0.406715 0.639029 0.878007
0.527327 0.643173 0.885236
0.647154 0.647228 0.889361
0.759076 0.646322 0.888518
0.877693 0.660051 0.873178
0.963032 0.676549 0.878938
0.030860 0.733092 0.861346
0.150790 0.737873 0.866201
0.279702 0.743013 0.871435
0.406176 0.748056 0.876565
0.519744 0.755477 0.890888
0.641872 0.757218 0.892713
0.763539 0.761544 0.891839
0.888850 0.768516 0.883064
0.976656 0.782548 0.891241
0.030256 0.863130 0.859806
0.150175 0.867894 0.864639
0.279070 0.873016 0.869856
0.405526 0.878041 0.874968
0.519016 0.892331 0.889280
0.641136 0.894063 0.891097
0.760149 0.895752 0.892861
0.901889 0.897764 0.895014
0.985849 0.915642 0.912818
0.034770 0.959691 0.862996
0.154690 0.964456 0.867829
0.283584 0.969578 0.873046
0.410040 0.974603 0.878158
0.532936 0.979486 0.883119
0.652056 0.984218 0.887918
0.788768 0.968209 0.901233
0.921387 0.979342 0.917124
0.986006 0.979949 0.911212
0.061550 0.067988 0.958083
0.171586 0.066884 0.955574
0.289648 0.065520 0.952830
0.405478 0.064175 0.950099
0.518050 0.062859 0.947386
0.627065 0.061625 0.944897
0.705167 0.113588 0.890325
0.815959 0.112381 0.888628
0.895397 0.112568 0.888228
0.061348 0.175125 0.950464
0.179150 0.181787 0.955722
0.297081 0.180734 0.953732
0.412380 0.179656 0.952064
0.524420 0.178606 0.950415
0.633006 0.177586 0.948786
0.717682 0.222922 0.901683
0.828598 0.221838 0.900925
0.908087 0.222076 0.901394
0.059994 0.290901 0.944834
0.177264 0.297828 0.951155
0.303356 0.305291 0.958180
0.418861 0.304419 0.957648
0.530968 0.303436 0.956994
0.639620 0.302483 0.956361
0.731477 0.340806 0.916493
0.842392 0.339722 0.915736
0.921729 0.339807 0.916052
0.040324 0.401146 0.959954
0.175346 0.411948 0.949585
0.301495 0.419468 0.957451
0.425249 0.426845 0.965168
0.537471 0.425977 0.964630
0.646123 0.425024 0.963997
0.752002 0.424095 0.963380
0.855926 0.455368 0.930265
0.935113 0.455303 0.930432
0.038493 0.516586 0.959267
0.158031 0.521367 0.964383
0.286545 0.526508 0.969883
0.423440 0.537796 0.964459
0.543699 0.544965 0.971958
0.652443 0.544104 0.971416
0.758321 0.543175 0.970799
0.869314 0.567748 0.944226
0.948755 0.567538 0.943982
0.036719 0.628468 0.958602
0.156256 0.633250 0.963718
0.284770 0.638390 0.969218
0.410845 0.643432 0.974614
0.542329 0.652497 0.971016
0.659280 0.659445 0.978018
0.765626 0.658585 0.977203
0.883401 0.676665 0.957016
0.962700 0.676314 0.956631
0.035119 0.737495 0.957867
0.155055 0.742276 0.962717
0.283968 0.747416 0.967952
0.410441 0.752459 0.973082
0.533354 0.757359 0.978060
0.652491 0.762108 0.982876
0.772889 0.771003 0.983271
0.899499 0.769942 0.982316
0.976325 0.782313 0.968934
0.034399 0.867411 0.956200
0.154336 0.872192 0.961051
0.283248 0.877333 0.966285
0.409722 0.882375 0.971415
0.532635 0.887276 0.976393
0.651772 0.892025 0.981209
0.767878 0.896653 0.985896
0.915506 0.911464 0.982180
0.985572 0.915352 0.977168
0.034418 0.959477 0.954895
0.154338 0.964241 0.959729
0.283232 0.969364 0.964945
0.409688 0.974389 0.970058
0.532584 0.979272 0.975018
0.651704 0.984004 0.979818
0.767794 0.988616 0.984488
0.913928 0.986234 0.982273
1.000000 0.998000 0.994000
