Resources/LUTs/Fuji_Velvia_100_Linear.cube
# Fuji Velvia 100 - High Saturation Slide Film Emulation
# 33x33x33 3D LUT for Linear Colorspace
# Characteristics: Vivid colors, high contrast, punchy reds/greens/blues
# Film Type: E-6 Reversal (Slide Film)
#
# Created for Film Emulation Pro Filters
TITLE "Fuji Velvia 100 Linear"
LUT_3D_SIZE 5
DOMAIN_MIN 0.0 0.0 0.0
DOMAIN_MAX 1.0 1.0 1.0
0.000000 0.000000 0.000000
0.299217 0.002776 0.000000
0.701806 0.004231 0.000000
1.000000 0.005421 0.000000
1.000000 0.005424 0.000000
0.005148 0.250878 0.000000
0.299217 0.250878 0.000000
0.701806 0.250878 0.000000
1.000000 0.292305 0.000000
1.000000 0.292323 0.000000
0.008915 0.600665 0.000000
0.299217 0.600665 0.000000
0.701806 0.600665 0.000000
1.000000 0.600665 0.000000
1.000000 0.600665 0.000000
0.012178 0.943391 0.000000
0.299217 0.943391 0.000000
0.701806 0.943391 0.000000
1.000000 0.943391 0.000000
1.000000 0.943391 0.000000
0.012186 0.944288 0.000000
0.299217 0.944288 0.000000
0.701806 0.944288 0.000000
1.000000 0.944288 0.000000
1.000000 0.944288 0.000000
0.001812 0.000000 0.252897
0.299217 0.000000 0.252897
0.701806 0.000000 0.252897
1.000000 0.000000 0.252897
1.000000 0.000000 0.252897
0.000000 0.250878 0.252897
0.299217 0.250878 0.252897
0.848342 0.194072 0.186115
1.000000 0.281022 0.252482
1.000000 0.281495 0.252897
0.000000 0.600665 0.252897
0.227577 0.753583 0.175234
0.793179 0.680493 0.209029
1.000000 0.630743 0.252482
1.000000 0.630636 0.252897
0.000000 0.943391 0.252897
0.356482 0.944288 0.252482
0.701957 0.944288 0.252482
1.000000 0.944288 0.252482
1.000000 0.943391 0.252897
0.000000 0.944288 0.252897
0.357071 0.944288 0.252897
0.701806 0.944288 0.252897
1.000000 0.944288 0.252897
1.000000 0.944288 0.252897
0.002688 0.000000 0.602181
0.299217 0.000000 0.602181
0.701806 0.000000 0.602181
1.000000 0.000000 0.602181
1.000000 0.000000 0.602181
0.000000 0.250878 0.602181
0.228040 0.184264 0.729710
0.806767 0.201249 0.693515
1.000000 0.250464 0.602312
1.000000 0.250878 0.602181
0.000000 0.600665 0.602181
0.227696 0.716494 0.717526
0.701806 0.600665 0.602181
1.000000 0.620045 0.601494
1.000000 0.620794 0.602181
0.000000 0.943391 0.602181
0.298737 0.944288 0.602312
0.737999 0.944288 0.601494
1.000000 0.944288 0.601494
1.000000 0.943391 0.602181
0.000000 0.944288 0.602181
0.299217 0.944288 0.602181
0.738899 0.944288 0.602181
1.000000 0.944288 0.602181
1.000000 0.944288 0.602181
0.003288 0.000000 0.943177
0.347182 0.000000 0.943177
0.701806 0.000000 0.943177
1.000000 0.000000 0.943177
1.000000 0.000000 0.943177
0.000000 0.189883 0.943177
0.319695 0.250464 0.944068
0.736250 0.250464 0.944068
1.000000 0.250464 0.944068
1.000000 0.250878 0.943177
0.000000 0.600665 0.943177
0.298737 0.552762 0.944068
0.714755 0.599976 0.944068
1.000000 0.599976 0.944068
1.000000 0.600665 0.943177
0.000000 0.943391 0.943177
0.298737 0.944288 0.944068
0.701016 0.944288 0.944068
1.000000 0.911813 0.911792
1.000000 0.884766 0.880766
0.000000 0.944288 0.943177
0.299217 0.944288 0.943177
0.701806 0.944288 0.943177
1.000000 0.944288 0.880766
1.000000 0.942521 0.882455
0.003289 0.000000 0.944068
0.347203 0.000000 0.944068
0.701806 0.000000 0.944068
1.000000 0.000000 0.944068
1.000000 0.000000 0.944068
0.000000 0.189859 0.944068
0.320214 0.250878 0.944068
0.736127 0.250878 0.944068
1.000000 0.250878 0.944068
1.000000 0.250878 0.944068
0.000000 0.600665 0.944068
0.299217 0.552593 0.944068
0.715585 0.600665 0.944068
1.000000 0.600665 0.944068
1.000000 0.600665 0.944068
0.000000 0.943391 0.944068
0.299217 0.943391 0.944068
0.701806 0.943391 0.944068
1.000000 0.880601 0.944068
1.000000 0.881207 0.943442
0.000000 0.944288 0.944068
0.299217 0.944288 0.944068
0.701806 0.944288 0.944068
1.000000 0.944288 0.944068
1.000000 0.912428 0.912404
