Resources/LUTs/Fuji_Eterna_linear.cube
TITLE "Fuji_Eterna_Cinema_v2_Improved"
LUT_3D_SIZE 33
DOMAIN_MIN 0.0 0.0 0.0
DOMAIN_MAX 1.0 1.0 1.0
0.023259 0.057192 0.063470
0.071220 0.059615 0.065483
0.077335 0.059926 0.065742
0.087173 0.060426 0.066160
0.100559 0.061107 0.066730
0.117336 0.061964 0.067449
0.137366 0.062991 0.068312
0.160514 0.064182 0.069317
0.186654 0.065533 0.070461
0.215663 0.067040 0.071743
0.247422 0.068700 0.073162
0.276328 0.070220 0.074467
0.295109 0.071212 0.075322
0.313879 0.072208 0.076183
0.332638 0.073206 0.077049
0.351386 0.074208 0.077920
0.370123 0.075214 0.078798
0.388848 0.076223 0.079681
0.407562 0.077235 0.080570
0.426263 0.078251 0.081465
0.444953 0.079271 0.082366
0.463630 0.080294 0.083273
0.482294 0.081321 0.084186
0.524373 0.083654 0.086273
0.579269 0.086736 0.089053
0.626408 0.089418 0.091497
0.666030 0.091703 0.093597
0.698398 0.093590 0.095345
0.723802 0.095086 0.096740
0.742574 0.096200 0.097784
0.755106 0.096949 0.098489
0.761911 0.097357 0.098874
0.804154 0.099917 0.101306
0.037280 0.124051 0.067499
0.087897 0.110771 0.072476
0.093984 0.111090 0.072748
0.103779 0.111603 0.073188
0.117105 0.112302 0.073788
0.133808 0.113182 0.074544
0.153746 0.114236 0.075453
0.176787 0.115459 0.076511
0.202804 0.116847 0.077717
0.231673 0.118396 0.079069
0.263274 0.120104 0.080567
0.292032 0.121668 0.081946
0.310715 0.122689 0.082850
0.329385 0.123715 0.083760
0.348043 0.124744 0.084678
0.366687 0.125777 0.085601
0.385317 0.126814 0.086532
0.403934 0.127856 0.087469
0.422537 0.128902 0.088413
0.441125 0.129952 0.089365
0.459697 0.131006 0.090324
0.478255 0.132066 0.091291
0.496796 0.133130 0.092267
0.538582 0.135550 0.094499
0.593060 0.138757 0.097489
0.639791 0.141562 0.100137
0.679020 0.143964 0.102433
0.711010 0.145965 0.104370
0.736043 0.147573 0.105951
0.785405 0.143754 0.094567
0.798079 0.144471 0.095284
0.804964 0.144861 0.095674
0.847789 0.147283 0.098096
0.039018 0.130730 0.068038
0.089896 0.132373 0.069317
0.096056 0.117633 0.073668
0.105846 0.118148 0.074111
0.119163 0.118850 0.074715
0.135856 0.119732 0.075476
0.155781 0.120790 0.076391
0.178808 0.122018 0.077457
0.204807 0.123411 0.078671
0.233657 0.124966 0.080033
0.265237 0.126680 0.081541
0.293974 0.128250 0.082931
0.312643 0.129276 0.083842
0.331299 0.130305 0.084759
0.349942 0.131339 0.085684
0.368572 0.132376 0.086615
0.387187 0.133418 0.087553
0.405789 0.134464 0.088498
0.424375 0.135515 0.089450
0.442947 0.136570 0.090410
0.461502 0.137629 0.091378
0.480042 0.138694 0.092354
0.498565 0.139764 0.093338
0.540307 0.142197 0.095592
0.594719 0.145424 0.098615
0.641382 0.148250 0.101297
0.680537 0.150674 0.103631
0.712434 0.152703 0.105614
0.767588 0.149517 0.094642
0.786552 0.150590 0.095715
0.799226 0.151307 0.096432
0.806112 0.151697 0.096821
0.848937 0.154119 0.099244
0.041791 0.141486 0.068917
0.092623 0.143143 0.070220
0.099103 0.143355 0.070388
0.109144 0.128688 0.075609
0.122449 0.129394 0.076220
0.139124 0.130282 0.076990
0.159029 0.131346 0.077915
0.182032 0.132581 0.078993
0.208003 0.133982 0.080221
0.236821 0.135547 0.081599
0.268364 0.137272 0.083125
0.297068 0.138852 0.084531
0.315714 0.139885 0.085454
0.334347 0.140921 0.086383
0.352966 0.141962 0.087320
0.371571 0.143007 0.088263
0.390161 0.144056 0.089213
0.408736 0.145110 0.090171
0.427296 0.146169 0.091137
0.445840 0.147232 0.092111
0.464367 0.148300 0.093093
0.482876 0.149374 0.094084
0.501368 0.150453 0.095084
0.543035 0.152910 0.097376
0.597330 0.156171 0.100457
0.643866 0.159035 0.103203
0.682861 0.161507 0.105616
0.743804 0.159068 0.095039
0.769435 0.160518 0.096489
0.788399 0.161591 0.097561
0.801073 0.162308 0.098278
0.807958 0.162698 0.098668
0.850784 0.165120 0.101091
0.045514 0.156140 0.070140
0.096281 0.157815 0.071475
0.102753 0.158031 0.071647
0.113166 0.158378 0.071927
0.126866 0.143761 0.078295
0.143517 0.144656 0.079077
0.163394 0.145728 0.080016
0.186362 0.146973 0.081111
0.212294 0.148387 0.082360
0.241066 0.149965 0.083760
0.272558 0.151705 0.085312
0.301213 0.153300 0.086743
0.319827 0.154343 0.087682
0.338426 0.155389 0.088628
0.357010 0.156440 0.089581
0.375580 0.157496 0.090542
0.394133 0.158556 0.091511
0.412671 0.159622 0.092488
0.431191 0.160692 0.093474
0.449694 0.161768 0.094468
0.468178 0.162849 0.095471
0.486644 0.163936 0.096484
0.505088 0.165029 0.097508
0.546639 0.167520 0.099858
0.600746 0.170838 0.103033
0.647030 0.173778 0.105905
0.713714 0.172195 0.095707
0.746317 0.174040 0.097552
0.771948 0.175490 0.099002
0.790912 0.176563 0.100074
0.803586 0.177280 0.100791
0.810472 0.177669 0.101181
0.853297 0.180092 0.103604
0.050096 0.174541 0.071717
0.100779 0.176241 0.073093
0.107240 0.176460 0.073272
0.117635 0.176813 0.073560
0.131776 0.177294 0.073955
0.148933 0.162708 0.081741
0.168771 0.163792 0.082699
0.191694 0.165051 0.083817
0.217573 0.166480 0.085091
0.246285 0.168076 0.086522
0.277708 0.169837 0.088109
0.306298 0.171452 0.089572
0.324867 0.172507 0.090533
0.343421 0.173568 0.091502
0.361959 0.174633 0.092479
0.380479 0.175703 0.093464
0.398982 0.176779 0.094458
0.417467 0.177860 0.095462
0.435932 0.178947 0.096475
0.454377 0.180040 0.097498
0.472801 0.181139 0.098532
0.491201 0.182245 0.099577
0.509576 0.183359 0.100635
0.550944 0.185906 0.103077
0.629730 0.186040 0.093929
0.677028 0.188715 0.096605
0.716865 0.190969 0.098859
0.749469 0.192813 0.100703
0.775099 0.194263 0.102153
0.794063 0.195336 0.103226
0.806737 0.196053 0.103943
0.813623 0.196443 0.104332
0.856448 0.198866 0.106755
0.055438 0.196557 0.073665
0.106014 0.198291 0.075095
0.112460 0.198513 0.075281
0.122832 0.198873 0.075580
0.136942 0.199364 0.075991
0.154626 0.199982 0.076510
0.175046 0.185411 0.085978
0.197911 0.186688 0.087124
0.223722 0.188137 0.088433
0.252355 0.189757 0.089903
0.283689 0.191545 0.091534
0.312192 0.193186 0.093041
0.330702 0.194259 0.094031
0.349195 0.195337 0.095031
0.367669 0.196422 0.096039
0.386123 0.197512 0.097058
0.404555 0.198609 0.098087
0.422966 0.199712 0.099128
0.441352 0.200823 0.100181
0.459712 0.201941 0.101246
0.478042 0.203068 0.102327
0.496339 0.204206 0.103424
0.514594 0.205356 0.104542
0.578533 0.205353 0.094584
0.633494 0.208463 0.097693
0.680792 0.211138 0.100369
0.720629 0.213392 0.102623
0.753233 0.215237 0.104467
0.778863 0.216687 0.105917
0.797827 0.217759 0.106990
0.810501 0.218476 0.107707
0.817387 0.218866 0.108096
0.860212 0.221289 0.110519
0.061424 0.222075 0.076014
0.111866 0.223848 0.077511
0.118295 0.224076 0.077705
0.128638 0.224444 0.078019
0.142708 0.224947 0.078450
0.160341 0.225580 0.078995
0.181387 0.226342 0.079653
0.204874 0.211776 0.091062
0.230597 0.213252 0.092414
0.259128 0.214902 0.093936
0.290342 0.216726 0.095627
0.318729 0.218401 0.097192
0.337159 0.219499 0.098222
0.355566 0.220603 0.099264
0.373949 0.221715 0.100319
0.392305 0.222834 0.101386
0.410631 0.223963 0.102469
0.428923 0.225102 0.103569
0.447173 0.226253 0.104689
0.465361 0.227423 0.105841
0.503582 0.226797 0.094450
0.522210 0.227850 0.095504
0.540839 0.228904 0.096558
0.582886 0.231283 0.098937
0.637846 0.234392 0.102046
0.685144 0.237068 0.104721
0.724981 0.239322 0.106975
0.757585 0.241166 0.108820
0.783216 0.242616 0.110270
0.802180 0.243689 0.111342
0.814854 0.244406 0.112059
0.821739 0.244795 0.112449
0.864565 0.247218 0.114872
0.067920 0.250990 0.078803
0.118192 0.252814 0.080384
0.124598 0.253049 0.080590
0.134905 0.253428 0.080922
0.148924 0.253946 0.081378
0.166491 0.254599 0.081956
0.187456 0.255385 0.082655
0.211672 0.256301 0.083476
0.238016 0.241736 0.097089
0.266406 0.243429 0.098680
0.297452 0.245303 0.100456
0.325666 0.247030 0.102107
0.343970 0.248166 0.103200
0.362235 0.249313 0.104314
0.380448 0.250475 0.105453
0.415358 0.250828 0.094099
0.433986 0.251882 0.095153
0.452615 0.252935 0.096207
0.471243 0.253989 0.097261
0.489872 0.255043 0.098315
0.508500 0.256097 0.099369
0.527129 0.257151 0.100422
0.545757 0.258205 0.101476
0.587804 0.260583 0.103855
0.642765 0.263693 0.106964
0.690063 0.266368 0.109640
0.729900 0.268622 0.111894
0.762504 0.270466 0.113738
0.788134 0.271916 0.115188
0.807098 0.272989 0.116261
0.819772 0.273706 0.116978
0.826658 0.274096 0.117367
0.869483 0.276518 0.119790
0.074754 0.283217 0.082089
0.124805 0.285108 0.083782
0.131181 0.285352 0.084002
0.141438 0.285745 0.084359
0.155389 0.286284 0.084850
0.172866 0.286964 0.085472
0.193717 0.287784 0.086228
0.217792 0.288743 0.087120
0.244944 0.289842 0.088155
0.273858 0.275301 0.104265
0.317655 0.277533 0.093726
0.346306 0.279154 0.095346
0.364934 0.280208 0.096400
0.383563 0.281262 0.097454
0.402191 0.282315 0.098508
0.420820 0.283369 0.099562
0.439449 0.284423 0.100616
0.458077 0.285477 0.101669
0.476706 0.286531 0.102723
0.495334 0.287585 0.103777
0.513963 0.288638 0.104831
0.532591 0.289692 0.105885
0.551220 0.290746 0.106939
0.593266 0.293125 0.109317
0.648227 0.296234 0.112427
0.695525 0.298910 0.115102
0.735362 0.301163 0.117356
0.767966 0.303008 0.119200
0.793597 0.304458 0.120650
0.812561 0.305531 0.121723
0.825235 0.306248 0.122440
0.832120 0.306637 0.122830
0.874945 0.309060 0.125252
0.081685 0.318698 0.085969
0.131413 0.320685 0.087824
0.137743 0.320943 0.088067
0.147923 0.321360 0.088463
0.161761 0.321933 0.089009
0.179081 0.322660 0.089711
0.199698 0.323550 0.090584
0.223440 0.324608 0.091642
0.250268 0.325805 0.092838
0.280065 0.327133 0.094167
0.311360 0.312610 0.113015
0.352291 0.314811 0.101332
0.370920 0.315865 0.102386
0.389548 0.316919 0.103440
0.408177 0.317973 0.104493
0.426805 0.319027 0.105547
0.445434 0.320081 0.106601
0.464063 0.321134 0.107655
0.482691 0.322188 0.108709
0.501320 0.323242 0.109763
0.519948 0.324296 0.110817
0.538577 0.325350 0.111870
0.557205 0.326404 0.112924
0.599252 0.328782 0.115303
0.654213 0.331892 0.118412
0.701511 0.334567 0.121088
0.741348 0.336821 0.123342
0.773952 0.338665 0.125186
0.799582 0.340115 0.126636
0.818546 0.341188 0.127709
0.831220 0.341905 0.128426
0.838106 0.342295 0.128815
0.880931 0.344717 0.131238
0.087274 0.351237 0.089867
0.136397 0.353406 0.092023
0.142656 0.353685 0.092303
0.152729 0.354134 0.092752
0.166438 0.354745 0.093363
0.183627 0.355512 0.094129
0.204159 0.356427 0.095045
0.227901 0.357486 0.096103
0.254729 0.358682 0.097300
0.284526 0.360011 0.098628
0.317175 0.361466 0.100084
0.345389 0.346639 0.121053
0.376372 0.348348 0.107838
0.395001 0.349402 0.108892
0.413630 0.350456 0.109946
0.432258 0.351509 0.111000
0.450887 0.352563 0.112054
0.469515 0.353617 0.113108
0.488144 0.354671 0.114161
0.506772 0.355725 0.115215
0.525401 0.356779 0.116269
0.544029 0.357832 0.117323
0.562658 0.358886 0.118377
0.604705 0.361265 0.120755
0.659665 0.364374 0.123865
0.706963 0.367050 0.126540
0.746800 0.369304 0.128794
0.779404 0.371148 0.130639
0.805035 0.372598 0.132089
0.823999 0.373671 0.133161
0.836673 0.374388 0.133878
0.843558 0.374777 0.134268
0.886384 0.377200 0.136691
0.090237 0.372595 0.092737
0.139298 0.374782 0.094924
0.145557 0.375062 0.095203
0.155630 0.375511 0.095652
0.169338 0.376122 0.096264
0.186528 0.376888 0.097030
0.207060 0.377804 0.097945
0.230802 0.378862 0.099004
0.257630 0.380059 0.100200
0.287426 0.381387 0.101529
0.320076 0.382843 0.102985
0.349818 0.384169 0.104311
0.367514 0.368764 0.126279
0.398546 0.370522 0.112437
0.417175 0.371575 0.113491
0.435803 0.372629 0.114545
0.454432 0.373683 0.115599
0.473060 0.374737 0.116653
0.491689 0.375791 0.117707
0.510317 0.376845 0.118761
0.528946 0.377899 0.119814
0.547574 0.378952 0.120868
0.566203 0.380006 0.121922
0.608250 0.382385 0.124301
0.663211 0.385494 0.127410
0.710508 0.388170 0.130086
0.750346 0.390423 0.132339
0.782950 0.392268 0.134184
0.808580 0.393718 0.135634
0.827544 0.394791 0.136707
0.840218 0.395508 0.137424
0.847104 0.395897 0.137813
0.889929 0.398320 0.140236
0.093137 0.393972 0.095637
0.142198 0.396159 0.097825
0.148457 0.396438 0.098104
0.158530 0.396887 0.098553
0.172239 0.397498 0.099164
0.189429 0.398265 0.099931
0.209960 0.399180 0.100846
0.233702 0.400239 0.101905
0.260531 0.401435 0.103101
0.290327 0.402764 0.104429
0.322976 0.404219 0.105885
0.352719 0.405546 0.107211
0.372057 0.406408 0.108074
0.389639 0.390889 0.131505
0.420720 0.392695 0.117036
0.439349 0.393749 0.118090
0.457977 0.394803 0.119144
0.476606 0.395857 0.120198
0.495234 0.396911 0.121252
0.513863 0.397965 0.122306
0.532491 0.399018 0.123360
0.551120 0.400072 0.124413
0.569748 0.401126 0.125467
0.611795 0.403505 0.127846
0.666756 0.406614 0.130955
0.714054 0.409290 0.133631
0.753891 0.411543 0.135885
0.786495 0.413388 0.137729
0.812125 0.414838 0.139179
0.831089 0.415911 0.140252
0.843763 0.416628 0.140969
0.850649 0.417017 0.141358
0.893474 0.419440 0.143781
0.096038 0.415348 0.098538
0.145099 0.417536 0.100725
0.151358 0.417815 0.101004
0.161431 0.418264 0.101454
0.175139 0.418875 0.102065
0.192329 0.419641 0.102831
0.212861 0.420557 0.103747
0.236603 0.421616 0.104805
0.263431 0.422812 0.106002
0.293228 0.424140 0.107330
0.325877 0.425596 0.108786
0.355619 0.426922 0.110112
0.374958 0.427784 0.110974
0.394296 0.428647 0.111836
0.411764 0.413014 0.136731
0.442894 0.414869 0.121636
0.461522 0.415923 0.122689
0.480151 0.416977 0.123743
0.498779 0.418031 0.124797
0.517408 0.419084 0.125851
0.536036 0.420138 0.126905
0.554665 0.421192 0.127959
0.573293 0.422246 0.129012
0.615340 0.424625 0.131391
0.670301 0.427734 0.134500
0.717599 0.430410 0.137176
0.757436 0.432663 0.139430
0.790040 0.434508 0.141274
0.815671 0.435958 0.142724
0.834634 0.437031 0.143797
0.847309 0.437748 0.144514
0.854194 0.438137 0.144904
0.897019 0.440560 0.147326
0.098938 0.436725 0.101438
0.147999 0.438912 0.103626
0.154259 0.439191 0.103905
0.164332 0.439640 0.104354
0.178040 0.440252 0.104965
0.195230 0.441018 0.105732
0.215761 0.441934 0.106647
0.239503 0.442992 0.107706
0.266332 0.444188 0.108902
0.296128 0.445517 0.110231
0.328778 0.446973 0.111686
0.358520 0.448299 0.113013
0.377858 0.449161 0.113875
0.397196 0.450023 0.114737
0.416535 0.450885 0.115599
0.433889 0.435139 0.141958
0.465067 0.437043 0.126235
0.483696 0.438097 0.127288
0.502325 0.439151 0.128342
0.520953 0.440204 0.129396
0.539582 0.441258 0.130450
0.558210 0.442312 0.131504
0.576839 0.443366 0.132558
0.618885 0.445745 0.134936
0.673846 0.448854 0.138046
0.721144 0.451530 0.140721
0.760981 0.453783 0.142975
0.793585 0.455628 0.144819
0.819216 0.457078 0.146269
0.838180 0.458150 0.147342
0.850854 0.458867 0.148059
0.857739 0.459257 0.148449
0.900564 0.461680 0.150871
0.101839 0.458101 0.104339
0.150900 0.460289 0.106527
0.157159 0.460568 0.106806
0.167232 0.461017 0.107255
0.180941 0.461628 0.107866
0.198131 0.462395 0.108633
0.218662 0.463310 0.109548
0.242404 0.464369 0.110607
0.269233 0.465565 0.111803
0.299029 0.466893 0.113131
0.331678 0.468349 0.114587
0.361421 0.469675 0.115913
0.380759 0.470538 0.116775
0.400097 0.471400 0.117638
0.419435 0.472262 0.118500
0.438773 0.473124 0.119362
0.456014 0.457264 0.147184
0.487241 0.459217 0.130834
0.505870 0.460270 0.131888
0.524498 0.461324 0.132941
0.543127 0.462378 0.133995
0.561755 0.463432 0.135049
0.580384 0.464486 0.136103
0.622431 0.466864 0.138482
0.677391 0.469974 0.141591
0.724689 0.472649 0.144267
0.764527 0.474903 0.146520
0.797130 0.476748 0.148365
0.822761 0.478198 0.149815
0.841725 0.479270 0.150887
0.854399 0.479987 0.151604
0.861285 0.480377 0.151994
0.904110 0.482800 0.154417
0.104740 0.479478 0.107240
0.153801 0.481665 0.109427
0.160060 0.481944 0.109706
0.170133 0.482394 0.110155
0.183841 0.483005 0.110767
0.201031 0.483771 0.111533
0.221563 0.484687 0.112449
0.245305 0.485745 0.113507
0.272133 0.486941 0.114703
0.301930 0.488270 0.116032
0.334579 0.489726 0.117488
0.364321 0.491052 0.118814
0.383659 0.491914 0.119676
0.402998 0.492776 0.120538
0.422336 0.493639 0.121401
0.441674 0.494501 0.122263
0.461012 0.495363 0.123125
0.478139 0.479389 0.152410
0.509415 0.481390 0.135433
0.528044 0.482444 0.136487
0.546672 0.483498 0.137540
0.565301 0.484552 0.138594
0.583929 0.485606 0.139648
0.625976 0.487984 0.142027
0.680937 0.491094 0.145136
0.728235 0.493769 0.147812
0.768072 0.496023 0.150065
0.800676 0.497867 0.151910
0.826306 0.499317 0.153360
0.845270 0.500390 0.154433
0.857944 0.501107 0.155150
0.864830 0.501497 0.155539
0.907655 0.503919 0.157962
0.107640 0.500854 0.110140
0.156701 0.503042 0.112328
0.162961 0.503321 0.112607
0.173034 0.503770 0.113056
0.186742 0.504381 0.113667
0.203932 0.505148 0.114434
0.224463 0.506063 0.115349
0.248205 0.507122 0.116408
0.275034 0.508318 0.117604
0.304830 0.509647 0.118933
0.337480 0.511102 0.120388
0.367222 0.512428 0.121714
0.386560 0.513291 0.122577
0.405898 0.514153 0.123439
0.425236 0.515015 0.124301
0.444575 0.515877 0.125163
0.463913 0.516740 0.126026
0.483251 0.517602 0.126888
0.500263 0.501513 0.157636
0.531589 0.503564 0.140032
0.550217 0.504618 0.141086
0.568846 0.505672 0.142140
0.587474 0.506726 0.143193
0.629521 0.509104 0.145572
0.684482 0.512213 0.148681
0.731780 0.514889 0.151357
0.771617 0.517143 0.153611
0.804221 0.518987 0.155455
0.829851 0.520437 0.156905
0.848815 0.521510 0.157978
0.861489 0.522227 0.158695
0.868375 0.522617 0.159084
0.911200 0.525039 0.161507
0.110541 0.522231 0.113041
0.159602 0.524418 0.115229
0.165861 0.524698 0.115508
0.175934 0.525147 0.115957
0.189643 0.525758 0.116568
0.206833 0.526524 0.117334
0.227364 0.527440 0.118250
0.251106 0.528498 0.119308
0.277935 0.529695 0.120505
0.307731 0.531023 0.121833
0.340380 0.532479 0.123289
0.370122 0.533805 0.124615
0.389461 0.534667 0.125477
0.408799 0.535530 0.126340
0.428137 0.536392 0.127202
0.447475 0.537254 0.128064
0.466813 0.538116 0.128926
0.486152 0.538979 0.129789
0.505490 0.539841 0.130651
0.522388 0.523638 0.162863
0.553762 0.525738 0.144631
0.572391 0.526792 0.145685
0.591020 0.527845 0.146739
0.633066 0.530224 0.149117
0.688027 0.533333 0.152226
0.735325 0.536009 0.154902
0.775162 0.538263 0.157156
0.807766 0.540107 0.159000
0.833397 0.541557 0.160450
0.852361 0.542630 0.161523
0.865035 0.543347 0.162240
0.871920 0.543737 0.162630
0.914745 0.546159 0.165052
0.113442 0.543608 0.115942
0.162503 0.545795 0.118129
0.168762 0.546074 0.118408
0.178835 0.546523 0.118857
0.192543 0.547134 0.119469
0.209733 0.547901 0.120235
0.230265 0.548816 0.121150
0.254007 0.549875 0.122209
0.280835 0.551071 0.123405
0.310631 0.552400 0.124734
0.343281 0.553856 0.126190
0.373023 0.555182 0.127516
0.392361 0.556044 0.128378
0.411700 0.556906 0.129240
0.431038 0.557768 0.130102
0.450376 0.558631 0.130965
0.469714 0.559493 0.131827
0.489052 0.560355 0.132689
0.508390 0.561217 0.133551
0.527729 0.562080 0.134414
0.544513 0.545763 0.168089
0.575936 0.547912 0.149230
0.594565 0.548965 0.150284
0.636612 0.551344 0.152662
0.691572 0.554453 0.155772
0.738870 0.557129 0.158447
0.778707 0.559383 0.160701
0.811311 0.561227 0.162546
0.836942 0.562677 0.163996
0.855906 0.563750 0.165068
0.868580 0.564467 0.165785
0.875465 0.564856 0.166175
0.918291 0.567279 0.168598
0.116342 0.564984 0.118842
0.165403 0.567172 0.121030
0.171662 0.567451 0.121309
0.181735 0.567900 0.121758
0.195444 0.568511 0.122369
0.212634 0.569278 0.123136
0.233165 0.570193 0.124051
0.256907 0.571252 0.125110
0.283736 0.572448 0.126306
0.313532 0.573776 0.127634
0.346181 0.575232 0.129090
0.375924 0.576558 0.130416
0.395262 0.577420 0.131279
0.414600 0.578283 0.132141
0.433938 0.579145 0.133003
0.453277 0.580007 0.133865
0.472615 0.580869 0.134728
0.491953 0.581732 0.135590
0.511291 0.582594 0.136452
0.530629 0.583456 0.137314
0.549967 0.584318 0.138177
0.566638 0.567888 0.173315
0.598110 0.570085 0.153829
0.640157 0.572464 0.156208
0.695118 0.575573 0.159317
0.742415 0.578249 0.161993
0.782253 0.580503 0.164246
0.814856 0.582347 0.166091
0.840487 0.583797 0.167541
0.859451 0.584870 0.168614
0.872125 0.585587 0.169331
0.879011 0.585976 0.169720
0.921836 0.588399 0.172143
0.119243 0.586361 0.121743
0.168304 0.588548 0.123930
0.174563 0.588827 0.124210
0.184636 0.589276 0.124659
0.198344 0.589888 0.125270
0.215534 0.590654 0.126036
0.236066 0.591570 0.126952
0.259808 0.592628 0.128010
0.286636 0.593824 0.129207
0.316433 0.595153 0.130535
0.349082 0.596609 0.131991
0.378824 0.597935 0.133317
0.398163 0.598797 0.134179
0.417501 0.599659 0.135041
0.436839 0.600522 0.135904
0.456177 0.601384 0.136766
0.475515 0.602246 0.137628
0.494854 0.603108 0.138490
0.514192 0.603970 0.139353
0.533530 0.604833 0.140215
0.552868 0.605695 0.141077
0.572206 0.606557 0.141939
0.588763 0.590013 0.178541
0.643702 0.593584 0.159753
0.698663 0.596693 0.162862
0.745961 0.599369 0.165538
0.785798 0.601622 0.167792
0.818402 0.603467 0.169636
0.844032 0.604917 0.171086
0.862996 0.605990 0.172159
0.875670 0.606707 0.172876
0.882556 0.607096 0.173265
0.925381 0.609519 0.175688
0.125790 0.634610 0.128290
0.174851 0.636798 0.130477
0.181110 0.637077 0.130757
0.191183 0.637526 0.131206
0.204892 0.638137 0.131817
0.222082 0.638904 0.132583
0.242613 0.639819 0.133499
0.266355 0.640878 0.134557
0.293184 0.642074 0.135754
0.322980 0.643402 0.137082
0.355629 0.644858 0.138538
0.385371 0.646184 0.139864
0.404710 0.647046 0.140726
0.424048 0.647909 0.141589
0.443386 0.648771 0.142451
0.462724 0.649633 0.143313
0.482062 0.650495 0.144175
0.501401 0.651358 0.145038
0.520739 0.652220 0.145900
0.540077 0.653082 0.146762
0.559415 0.653944 0.147624
0.578753 0.654807 0.148486
0.598092 0.655669 0.149349
0.638702 0.639952 0.190337
0.706665 0.644363 0.170864
0.753963 0.647039 0.173540
0.793800 0.649293 0.175793
0.826404 0.651137 0.177638
0.852034 0.652587 0.179088
0.870998 0.653660 0.180161
0.883672 0.654377 0.180878
0.890558 0.654766 0.181267
0.933383 0.657189 0.183690
0.134348 0.697679 0.136848
0.183409 0.699866 0.139035
0.189668 0.700145 0.139314
0.199741 0.700594 0.139764
0.213449 0.701206 0.140375
0.230639 0.701972 0.141141
0.251171 0.702888 0.142057
0.274913 0.703946 0.143115
0.301741 0.705142 0.144312
0.331538 0.706471 0.145640
0.364187 0.707927 0.147096
0.393929 0.709253 0.148422
0.413268 0.710115 0.149284
0.432606 0.710977 0.150146
0.451944 0.711840 0.151009
0.471282 0.712702 0.151871
0.490620 0.713564 0.152733
0.509958 0.714426 0.153595
0.529297 0.715288 0.154458
0.548635 0.716151 0.155320
0.567973 0.717013 0.156182
0.587311 0.717875 0.157044
0.606649 0.718737 0.157907
0.650298 0.720684 0.159853
0.703978 0.705228 0.205757
0.764422 0.709350 0.183999
0.804259 0.711604 0.186253
0.836863 0.713448 0.188098
0.862494 0.714898 0.189548
0.881459 0.715971 0.190620
0.894138 0.716690 0.191336
0.901027 0.717081 0.191725
0.943902 0.719518 0.194138
0.141713 0.751954 0.144213
0.190774 0.754141 0.146400
0.197033 0.754420 0.146679
0.207106 0.754870 0.147128
0.220814 0.755481 0.147740
0.238004 0.756247 0.148506
0.258536 0.757163 0.149421
0.282278 0.758221 0.150480
0.309106 0.759417 0.151676
0.338902 0.760746 0.153005
0.371552 0.762202 0.154461
0.401294 0.763528 0.155787
0.420632 0.764390 0.156649
0.439970 0.765252 0.157511
0.459309 0.766115 0.158373
0.478647 0.766977 0.159236
0.497985 0.767839 0.160098
0.517323 0.768701 0.160960
0.536661 0.769564 0.161822
0.556000 0.770426 0.162685
0.575338 0.771288 0.163547
0.594676 0.772150 0.164409
0.614014 0.773013 0.165271
0.657663 0.774959 0.167218
0.714717 0.777503 0.169761
0.760184 0.761413 0.219020
0.813356 0.765256 0.195235
0.846040 0.767124 0.197064
0.871750 0.768598 0.198498
0.890783 0.769691 0.199557
0.903507 0.770424 0.200264
0.910421 0.770822 0.200648
0.935054 0.773120 0.230439
0.147916 0.797668 0.150416
0.196977 0.799855 0.152603
0.203236 0.800134 0.152882
0.213309 0.800583 0.153331
0.227017 0.801195 0.153943
0.244207 0.801961 0.154709
0.264739 0.802877 0.155624
0.288481 0.803935 0.156683
0.315309 0.805131 0.157879
0.345105 0.806460 0.159208
0.377755 0.807916 0.160664
0.407497 0.809242 0.161990
0.426835 0.810104 0.162852
0.446173 0.810966 0.163714
0.465512 0.811829 0.164576
0.484850 0.812691 0.165439
0.504188 0.813553 0.166301
0.523526 0.814415 0.167163
0.542864 0.815278 0.168025
0.562203 0.816140 0.168888
0.581541 0.817002 0.169750
0.600885 0.817866 0.170611
0.620237 0.818732 0.171470
0.663945 0.820697 0.173405
0.721138 0.823282 0.175921
0.770412 0.825523 0.178075
0.808045 0.808891 0.230087
