Resources/LUTs/Fuji_Superia_400_Linear.cube
TITLE "Fuji Superia X-TRA 400 - Linear In/Out"
LUT_3D_SIZE 5
DOMAIN_MIN 0.0 0.0 0.0
DOMAIN_MAX 1.0 1.0 1.0
0.000000 0.005689 0.002738
0.341185 0.000000 0.000000
0.684970 0.000000 0.000000
1.000000 0.000000 0.000000
1.000000 0.000000 0.000000
0.000000 0.300027 0.145407
0.270626 0.288272 0.000000
0.638108 0.269757 0.000000
0.978143 0.256462 0.000000
1.000000 0.245022 0.000000
0.000000 0.616797 0.104019
0.195072 0.605356 0.092599
0.560539 0.595066 0.000000
0.926031 0.576992 0.000000
1.000000 0.563331 0.000000
0.000000 0.935105 0.063738
0.154791 0.923665 0.052318
0.484950 0.912225 0.040898
0.850417 0.901934 0.000000
1.000000 0.884227 0.000000
0.000000 1.000000 0.023457
0.114511 1.000000 0.012037
0.444670 1.000000 0.000617
0.774828 1.000000 0.000000
1.000000 1.000000 0.000000
0.000000 0.002331 0.332548
0.302044 0.000000 0.315426
0.673347 0.000000 0.298970
1.000000 0.000000 0.284719
1.000000 0.000000 0.272210
0.000000 0.296561 0.278784
0.266782 0.284312 0.266782
0.634230 0.265871 0.254843
0.974265 0.252577 0.243286
1.000000 0.241137 0.231866
0.000000 0.612912 0.441719
0.191194 0.601471 0.430299
0.556660 0.591180 0.215081
0.922153 0.573107 0.203170
1.000000 0.559445 0.191585
0.000000 0.931220 0.401438
0.150913 0.919780 0.390018
0.481072 0.908340 0.378598
0.846538 0.898049 0.163381
1.000000 0.880342 0.151496
0.000000 1.000000 0.361158
0.110632 1.000000 0.349738
0.440791 1.000000 0.338318
0.770950 1.000000 0.326898
1.000000 1.000000 0.111680
0.000000 0.000000 0.667636
0.306917 0.000000 0.650545
0.631702 0.000000 0.636080
1.000000 0.000000 0.621992
1.000000 0.000000 0.609847
0.000000 0.296258 0.615344
0.270212 0.284495 0.603690
0.593063 0.268987 0.593063
0.962526 0.250168 0.581096
1.000000 0.237252 0.569566
0.000000 0.610176 0.575622
0.222623 0.598736 0.564202
0.552782 0.587295 0.552782
0.918276 0.569221 0.540870
1.000000 0.555560 0.529286
0.000000 0.927335 0.739139
0.147035 0.915895 0.727719
0.477194 0.904454 0.716299
0.842660 0.894163 0.501081
1.000000 0.876457 0.489197
0.000000 1.000000 0.698858
0.106754 1.000000 0.687438
0.436913 1.000000 0.676018
0.767072 1.000000 0.664598
1.000000 1.000000 0.449380
0.000000 0.000000 1.000000
0.305307 0.000000 0.986574
0.636073 0.000000 0.972035
0.959473 0.000000 0.959877
1.000000 0.000000 0.947657
0.000000 0.293194 0.952648
0.268270 0.281687 0.941180
0.596888 0.269389 0.929928
0.919344 0.253661 0.919344
1.000000 0.234842 0.907377
0.000000 0.610145 0.912571
0.225670 0.598705 0.901151
0.555829 0.587265 0.889731
0.879063 0.571970 0.879063
1.000000 0.553151 0.867096
0.000000 0.924599 0.873042
0.178464 0.913159 0.861622
0.508623 0.901719 0.850202
0.838782 0.890278 0.838782
1.000000 0.872571 0.826897
0.000000 1.000000 1.000000
0.102876 1.000000 1.000000
0.433035 1.000000 1.000000
0.763194 1.000000 1.000000
1.000000 1.000000 0.787081
0.000000 0.000000 1.000000
0.302263 0.000000 1.000000
0.634122 0.000000 1.000000
0.963416 0.000000 1.000000
1.000000 0.000000 1.000000
0.000000 0.289242 1.000000
0.264392 0.277802 1.000000
0.594551 0.266361 1.000000
0.923169 0.254064 1.000000
1.000000 0.238336 1.000000
0.000000 0.607551 1.000000
0.224111 0.596110 1.000000
0.554270 0.584670 1.000000
0.882888 0.572372 1.000000
1.000000 0.556644 1.000000
0.000000 0.924355 1.000000
0.181127 0.912915 1.000000
0.511286 0.901475 1.000000
0.841446 0.890034 1.000000
1.000000 0.874953 1.000000
0.000000 1.000000 1.000000
0.134305 1.000000 1.000000
0.464464 1.000000 1.000000
0.794623 1.000000 1.000000
1.000000 1.000000 1.000000
