Resources/LUTs/Fuji_Superia_400_Linear.cube
TITLE "Fuji Superia X-TRA 400 - Linear In/Out"
LUT_3D_SIZE 9
DOMAIN_MIN 0.0 0.0 0.0
DOMAIN_MAX 1.0 1.0 1.0
0.000000 0.005689 0.002738
0.153561 0.000000 0.000000
0.341185 0.000000 0.000000
0.518400 0.000000 0.000000
0.684970 0.000000 0.000000
0.851244 0.000000 0.000000
1.000000 0.000000 0.000000
1.000000 0.000000 0.000000
1.000000 0.000000 0.000000
0.000000 0.149080 0.076112
0.121029 0.140889 0.000000
0.307038 0.129473 0.000000
0.492875 0.118239 0.000000
0.667737 0.109596 0.000000
0.833116 0.103221 0.000000
0.998283 0.097308 0.000000
1.000000 0.091588 0.000000
1.000000 0.085868 0.000000
0.000000 0.300027 0.145407
0.085779 0.293831 0.048034
0.270626 0.288272 0.000000
0.453375 0.279166 0.000000
0.638108 0.269757 0.000000
0.813064 0.262182 0.000000
0.978143 0.256462 0.000000
1.000000 0.250742 0.000000
1.000000 0.245022 0.000000
0.000000 0.457642 0.124159
0.050133 0.451922 0.118449
0.230175 0.446689 0.026378
0.415600 0.441631 0.000000
0.597337 0.432784 0.000000
0.782069 0.423374 0.000000
0.958003 0.415617 0.000000
1.000000 0.409896 0.000000
1.000000 0.404176 0.000000
0.000000 0.616797 0.104019
0.029993 0.611077 0.098309
0.195072 0.605356 0.092599
0.374236 0.600095 0.005596
0.560539 0.595066 0.000000
0.741298 0.586402 0.000000
0.926031 0.576992 0.000000
1.000000 0.569051 0.000000
1.000000 0.563331 0.000000
0.000000 0.775951 0.083878
0.009852 0.770231 0.078168
0.174932 0.764511 0.072458
0.340011 0.758791 0.066748
0.518296 0.753500 0.000000
0.705478 0.748500 0.000000
0.885260 0.740019 0.000000
1.000000 0.730610 0.000000
1.000000 0.722485 0.000000
0.000000 0.935105 0.063738
0.000000 0.929385 0.058028
0.154791 0.923665 0.052318
0.319871 0.917945 0.046608
0.484950 0.912225 0.040898
0.662357 0.906906 0.000000
0.850417 0.901934 0.000000
1.000000 0.893637 0.000000
1.000000 0.884227 0.000000
0.000000 1.000000 0.043597
0.000000 1.000000 0.037887
0.134651 1.000000 0.032177
0.299730 1.000000 0.026467
0.464810 1.000000 0.020757
0.629889 1.000000 0.015047
0.806418 1.000000 0.000000
0.995356 1.000000 0.000000
1.000000 1.000000 0.000000
0.000000 1.000000 0.023457
0.000000 1.000000 0.017747
0.114511 1.000000 0.012037
0.279590 1.000000 0.006327
0.444670 1.000000 0.000617
0.609749 1.000000 0.000000
0.774828 1.000000 0.000000
0.950479 1.000000 0.000000
1.000000 1.000000 0.000000
0.000000 0.003935 0.165421
0.136440 0.000000 0.156392
0.320956 0.000000 0.147321
0.507882 0.000000 0.138663
0.683469 0.000000 0.130638
0.849644 0.000000 0.123202
1.000000 0.000000 0.116208
1.000000 0.000000 0.109633
1.000000 0.000000 0.103443
0.000000 0.146651 0.135331
0.121358 0.138128 0.127603
0.305516 0.126842 0.120079
0.491227 0.115815 0.112963
0.665926 0.107374 0.106405
0.831228 0.101167 0.100344
0.996344 0.095365 0.094576
1.000000 0.089645 0.088866
1.000000 0.083925 0.083156
0.000000 0.298202 0.222737
0.084012 0.291676 0.216305
0.268714 0.286271 0.097944
0.451436 0.277224 0.091976
0.636169 0.267814 0.085993
0.811124 0.260240 0.080145
0.976204 0.254520 0.074435
1.000000 0.248799 0.068725
1.000000 0.243079 0.063015
0.000000 0.455700 0.293009
0.048194 0.449980 0.287299
0.228236 0.444747 0.195226
0.413660 0.439689 0.072081
0.595398 0.430841 0.066140
0.780131 0.421432 0.060156
0.956063 0.413674 0.054295
1.000000 0.407954 0.048585
1.000000 0.402234 0.042875
0.000000 0.614854 0.272869
0.028054 0.609134 0.267159
0.193133 0.603414 0.261449
0.372297 0.598152 0.174444
0.558599 0.593123 0.046231
0.739360 0.584459 0.040303
0.924092 0.575049 0.034319
1.000000 0.567108 0.028445
1.000000 0.561388 0.022735
0.000000 0.774008 0.252729
0.007913 0.768288 0.247019
0.172993 0.762568 0.241309
0.338072 0.756848 0.235599
0.516358 0.751558 0.153662
0.703539 0.746557 0.020381
0.883321 0.738077 0.014466
1.000000 0.728667 0.008482
1.000000 0.720542 0.002594
0.000000 0.933163 0.232588
0.000000 0.927443 0.226878
0.152852 0.921722 0.221168
0.317932 0.916002 0.215458
0.483011 0.910282 0.209748
0.660419 0.904963 0.132880
0.848478 0.899991 0.000000
1.000000 0.891694 0.000000
1.000000 0.882285 0.000000
0.000000 1.000000 0.212448
0.000000 1.000000 0.206738
0.132712 1.000000 0.201028
0.297791 1.000000 0.195318
0.462871 1.000000 0.189608
0.627950 1.000000 0.183898
0.804480 1.000000 0.112098
0.993417 1.000000 0.000000
1.000000 1.000000 0.000000
0.000000 1.000000 0.192307
0.000000 1.000000 0.186597
0.112571 1.000000 0.180887
0.277651 1.000000 0.175177
0.442730 1.000000 0.169467
0.607810 1.000000 0.163757
0.772889 1.000000 0.158047
0.948541 1.000000 0.091316
1.000000 1.000000 0.000000
0.000000 0.002331 0.332548
0.139028 0.000000 0.323699
0.302044 0.000000 0.315426
0.486946 0.000000 0.306988
0.673347 0.000000 0.298970
0.848012 0.000000 0.291568
1.000000 0.000000 0.284719
1.000000 0.000000 0.278279
1.000000 0.000000 0.272210
0.000000 0.145689 0.303052
0.123407 0.137393 0.295480
0.285830 0.127734 0.288743
0.470962 0.116946 0.281782
0.656179 0.106696 0.275207
0.829317 0.099162 0.269150
0.994405 0.093423 0.263426
1.000000 0.087703 0.257716
1.000000 0.081982 0.252006
0.000000 0.296561 0.278784
0.101622 0.290208 0.272619
0.266782 0.284312 0.266782
0.449498 0.275281 0.260827
0.634230 0.265871 0.254843
0.809185 0.258297 0.248996
0.974265 0.252577 0.243286
1.000000 0.246857 0.237576
1.000000 0.241137 0.231866
0.000000 0.454244 0.375506
0.061217 0.448524 0.369790
0.226297 0.442804 0.364074
0.411721 0.437746 0.240932
0.593459 0.428899 0.234990
0.778192 0.419489 0.229006
0.954124 0.411731 0.223145
1.000000 0.406011 0.217435
1.000000 0.400291 0.211725
0.000000 0.612912 0.441719
0.026115 0.607191 0.436009
0.191194 0.601471 0.430299
0.370358 0.596210 0.343292
0.556660 0.591180 0.215081
0.737421 0.582516 0.209153
0.922153 0.573107 0.203170
1.000000 0.565165 0.197295
1.000000 0.559445 0.191585
0.000000 0.772066 0.421579
0.005974 0.766346 0.415869
0.171054 0.760626 0.410159
0.336133 0.754905 0.404449
0.514419 0.749615 0.322510
0.701599 0.744615 0.189231
0.881382 0.736134 0.183316
1.000000 0.726724 0.177333
1.000000 0.718600 0.171444
0.000000 0.931220 0.401438
0.000000 0.925500 0.395728
0.150913 0.919780 0.390018
0.315993 0.914060 0.384308
0.481072 0.908340 0.378598
0.658480 0.903021 0.301728
0.846538 0.898049 0.163381
1.000000 0.889752 0.157479
1.000000 0.880342 0.151496
0.000000 1.000000 0.381298
0.000000 1.000000 0.375588
0.130773 1.000000 0.369878
0.295852 1.000000 0.364168
0.460932 1.000000 0.358458
0.626011 1.000000 0.352748
0.802541 1.000000 0.280946
0.991477 1.000000 0.137530
1.000000 1.000000 0.131643
0.000000 1.000000 0.361158
0.000000 1.000000 0.355448
0.110632 1.000000 0.349738
0.275712 1.000000 0.344028
0.440791 1.000000 0.338318
0.605871 1.000000 0.332608
0.770950 1.000000 0.326898
0.946602 1.000000 0.260164
1.000000 1.000000 0.111680
0.000000 0.000000 0.499971
0.141581 0.000000 0.491064
0.304498 0.000000 0.482958
0.467124 0.000000 0.475335
0.652237 0.000000 0.467508
0.838139 0.000000 0.460098
1.000000 0.000000 0.453277
1.000000 0.000000 0.446968
1.000000 0.000000 0.441013
0.000000 0.144944 0.470801
0.125660 0.136862 0.463383
0.287971 0.127397 0.456795
0.449706 0.118338 0.450659
0.634685 0.108276 0.444213
0.819526 0.098676 0.438096
0.992466 0.091480 0.432277
1.000000 0.085760 0.426567
1.000000 0.080040 0.420857
0.000000 0.296269 0.447064
0.103187 0.290084 0.441018
0.268300 0.284293 0.435258
0.429923 0.276649 0.429923
0.614654 0.267240 0.423939
0.799385 0.257830 0.417956
0.972326 0.250634 0.412136
1.000000 0.244914 0.406426
1.000000 0.239194 0.400716
0.000000 0.452964 0.426912
0.079623 0.447244 0.421202
0.244703 0.441524 0.415492
0.409782 0.435804 0.409782
0.591521 0.426956 0.403840
0.776253 0.417546 0.397857
0.952185 0.409789 0.391996
1.000000 0.404069 0.386286
1.000000 0.398348 0.380576
0.000000 0.611427 0.529289
0.038258 0.605707 0.523573
0.203339 0.599987 0.517857
0.368419 0.594267 0.512141
0.554721 0.589238 0.383932
0.735482 0.580574 0.378003
0.920215 0.571164 0.372020
1.000000 0.563223 0.366145
1.000000 0.557503 0.360435
0.000000 0.770123 0.590429
0.004035 0.764403 0.584719
0.169114 0.758683 0.579009
0.334194 0.752963 0.573299
0.512480 0.747673 0.491359
0.699660 0.742672 0.358081
0.879444 0.734191 0.352167
1.000000 0.724782 0.346183
1.000000 0.716657 0.340295
0.000000 0.929278 0.570289
0.000000 0.923557 0.564579
0.148974 0.917837 0.558869
0.314053 0.912117 0.553159
0.479133 0.906397 0.547449
0.656541 0.901078 0.470577
0.844599 0.896106 0.332231
1.000000 0.887809 0.326330
1.000000 0.878399 0.320346
0.000000 1.000000 0.550148
0.000000 1.000000 0.544438
0.128834 1.000000 0.538728
0.293913 1.000000 0.533018
0.458993 1.000000 0.527308
0.624072 1.000000 0.521598
0.800602 1.000000 0.449795
0.989538 1.000000 0.306380
1.000000 1.000000 0.300493
0.000000 1.000000 0.530008
0.000000 1.000000 0.524298
0.108693 1.000000 0.518588
0.273773 1.000000 0.512878
0.438852 1.000000 0.507168
0.603932 1.000000 0.501458
0.769011 1.000000 0.495748
0.944663 1.000000 0.429013
1.000000 1.000000 0.280530
0.000000 0.000000 0.667636
0.141446 0.000000 0.658773
0.306917 0.000000 0.650545
0.469448 0.000000 0.643083
0.631702 0.000000 0.636080
0.816864 0.000000 0.628836
1.000000 0.000000 0.621992
1.000000 0.000000 0.615698
1.000000 0.000000 0.609847
0.000000 0.143119 0.638827
0.125792 0.135240 0.631563
0.290083 0.127129 0.624896
0.451737 0.118259 0.618893
0.613170 0.109910 0.613258
0.797935 0.100423 0.607220
0.982666 0.091013 0.601236
1.000000 0.083817 0.595417
1.000000 0.078097 0.589707
0.000000 0.296258 0.615344
0.105126 0.290229 0.609410
0.270212 0.284495 0.603690
0.431835 0.276851 0.598355
0.593063 0.268987 0.593063
0.777794 0.259577 0.587079
0.962526 0.250168 0.581096
1.000000 0.242972 0.575276
1.000000 0.237252 0.569566
0.000000 0.452838 0.595408
0.080949 0.447118 0.589698
0.246028 0.441398 0.583988
0.411108 0.435678 0.578278
0.572922 0.428141 0.572922
0.757654 0.418731 0.566939
0.942385 0.409322 0.560955
1.000000 0.402126 0.555136
1.000000 0.396406 0.549426
0.000000 0.610176 0.575622
0.057544 0.604456 0.569912
0.222623 0.598736 0.564202
0.387703 0.593015 0.558492
0.552782 0.587295 0.552782
0.733543 0.578631 0.546854
0.918276 0.569221 0.540870
1.000000 0.561280 0.534996
1.000000 0.555560 0.529286
0.000000 0.768611 0.683071
0.015300 0.762890 0.677355
0.180380 0.757170 0.671639
0.345461 0.751450 0.665923
0.510541 0.745730 0.660207
0.697721 0.740729 0.526932
0.877505 0.732249 0.521017
1.000000 0.722839 0.515033
1.000000 0.714714 0.509145
0.000000 0.927335 0.739139
0.000000 0.921615 0.733429
0.147035 0.915895 0.727719
0.312114 0.910175 0.722009
0.477194 0.904454 0.716299
0.654602 0.899136 0.639425
0.842660 0.894163 0.501081
1.000000 0.885866 0.495180
1.000000 0.876457 0.489197
0.000000 1.000000 0.718999
0.000000 1.000000 0.713289
0.126894 1.000000 0.707579
0.291974 1.000000 0.701869
0.457053 1.000000 0.696159
0.622133 1.000000 0.690449
0.798663 1.000000 0.618643
0.987599 1.000000 0.475231
1.000000 1.000000 0.469343
0.000000 1.000000 0.698858
0.000000 1.000000 0.693148
0.106754 1.000000 0.687438
0.271833 1.000000 0.681728
0.436913 1.000000 0.676018
0.601992 1.000000 0.670308
0.767072 1.000000 0.664598
0.942724 1.000000 0.597861
1.000000 1.000000 0.449380
0.000000 0.000000 0.835360
0.140115 0.000000 0.826666
0.306777 0.000000 0.818462
0.471739 0.000000 0.810883
0.633902 0.000000 0.804033
0.795806 0.000000 0.797615
0.980877 0.000000 0.790914
1.000000 0.000000 0.784577
1.000000 0.000000 0.778698
0.000000 0.140374 0.807100
0.124125 0.132703 0.799986
0.289825 0.125623 0.793297
0.453743 0.118241 0.787170
0.615109 0.110051 0.781648
0.776344 0.102170 0.776344
0.961075 0.092760 0.770360
1.000000 0.083351 0.764377
1.000000 0.076155 0.758557
0.000000 0.295239 0.783872
0.105130 0.289350 0.778040
0.270209 0.283630 0.772330
0.433748 0.277052 0.766787
0.594976 0.269188 0.761495
0.756203 0.261324 0.756203
0.940935 0.251914 0.750220
1.000000 0.242505 0.744236
1.000000 0.235309 0.738417
0.000000 0.453040 0.763841
0.082861 0.447320 0.758131
0.247941 0.441600 0.752421
0.413021 0.435880 0.746711
0.574835 0.428342 0.741355
0.736063 0.420478 0.736063
0.920794 0.411069 0.730079
1.000000 0.401659 0.724096
1.000000 0.394463 0.718276
0.000000 0.609943 0.744139
0.058677 0.604223 0.738429
0.223757 0.598503 0.732719
0.388837 0.592783 0.727009
0.553916 0.587063 0.721299
0.715922 0.579632 0.715922
0.900654 0.570223 0.709939
1.000000 0.560813 0.703955
1.000000 0.553618 0.698136
0.000000 0.767388 0.724332
0.035464 0.761667 0.718622
0.200544 0.755947 0.712912
0.365623 0.750227 0.707202
0.530702 0.744507 0.701492
0.695782 0.738787 0.695782
0.875566 0.730306 0.689867
1.000000 0.720896 0.683884
1.000000 0.712772 0.677995
0.000000 0.925794 0.836853
0.000000 0.920073 0.831137
0.157422 0.914353 0.825421
0.322502 0.908633 0.819705
0.487583 0.902913 0.813989
0.652663 0.897193 0.808273
0.840721 0.892221 0.669931
1.000000 0.883924 0.664030
1.000000 0.874514 0.658047
0.000000 1.000000 0.887849
0.000000 1.000000 0.882139
0.124955 1.000000 0.876429
0.290035 1.000000 0.870719
0.455114 1.000000 0.865009
0.620194 1.000000 0.859299
0.796724 1.000000 0.787491
0.985660 1.000000 0.644081
1.000000 1.000000 0.638194
0.000000 1.000000 0.867709
0.000000 1.000000 0.861999
0.104815 1.000000 0.856289
0.269894 1.000000 0.850579
0.434974 1.000000 0.844869
0.600053 1.000000 0.839159
0.765133 1.000000 0.833449
0.940785 1.000000 0.766709
1.000000 1.000000 0.618231
0.000000 0.000000 1.000000
0.138748 0.000000 0.994615
0.305307 0.000000 0.986574
0.471569 0.000000 0.979000
0.636073 0.000000 0.972035
0.797891 0.000000 0.965759
0.959473 0.000000 0.959877
1.000000 0.000000 0.953655
1.000000 0.000000 0.947657
0.000000 0.137700 0.975424
0.122426 0.130234 0.968457
0.288039 0.123346 0.961907
0.453408 0.116991 0.955739
0.617029 0.110235 0.950068
0.778256 0.102371 0.944776
0.939484 0.094507 0.939484
1.000000 0.085097 0.933500
1.000000 0.075688 0.927517
0.000000 0.293194 0.952648
0.103190 0.287407 0.946890
0.268270 0.281687 0.941180
0.433349 0.275967 0.935470
0.596888 0.269389 0.929928
0.758116 0.261525 0.924636
0.919344 0.253661 0.919344
1.000000 0.244252 0.913360
1.000000 0.234842 0.907377
0.000000 0.452282 0.932460
0.083050 0.446561 0.926750
0.248130 0.440841 0.921040
0.413209 0.435121 0.915330
0.576748 0.428543 0.909787
0.737975 0.420679 0.904495
0.899203 0.412815 0.899203
1.000000 0.403406 0.893220
1.000000 0.393996 0.887236
0.000000 0.610145 0.912571
0.060590 0.604425 0.906861
0.225670 0.598705 0.901151
0.390749 0.592985 0.895441
0.555829 0.587265 0.889731
0.717835 0.579834 0.884355
0.879063 0.571970 0.879063
1.000000 0.562560 0.873079
1.000000 0.553151 0.867096
0.000000 0.767048 0.892870
0.036406 0.761328 0.887160
0.201486 0.755608 0.881450
0.366565 0.749888 0.875740
0.531645 0.744168 0.870030
0.696725 0.738448 0.864320
0.858922 0.731124 0.858922
1.000000 0.721714 0.852939
1.000000 0.712305 0.846955
0.000000 0.924599 0.873042
0.013384 0.918879 0.867332
0.178464 0.913159 0.861622
0.343543 0.907439 0.855912
0.508623 0.901719 0.850202
0.673702 0.895998 0.844492
0.838782 0.890278 0.838782
1.000000 0.881981 0.832881
1.000000 0.872571 0.826897
0.000000 1.000000 0.990636
0.000000 1.000000 0.984920
0.134464 1.000000 0.979204
0.299544 1.000000 0.973488
0.464625 1.000000 0.967772
0.629705 1.000000 0.962056
0.794786 1.000000 0.956339
0.983721 1.000000 0.812931
1.000000 1.000000 0.807044
0.000000 1.000000 1.000000
0.000000 1.000000 1.000000
0.102876 1.000000 1.000000
0.267955 1.000000 1.000000
0.433035 1.000000 1.000000
0.598114 1.000000 1.000000
0.763194 1.000000 1.000000
0.938847 1.000000 0.935558
1.000000 1.000000 0.787081
0.000000 0.000000 1.000000
0.137345 0.000000 1.000000
0.303802 0.000000 1.000000
0.469966 0.000000 1.000000
0.635849 0.000000 1.000000
0.799950 0.000000 1.000000
0.961456 0.000000 1.000000
1.000000 0.000000 1.000000
1.000000 0.000000 1.000000
0.000000 0.135098 1.000000
0.120697 0.127832 1.000000
0.286224 0.121131 1.000000
0.451518 0.114942 1.000000
0.616630 0.109150 1.000000
0.780169 0.102572 1.000000
0.941397 0.094708 1.000000
1.000000 0.086844 1.000000
1.000000 0.077434 1.000000
0.000000 0.291197 1.000000
0.101251 0.285465 1.000000
0.266331 0.279744 1.000000
0.431410 0.274024 1.000000
0.596490 0.268304 1.000000
0.760029 0.261726 1.000000
0.921256 0.253862 1.000000
1.000000 0.245998 1.000000
1.000000 0.236589 1.000000
0.000000 0.450339 1.000000
0.081111 0.444619 1.000000
0.246190 0.438899 1.000000
0.411270 0.433179 1.000000
0.576349 0.427458 1.000000
0.739888 0.420881 1.000000
0.901116 0.413017 1.000000
1.000000 0.405153 1.000000
1.000000 0.395743 1.000000
0.000000 0.609493 1.000000
0.060970 0.603773 1.000000
0.226050 0.598053 1.000000
0.391129 0.592333 1.000000
0.556209 0.586613 1.000000
0.719748 0.580035 1.000000
0.880975 0.572171 1.000000
1.000000 0.564307 1.000000
1.000000 0.554897 1.000000
0.000000 0.767250 1.000000
0.038319 0.761530 1.000000
0.203398 0.755810 1.000000
0.368478 0.750090 1.000000
0.533558 0.744370 1.000000
0.698637 0.738650 1.000000
0.860835 0.731325 1.000000
1.000000 0.723461 1.000000
1.000000 0.714052 1.000000
0.000000 0.924153 1.000000
0.014135 0.918433 1.000000
0.179214 0.912713 1.000000
0.344294 0.906993 1.000000
0.509374 0.901273 1.000000
0.674453 0.895553 1.000000
0.839533 0.889833 1.000000
1.000000 0.882616 1.000000
1.000000 0.873206 0.995939
0.000000 1.000000 1.000000
0.000000 1.000000 1.000000
0.156384 1.000000 1.000000
0.321464 1.000000 1.000000
0.486543 1.000000 0.998912
0.651623 1.000000 0.993202
0.816702 1.000000 0.987492
0.981782 1.000000 0.981782
1.000000 1.000000 0.975894
0.000000 1.000000 1.000000
0.000000 1.000000 1.000000
0.111505 1.000000 1.000000
0.276586 1.000000 1.000000
0.441666 1.000000 1.000000
0.606747 1.000000 1.000000
0.771827 1.000000 1.000000
0.936908 1.000000 1.000000
1.000000 1.000000 0.955931
0.000000 0.000000 1.000000
0.135907 0.000000 1.000000
0.302263 0.000000 1.000000
0.468330 0.000000 1.000000
0.634122 0.000000 1.000000
0.799656 0.000000 1.000000
0.963416 0.000000 1.000000
1.000000 0.000000 1.000000
1.000000 0.000000 1.000000
0.000000 0.132564 1.000000
0.118937 0.125495 1.000000
0.284382 0.118975 1.000000
0.449605 0.112942 1.000000
0.614691 0.107207 1.000000
0.779771 0.101487 1.000000
0.943309 0.094909 1.000000
1.000000 0.087045 1.000000
1.000000 0.079181 1.000000
0.000000 0.289242 1.000000
0.099312 0.283522 1.000000
0.264392 0.277802 1.000000
0.429471 0.272082 1.000000
0.594551 0.266361 1.000000
0.759630 0.260641 1.000000
0.923169 0.254064 1.000000
1.000000 0.246200 1.000000
1.000000 0.238336 1.000000
0.000000 0.448396 1.000000
0.079172 0.442676 1.000000
0.244251 0.436956 1.000000
0.409331 0.431236 1.000000
0.574410 0.425516 1.000000
0.739490 0.419796 1.000000
0.903028 0.413218 1.000000
1.000000 0.405354 1.000000
1.000000 0.397490 1.000000
0.000000 0.607551 1.000000
0.059031 0.601831 1.000000
0.224111 0.596110 1.000000
0.389190 0.590390 1.000000
0.554270 0.584670 1.000000
0.719349 0.578950 1.000000
0.882888 0.572372 1.000000
1.000000 0.564508 1.000000
1.000000 0.556644 1.000000
0.000000 0.766705 1.000000
0.038891 0.760985 1.000000
0.203970 0.755265 1.000000
0.369050 0.749545 1.000000
0.534129 0.743824 1.000000
0.699209 0.738104 1.000000
0.862748 0.731527 1.000000
1.000000 0.723662 1.000000
1.000000 0.715798 1.000000
0.000000 0.924355 1.000000
0.016047 0.918635 1.000000
0.181127 0.912915 1.000000
0.346207 0.907195 1.000000
0.511286 0.901475 1.000000
0.676366 0.895755 1.000000
0.841446 0.890034 1.000000
1.000000 0.882817 1.000000
1.000000 0.874953 1.000000
0.000000 1.000000 1.000000
0.000000 1.000000 1.000000
0.156943 1.000000 1.000000
0.322023 1.000000 1.000000
0.487102 1.000000 1.000000
0.652182 1.000000 1.000000
0.817262 1.000000 1.000000
0.982342 1.000000 1.000000
1.000000 1.000000 1.000000
0.000000 1.000000 1.000000
0.000000 1.000000 1.000000
0.134305 1.000000 1.000000
0.299384 1.000000 1.000000
0.464464 1.000000 1.000000
0.629543 1.000000 1.000000
0.794623 1.000000 1.000000
0.959702 1.000000 1.000000
1.000000 1.000000 1.000000
