Resources/LUTs/Fuji_400H_Linear.cube
TITLE "Fuji Pro 400H Accurate (Generated)"
# Accurately modeled from film characteristics
# Fourth color layer (cyan interlayer) simulation
# Color Space: Linear RGB
LUT_3D_SIZE 5
DOMAIN_MIN 0.0 0.0 0.0
DOMAIN_MAX 1.0 1.0 1.0
0.001703 0.001935 0.002167
0.193799 0.048608 0.009618
0.380763 0.034762 0.012855
0.567607 0.014681 0.015207
0.744099 0.018897 0.019492
0.010239 0.186917 0.013130
0.130522 0.214584 0.006686
0.396929 0.294241 0.010765
0.534117 0.249691 0.019636
0.685593 0.273988 0.027378
0.024786 0.339449 0.019807
0.180789 0.395669 0.011087
0.323575 0.398303 0.010765
0.567607 0.409619 0.015207
0.724205 0.429655 0.021959
0.049796 0.477334 0.029466
0.242550 0.560877 0.016174
0.408258 0.568720 0.015207
0.567607 0.568720 0.015207
0.744099 0.584697 0.019492
0.064844 0.624907 0.038009
0.267226 0.720549 0.022537
0.423845 0.744817 0.019492
0.583615 0.744817 0.019492
0.744099 0.744817 0.019492
0.006008 0.012048 0.216011
0.141718 0.006342 0.216011
0.396929 0.010323 0.285775
0.567607 0.014681 0.240226
0.744099 0.018897 0.254018
0.006923 0.200791 0.209033
0.260444 0.261888 0.263336
0.474862 0.284739 0.286187
0.683942 0.299384 0.300829
0.903547 0.314884 0.310954
0.009892 0.398303 0.239138
0.315035 0.456543 0.301099
0.474862 0.476135 0.286187
0.666469 0.508596 0.311780
0.858432 0.549223 0.335942
0.015099 0.560877 0.232988
0.356753 0.642462 0.328132
0.504222 0.679137 0.304348
0.683942 0.684806 0.300829
0.892599 0.713215 0.316847
0.021271 0.720549 0.236629
0.401272 0.835396 0.349735
0.551442 0.878740 0.324662
0.717062 0.903834 0.310954
0.903547 0.899560 0.310954
0.009892 0.014232 0.399679
0.186663 0.010323 0.399679
0.334294 0.010323 0.399679
0.567607 0.014681 0.410983
0.744099 0.018897 0.426534
0.013591 0.219175 0.371398
0.283295 0.284739 0.477409
0.474862 0.284739 0.477409
0.683942 0.299384 0.501257
0.903547 0.309512 0.571126
0.011411 0.380244 0.387277
0.285914 0.472617 0.473897
0.507804 0.507676 0.508892
0.725641 0.530824 0.528439
0.950972 0.553166 0.543574
0.014204 0.568386 0.410797
0.301463 0.679137 0.494392
0.565758 0.707284 0.544537
0.725641 0.724563 0.528439
0.931084 0.760010 0.558037
0.018313 0.744817 0.426534
0.321793 0.878740 0.483899
0.624059 0.909237 0.574599
0.767574 0.943044 0.549416
0.950972 0.944773 0.543574
0.014165 0.014681 0.569834
0.237347 0.014681 0.569834
0.408258 0.014681 0.569834
0.567607 0.014681 0.569834
0.744099 0.018897 0.585779
0.017719 0.234945 0.541744
0.297943 0.299384 0.685671
0.498784 0.299384 0.685671
0.683942 0.299384 0.685671
0.903547 0.309512 0.769410
0.018426 0.391066 0.536655
0.304963 0.498538 0.674456
0.526059 0.544230 0.727170
0.699429 0.527248 0.727170
0.950972 0.542410 0.837453
0.016235 0.551789 0.552936
0.302698 0.677163 0.678045
0.528961 0.722924 0.710159
0.750986 0.747750 0.748327
0.979652 0.775845 0.767677
0.019007 0.738880 0.581893
0.308074 0.903834 0.686707
0.547112 0.943044 0.705853
0.816659 0.959607 0.785286
0.979652 0.975369 0.767677
0.018313 0.018897 0.745536
0.251130 0.018897 0.745536
0.423845 0.018897 0.745536
0.583615 0.018897 0.745536
0.744099 0.018897 0.745536
0.021639 0.251491 0.718494
0.308074 0.335310 0.904121
0.479442 0.309512 0.904121
0.660888 0.309512 0.904121
0.843240 0.309512 0.904121
0.025168 0.407210 0.692892
0.311798 0.548677 0.897225
0.541248 0.594201 0.951269
0.676743 0.542410 0.951269
0.862090 0.542410 0.951269
0.023128 0.559528 0.707344
0.324471 0.727940 0.874334
0.548078 0.795403 0.941899
0.766353 0.809161 0.979776
0.918265 0.767015 0.979776
0.021009 0.722600 0.723374
0.314808 0.891384 0.860613
0.546766 0.943518 0.897525
0.769528 0.976071 0.944332
1.000000 1.000000 1.000000
