Resources/LUTs/Fuji_Superia_400_Linear.cube
TITLE "Fuji Superia X-TRA 400 - Linear In/Out"
LUT_3D_SIZE 33
DOMAIN_MIN 0.0 0.0 0.0
DOMAIN_MAX 1.0 1.0 1.0
0.000000 0.005689 0.002738
0.012552 0.002694 0.000000
0.059583 0.000000 0.000000
0.106586 0.000000 0.000000
0.153561 0.000000 0.000000
0.200508 0.000000 0.000000
0.247428 0.000000 0.000000
0.294320 0.000000 0.000000
0.341185 0.000000 0.000000
0.388023 0.000000 0.000000
0.434834 0.000000 0.000000
0.476710 0.000000 0.000000
0.518400 0.000000 0.000000
0.560071 0.000000 0.000000
0.601723 0.000000 0.000000
0.643356 0.000000 0.000000
0.684970 0.000000 0.000000
0.726566 0.000000 0.000000
0.768143 0.000000 0.000000
0.809703 0.000000 0.000000
0.851244 0.000000 0.000000
0.892767 0.000000 0.000000
0.934272 0.000000 0.000000
0.975760 0.000000 0.000000
1.000000 0.000000 0.000000
1.000000 0.000000 0.000000
1.000000 0.000000 0.000000
1.000000 0.000000 0.000000
1.000000 0.000000 0.000000
1.000000 0.000000 0.000000
1.000000 0.000000 0.000000
1.000000 0.000000 0.000000
1.000000 0.000000 0.000000
0.000000 0.040791 0.020419
0.005448 0.038180 0.005458
0.052037 0.035325 0.000000
0.098947 0.031773 0.000000
0.145829 0.028266 0.000000
0.192684 0.024803 0.000000
0.239512 0.021385 0.000000
0.286314 0.018012 0.000000
0.333088 0.014682 0.000000
0.379836 0.011397 0.000000
0.426558 0.008154 0.000000
0.473013 0.005000 0.000000
0.514639 0.002790 0.000000
0.556247 0.000620 0.000000
0.597836 0.000000 0.000000
0.639406 0.000000 0.000000
0.680959 0.000000 0.000000
0.722493 0.000000 0.000000
0.764010 0.000000 0.000000
0.805509 0.000000 0.000000
0.846991 0.000000 0.000000
0.888455 0.000000 0.000000
0.929903 0.000000 0.000000
0.971335 0.000000 0.000000
1.000000 0.000000 0.000000
1.000000 0.000000 0.000000
1.000000 0.000000 0.000000
1.000000 0.000000 0.000000
1.000000 0.000000 0.000000
1.000000 0.000000 0.000000
1.000000 0.000000 0.000000
1.000000 0.000000 0.000000
1.000000 0.000000 0.000000
0.000000 0.076397 0.038548
0.000000 0.073950 0.020989
0.044469 0.071608 0.000000
0.090998 0.068823 0.000000
0.137790 0.065465 0.000000
0.184555 0.062152 0.000000
0.231293 0.058882 0.000000
0.278006 0.055655 0.000000
0.324693 0.052471 0.000000
0.371353 0.049329 0.000000
0.417989 0.046229 0.000000
0.464599 0.043172 0.000000
0.510666 0.040252 0.000000
0.552212 0.038218 0.000000
0.593740 0.036223 0.000000
0.635251 0.034267 0.000000
0.676743 0.032348 0.000000
0.718219 0.030468 0.000000
0.759677 0.028625 0.000000
0.801119 0.026819 0.000000
0.842545 0.025048 0.000000
0.883954 0.023314 0.000000
0.925347 0.021614 0.000000
0.966724 0.019948 0.000000
1.000000 0.018315 0.000000
1.000000 0.016715 0.000000
1.000000 0.015146 0.000000
1.000000 0.013607 0.000000
1.000000 0.012097 0.000000
1.000000 0.010615 0.000000
1.000000 0.009157 0.000000
1.000000 0.007721 0.000000
1.000000 0.006290 0.000000
0.000000 0.112497 0.057115
0.000000 0.110208 0.037301
0.036776 0.108010 0.008941
0.082990 0.105853 0.000000
0.129450 0.103161 0.000000
0.176127 0.099993 0.000000
0.222779 0.096866 0.000000
0.269405 0.093782 0.000000
0.316006 0.090739 0.000000
0.362582 0.087738 0.000000
0.409134 0.084777 0.000000
0.455661 0.081856 0.000000
0.502164 0.078975 0.000000
0.547976 0.076259 0.000000
0.589445 0.074392 0.000000
0.630897 0.072562 0.000000
0.672333 0.070769 0.000000
0.713752 0.069012 0.000000
0.755156 0.067290 0.000000
0.796543 0.065603 0.000000
0.837915 0.063949 0.000000
0.879272 0.062328 0.000000
0.920614 0.060739 0.000000
0.961943 0.059182 0.000000
1.000000 0.057654 0.000000
1.000000 0.056154 0.000000
1.000000 0.054681 0.000000
1.000000 0.053231 0.000000
1.000000 0.051799 0.000000
1.000000 0.050369 0.000000
1.000000 0.048939 0.000000
1.000000 0.047509 0.000000
1.000000 0.046079 0.000000
0.000000 0.149080 0.076112
0.000000 0.146944 0.054375
0.028793 0.144885 0.026238
0.074924 0.142867 0.000000
0.121029 0.140889 0.000000
0.167410 0.138312 0.000000
0.213977 0.135325 0.000000
0.260520 0.132379 0.000000
0.307038 0.129473 0.000000
0.353532 0.126607 0.000000
0.400003 0.123779 0.000000
0.446450 0.120990 0.000000
0.492875 0.118239 0.000000
0.539276 0.115526 0.000000
0.584958 0.112980 0.000000
0.626355 0.111271 0.000000
0.667737 0.109596 0.000000
0.709104 0.107954 0.000000
0.750455 0.106345 0.000000
0.791793 0.104768 0.000000
0.833116 0.103221 0.000000
0.874426 0.101704 0.000000
0.915723 0.100214 0.000000
0.957008 0.098750 0.000000
0.998283 0.097308 0.000000
1.000000 0.095878 0.000000
1.000000 0.094448 0.000000
1.000000 0.093018 0.000000
1.000000 0.091588 0.000000
1.000000 0.090158 0.000000
1.000000 0.088728 0.000000
1.000000 0.087298 0.000000
1.000000 0.085868 0.000000
0.000000 0.186134 0.095525
0.000000 0.184144 0.072191
0.020530 0.182221 0.044270
0.066579 0.180337 0.016412
0.112603 0.178492 0.000000
0.160303 0.176740 0.000000
0.204898 0.174243 0.000000
0.251360 0.171430 0.000000
0.297799 0.168655 0.000000
0.344215 0.165918 0.000000
0.390608 0.163218 0.000000
0.436980 0.160554 0.000000
0.483329 0.157927 0.000000
0.529658 0.155334 0.000000
0.575966 0.152776 0.000000
0.621637 0.150367 0.000000
0.662969 0.148801 0.000000
0.704287 0.147265 0.000000
0.745592 0.145758 0.000000
0.786885 0.144277 0.000000
0.828166 0.142822 0.000000
0.869439 0.141387 0.000000
0.910709 0.139957 0.000000
0.951978 0.138527 0.000000
0.993248 0.137097 0.000000
1.000000 0.135666 0.000000
1.000000 0.134236 0.000000
1.000000 0.132806 0.000000
1.000000 0.131376 0.000000
1.000000 0.129946 0.000000
1.000000 0.128516 0.000000
1.000000 0.127086 0.000000
1.000000 0.125656 0.000000
0.000000 0.223643 0.115344
0.000000 0.221795 0.090726
0.011995 0.220002 0.063014
0.057965 0.218247 0.035362
0.103911 0.216530 0.007770
0.149835 0.214849 0.000000
0.197379 0.213258 0.000000
0.241937 0.210915 0.000000
0.288301 0.208264 0.000000
0.334643 0.205650 0.000000
0.380963 0.203070 0.000000
0.427264 0.200524 0.000000
0.473544 0.198010 0.000000
0.519805 0.195529 0.000000
0.566048 0.193079 0.000000
0.612273 0.190657 0.000000
0.658046 0.188344 0.000000
0.699324 0.186897 0.000000
0.740594 0.185465 0.000000
0.781864 0.184035 0.000000
0.823134 0.182605 0.000000
0.864404 0.181175 0.000000
0.905674 0.179745 0.000000
0.946943 0.178315 0.000000
0.988213 0.176885 0.000000
1.000000 0.175455 0.000000
1.000000 0.174025 0.000000
1.000000 0.172595 0.000000
1.000000 0.171165 0.000000
1.000000 0.169735 0.000000
1.000000 0.168305 0.000000
1.000000 0.166875 0.000000
1.000000 0.165445 0.000000
0.000000 0.261594 0.135555
0.000000 0.259879 0.109953
0.003199 0.258211 0.082441
0.049093 0.256580 0.054986
0.094965 0.254984 0.027588
0.140816 0.253423 0.000246
0.186647 0.251896 0.000000
0.234143 0.250457 0.000000
0.278559 0.248275 0.000000
0.324833 0.245774 0.000000
0.371087 0.243304 0.000000
0.417323 0.240864 0.000000
0.463542 0.238453 0.000000
0.509745 0.236067 0.000000
0.555934 0.233705 0.000000
0.602117 0.231352 0.000000
0.648301 0.229000 0.000000
0.694289 0.226684 0.000000
0.735559 0.225254 0.000000
0.776829 0.223824 0.000000
0.818099 0.222394 0.000000
0.859369 0.220964 0.000000
0.900638 0.219534 0.000000
0.941908 0.218104 0.000000
0.983178 0.216674 0.000000
1.000000 0.215244 0.000000
1.000000 0.213814 0.000000
1.000000 0.212384 0.000000
1.000000 0.210954 0.000000
1.000000 0.209523 0.000000
1.000000 0.208093 0.000000
1.000000 0.206663 0.000000
1.000000 0.205233 0.000000
0.000000 0.300027 0.145407
0.000000 0.298377 0.129842
0.000000 0.296828 0.102519
0.039976 0.295313 0.075250
0.085779 0.293831 0.048034
0.131563 0.292382 0.020869
0.177327 0.290963 0.000000
0.223073 0.289574 0.000000
0.270626 0.288272 0.000000
0.314809 0.286252 0.000000
0.361006 0.283875 0.000000
0.407192 0.281519 0.000000
0.453375 0.279166 0.000000
0.499558 0.276814 0.000000
0.545742 0.274462 0.000000
0.591925 0.272109 0.000000
0.638108 0.269757 0.000000
0.684291 0.267404 0.000000
0.730474 0.265052 0.000000
0.771794 0.263612 0.000000
0.813064 0.262182 0.000000
0.854333 0.260752 0.000000
0.895603 0.259322 0.000000
0.936873 0.257892 0.000000
0.978143 0.256462 0.000000
1.000000 0.255032 0.000000
1.000000 0.253602 0.000000
1.000000 0.252172 0.000000
1.000000 0.250742 0.000000
1.000000 0.249312 0.000000
1.000000 0.247882 0.000000
1.000000 0.246452 0.000000
1.000000 0.245022 0.000000
0.000000 0.338948 0.139748
0.000000 0.337334 0.138187
0.000000 0.335827 0.123206
0.030633 0.334419 0.096108
0.076373 0.333040 0.069058
0.122096 0.331690 0.042051
0.167803 0.330365 0.015086
0.213495 0.329063 0.000000
0.259180 0.327776 0.000000
0.306895 0.326556 0.000000
0.350816 0.324628 0.000000
0.396999 0.322276 0.000000
0.443182 0.319923 0.000000
0.489366 0.317571 0.000000
0.535549 0.315218 0.000000
0.581732 0.312866 0.000000
0.627915 0.310514 0.000000
0.674098 0.308161 0.000000
0.720281 0.305809 0.000000
0.766464 0.303456 0.000000
0.808028 0.301971 0.000000
0.849298 0.300541 0.000000
0.890568 0.299111 0.000000
0.931838 0.297681 0.000000
0.973108 0.296251 0.000000
1.000000 0.294821 0.000000
1.000000 0.293391 0.000000
1.000000 0.291961 0.000000
1.000000 0.290531 0.000000
1.000000 0.289101 0.000000
1.000000 0.287671 0.000000
1.000000 0.286241 0.000000
1.000000 0.284810 0.000000
0.000000 0.378240 0.134355
0.000000 0.376728 0.132869
0.000000 0.375243 0.131402
0.021089 0.373854 0.117493
0.066777 0.372559 0.090576
0.112461 0.371273 0.063672
0.158144 0.369986 0.036769
0.203828 0.368700 0.009865
0.249511 0.367414 0.000000
0.295195 0.366127 0.000000
0.343130 0.364914 0.000000
0.386807 0.363033 0.000000
0.432990 0.360680 0.000000
0.479173 0.358328 0.000000
0.525356 0.355975 0.000000
0.571539 0.353623 0.000000
0.617722 0.351270 0.000000
0.663905 0.348918 0.000000
0.710089 0.346566 0.000000
0.756272 0.344213 0.000000
0.802455 0.341861 0.000000
0.844263 0.340330 0.000000
0.885533 0.338899 0.000000
0.926803 0.337469 0.000000
0.968073 0.336039 0.000000
1.000000 0.334609 0.000000
1.000000 0.333179 0.000000
1.000000 0.331749 0.000000
1.000000 0.330319 0.000000
1.000000 0.328889 0.000000
1.000000 0.327459 0.000000
1.000000 0.326029 0.000000
1.000000 0.324599 0.000000
0.000000 0.417857 0.129196
0.000000 0.416424 0.127767
0.000000 0.414994 0.126339
0.013899 0.413564 0.124912
0.057109 0.412197 0.112284
0.102792 0.410911 0.085381
0.148476 0.409624 0.058477
0.194159 0.408338 0.031573
0.239843 0.407051 0.004669
0.285526 0.405765 0.000000
0.331210 0.404479 0.000000
0.379365 0.403273 0.000000
0.422797 0.401437 0.000000
0.468980 0.399084 0.000000
0.515163 0.396732 0.000000
0.561346 0.394380 0.000000
0.607530 0.392027 0.000000
0.653713 0.389675 0.000000
0.699896 0.387322 0.000000
0.746079 0.384970 0.000000
0.792262 0.382617 0.000000
0.838445 0.380265 0.000000
0.880498 0.378688 0.000000
0.921768 0.377258 0.000000
0.963038 0.375828 0.000000
1.000000 0.374398 0.000000
1.000000 0.372968 0.000000
1.000000 0.371538 0.000000
1.000000 0.370108 0.000000
1.000000 0.368678 0.000000
1.000000 0.367248 0.000000
1.000000 0.365818 0.000000
1.000000 0.364388 0.000000
0.000000 0.457642 0.124159
0.000000 0.456212 0.122732
0.000000 0.454782 0.121304
0.008863 0.453352 0.119877
0.050133 0.451922 0.118449
0.093124 0.450548 0.107089
0.138808 0.449262 0.080185
0.184491 0.447976 0.053281
0.230175 0.446689 0.026378
0.275858 0.445403 0.000000
0.321542 0.444117 0.000000
0.367225 0.442830 0.000000
0.415600 0.441631 0.000000
0.458787 0.439841 0.000000
0.504971 0.437489 0.000000
0.551154 0.435136 0.000000
0.597337 0.432784 0.000000
0.643520 0.430432 0.000000
0.689703 0.428079 0.000000
0.735886 0.425727 0.000000
0.782069 0.423374 0.000000
0.828252 0.421022 0.000000
0.874436 0.418669 0.000000
0.916733 0.417047 0.000000
0.958003 0.415617 0.000000
0.999272 0.414187 0.000000
1.000000 0.412756 0.000000
1.000000 0.411326 0.000000
1.000000 0.409896 0.000000
1.000000 0.408466 0.000000
1.000000 0.407036 0.000000
1.000000 0.405606 0.000000
1.000000 0.404176 0.000000
0.000000 0.497431 0.119124
0.000000 0.496001 0.117696
0.000000 0.494571 0.116269
0.003828 0.493141 0.114841
0.045098 0.491711 0.113414
0.086368 0.490281 0.111986
0.129139 0.488900 0.101893
0.174823 0.487613 0.074990
0.220506 0.486327 0.048086
0.266190 0.485041 0.021182
0.311873 0.483754 0.000000
0.357557 0.482468 0.000000
0.403240 0.481182 0.000000
0.451834 0.479990 0.000000
0.494778 0.478246 0.000000
0.540961 0.475893 0.000000
0.587144 0.473541 0.000000
0.633327 0.471188 0.000000
0.679510 0.468836 0.000000
0.725693 0.466484 0.000000
0.771877 0.464131 0.000000
0.818060 0.461779 0.000000
0.864243 0.459426 0.000000
0.910426 0.457074 0.000000
0.952967 0.455405 0.000000
0.994237 0.453975 0.000000
1.000000 0.452545 0.000000
1.000000 0.451115 0.000000
1.000000 0.449685 0.000000
1.000000 0.448255 0.000000
1.000000 0.446825 0.000000
1.000000 0.445395 0.000000
1.000000 0.443965 0.000000
0.000000 0.537220 0.114089
0.000000 0.535790 0.112661
0.000000 0.534360 0.111234
0.000000 0.532930 0.109806
0.040063 0.531499 0.108379
0.081333 0.530069 0.106951
0.122603 0.528639 0.105524
0.165154 0.527251 0.096698
0.210838 0.525965 0.069794
0.256522 0.524678 0.042890
0.302205 0.523392 0.015987
0.347889 0.522106 0.000000
0.393572 0.520819 0.000000
0.439256 0.519533 0.000000
0.488069 0.518348 0.000000
0.530768 0.516650 0.000000
0.576951 0.514298 0.000000
0.623134 0.511945 0.000000
0.669318 0.509593 0.000000
0.715501 0.507240 0.000000
0.761684 0.504888 0.000000
0.807867 0.502536 0.000000
0.854050 0.500183 0.000000
0.900233 0.497831 0.000000
0.946416 0.495478 0.000000
0.989202 0.493764 0.000000
1.000000 0.492334 0.000000
1.000000 0.490904 0.000000
1.000000 0.489474 0.000000
1.000000 0.488043 0.000000
1.000000 0.486613 0.000000
1.000000 0.485183 0.000000
1.000000 0.483753 0.000000
0.000000 0.577008 0.109054
0.000000 0.575578 0.107626
0.000000 0.574148 0.106199
0.000000 0.572718 0.104771
0.035028 0.571288 0.103344
0.076298 0.569858 0.101916
0.117568 0.568428 0.100489
0.158838 0.566998 0.099061
0.201170 0.565602 0.091502
0.246853 0.564316 0.064599
0.292537 0.563030 0.037695
0.338220 0.561743 0.010791
0.383904 0.560457 0.000000
0.429587 0.559171 0.000000
0.475271 0.557884 0.000000
0.524304 0.556707 0.000000
0.566759 0.555055 0.000000
0.612942 0.552702 0.000000
0.659125 0.550350 0.000000
0.705308 0.547997 0.000000
0.751491 0.545645 0.000000
0.797674 0.543292 0.000000
0.843857 0.540940 0.000000
0.890040 0.538588 0.000000
0.936224 0.536235 0.000000
0.982407 0.533883 0.000000
1.000000 0.532122 0.000000
1.000000 0.530692 0.000000
1.000000 0.529262 0.000000
1.000000 0.527832 0.000000
1.000000 0.526402 0.000000
1.000000 0.524972 0.000000
1.000000 0.523542 0.000000
0.000000 0.616797 0.104019
0.000000 0.615367 0.102591
0.000000 0.613937 0.101164
0.000000 0.612507 0.099736
0.029993 0.611077 0.098309
0.071263 0.609647 0.096881
0.112533 0.608217 0.095454
0.153802 0.606786 0.094026
0.195072 0.605356 0.092599
0.237185 0.603954 0.086307
0.282868 0.602667 0.059403
0.328552 0.601381 0.032499
0.374236 0.600095 0.005596
0.419919 0.598808 0.000000
0.465603 0.597522 0.000000
0.511286 0.596236 0.000000
0.560539 0.595066 0.000000
0.602749 0.593459 0.000000
0.648932 0.591107 0.000000
0.695115 0.588754 0.000000
0.741298 0.586402 0.000000
0.787481 0.584049 0.000000
0.833665 0.581697 0.000000
0.879848 0.579344 0.000000
0.926031 0.576992 0.000000
0.972214 0.574640 0.000000
1.000000 0.572287 0.000000
1.000000 0.570481 0.000000
1.000000 0.569051 0.000000
1.000000 0.567621 0.000000
1.000000 0.566191 0.000000
1.000000 0.564761 0.000000
1.000000 0.563331 0.000000
0.000000 0.656585 0.098984
0.000000 0.655155 0.097556
0.000000 0.653725 0.096129
0.000000 0.652295 0.094701
0.024958 0.650865 0.093274
0.066228 0.649435 0.091846
0.107497 0.648005 0.090419
0.148767 0.646575 0.088991
0.190037 0.645145 0.087564
0.231307 0.643715 0.086136
0.273200 0.642305 0.081112
0.318884 0.641019 0.054208
0.364567 0.639733 0.027304
0.410251 0.638446 0.000400
0.455934 0.637160 0.000000
0.501618 0.635873 0.000000
0.547301 0.634587 0.000000
0.596773 0.633424 0.000000
0.638739 0.631863 0.000000
0.684922 0.629511 0.000000
0.731106 0.627159 0.000000
0.777289 0.624806 0.000000
0.823472 0.622454 0.000000
0.869655 0.620101 0.000000
0.915838 0.617749 0.000000
0.962021 0.615396 0.000000
1.000000 0.613044 0.000000
1.000000 0.610692 0.000000
1.000000 0.608839 0.000000
1.000000 0.607409 0.000000
1.000000 0.605979 0.000000
1.000000 0.604549 0.000000
1.000000 0.603119 0.000000
0.000000 0.696374 0.093948
0.000000 0.694944 0.092521
0.000000 0.693514 0.091093
0.000000 0.692084 0.089666
0.019923 0.690654 0.088238
0.061193 0.689224 0.086811
0.102462 0.687794 0.085383
0.143732 0.686364 0.083956
0.185002 0.684934 0.082528
0.226272 0.683504 0.081101
0.267542 0.682074 0.079673
0.309215 0.680657 0.075916
0.354899 0.679370 0.049012
0.400582 0.678084 0.022109
0.446266 0.676798 0.000000
0.491950 0.675511 0.000000
0.537633 0.674225 0.000000
0.583317 0.672939 0.000000
0.633008 0.671783 0.000000
0.674730 0.670268 0.000000
0.720913 0.667915 0.000000
0.767096 0.665563 0.000000
0.813279 0.663211 0.000000
0.859462 0.660858 0.000000
0.905645 0.658506 0.000000
0.951829 0.656153 0.000000
0.998012 0.653801 0.000000
1.000000 0.651448 0.000000
1.000000 0.649096 0.000000
1.000000 0.647198 0.000000
1.000000 0.645768 0.000000
1.000000 0.644338 0.000000
1.000000 0.642908 0.000000
0.000000 0.736163 0.088913
0.000000 0.734732 0.087486
0.000000 0.733302 0.086058
0.000000 0.731872 0.084631
0.014888 0.730442 0.083203
0.056157 0.729012 0.081776
0.097427 0.727582 0.080348
0.138697 0.726152 0.078921
0.179967 0.724722 0.077493
0.221237 0.723292 0.076066
0.262507 0.721862 0.074638
0.303777 0.720432 0.073211
0.345231 0.719008 0.070721
0.390914 0.717722 0.043817
0.436598 0.716435 0.016913
0.482281 0.715149 0.000000
0.527965 0.713863 0.000000
0.573648 0.712576 0.000000
0.619332 0.711290 0.000000
0.669243 0.710141 0.000000
0.710720 0.708672 0.000000
0.756903 0.706320 0.000000
0.803086 0.703967 0.000000
0.849269 0.701615 0.000000
0.895453 0.699263 0.000000
0.941636 0.696910 0.000000
0.987819 0.694558 0.000000
1.000000 0.692205 0.000000
1.000000 0.689853 0.000000
1.000000 0.687500 0.000000
1.000000 0.685556 0.000000
1.000000 0.684126 0.000000
1.000000 0.682696 0.000000
0.000000 0.775951 0.083878
0.000000 0.774521 0.082451
0.000000 0.773091 0.081023
0.000000 0.771661 0.079596
0.009852 0.770231 0.078168
0.051122 0.768801 0.076741
0.092392 0.767371 0.075313
0.133662 0.765941 0.073886
0.174932 0.764511 0.072458
0.216202 0.763081 0.071031
0.257472 0.761651 0.069603
0.298741 0.760221 0.068176
0.340011 0.758791 0.066748
0.381281 0.757361 0.065321
0.426929 0.756073 0.038621
0.472613 0.754787 0.011718
0.518296 0.753500 0.000000
0.563980 0.752214 0.000000
0.609664 0.750928 0.000000
0.655347 0.749641 0.000000
0.705478 0.748500 0.000000
0.746748 0.747070 0.000000
0.792894 0.744724 0.000000
0.839077 0.742372 0.000000
0.885260 0.740019 0.000000
0.931443 0.737667 0.000000
0.977626 0.735314 0.000000
1.000000 0.732962 0.000000
1.000000 0.730610 0.000000
1.000000 0.728257 0.000000
1.000000 0.725905 0.000000
1.000000 0.723915 0.000000
1.000000 0.722485 0.000000
0.000000 0.815740 0.078843
0.000000 0.814310 0.077416
0.000000 0.812880 0.075988
0.000000 0.811450 0.074561
0.004817 0.810019 0.073133
0.046087 0.808589 0.071706
0.087357 0.807159 0.070278
0.128627 0.805729 0.068851
0.169897 0.804299 0.067423
0.211167 0.802869 0.065996
0.252437 0.801439 0.064568
0.293706 0.800009 0.063141
0.334976 0.798579 0.061713
0.376246 0.797149 0.060286
0.417516 0.795719 0.058858
0.462945 0.794424 0.033426
0.508628 0.793138 0.006522
0.554312 0.791852 0.000000
0.599995 0.790565 0.000000
0.645679 0.789279 0.000000
0.691362 0.787993 0.000000
0.741712 0.786858 0.000000
0.782982 0.785428 0.000000
0.828884 0.783129 0.000000
0.875067 0.780776 0.000000
0.921250 0.778424 0.000000
0.967433 0.776071 0.000000
1.000000 0.773719 0.000000
1.000000 0.771366 0.000000
1.000000 0.769014 0.000000
1.000000 0.766662 0.000000
1.000000 0.764309 0.000000
1.000000 0.762273 0.000000
0.000000 0.855528 0.073808
0.000000 0.854098 0.072380
0.000000 0.852668 0.070953
0.000000 0.851238 0.069525
0.000000 0.849808 0.068098
0.041052 0.848378 0.066670
0.082322 0.846948 0.065243
0.123592 0.845518 0.063815
0.164862 0.844088 0.062388
0.206132 0.842658 0.060960
0.247401 0.841228 0.059533
0.288671 0.839798 0.058105
0.329941 0.838368 0.056678
0.371211 0.836938 0.055250
0.412481 0.835508 0.053823
0.453751 0.834078 0.052395
0.498960 0.832776 0.028230
0.544643 0.831489 0.001327
0.590327 0.830203 0.000000
0.636010 0.828917 0.000000
0.681694 0.827630 0.000000
0.736677 0.826647 0.000000
0.777947 0.825217 0.000000
0.819217 0.823787 0.000000
0.864874 0.821533 0.000000
0.911057 0.819181 0.000000
0.957241 0.816828 0.000000
1.000000 0.814476 0.000000
1.000000 0.812123 0.000000
1.000000 0.809771 0.000000
1.000000 0.807418 0.000000
1.000000 0.805066 0.000000
1.000000 0.802714 0.000000
0.000000 0.895317 0.068773
0.000000 0.893887 0.067345
0.000000 0.892457 0.065918
0.000000 0.891027 0.064490
0.000000 0.889597 0.063063
0.036017 0.888167 0.061635
0.077287 0.886737 0.060208
0.118557 0.885307 0.058780
0.159827 0.883876 0.057353
0.201096 0.882446 0.055925
0.242366 0.881016 0.054498
0.283636 0.879586 0.053070
0.324906 0.878156 0.051643
0.366176 0.876726 0.050215
0.407446 0.875296 0.048788
0.448716 0.873866 0.047360
0.489986 0.872436 0.045933
0.534975 0.871127 0.023035
0.580659 0.869841 0.000000
0.626342 0.868555 0.000000
0.672026 0.867268 0.000000
0.717709 0.865982 0.000000
0.772912 0.865005 0.000000
0.814182 0.863575 0.000000
0.855452 0.862145 0.000000
0.900865 0.859937 0.000000
0.947048 0.857585 0.000000
0.993231 0.855233 0.000000
1.000000 0.852880 0.000000
1.000000 0.850528 0.000000
1.000000 0.848175 0.000000
1.000000 0.845823 0.000000
1.000000 0.843470 0.000000
0.000000 0.935105 0.063738
0.000000 0.933675 0.062310
0.000000 0.932245 0.060883
0.000000 0.930815 0.059455
0.000000 0.929385 0.058028
0.030982 0.927955 0.056600
0.072252 0.926525 0.055173
0.113522 0.925095 0.053745
0.154791 0.923665 0.052318
0.196061 0.922235 0.050890
0.237331 0.920805 0.049463
0.278601 0.919375 0.048035
0.319871 0.917945 0.046608
0.361141 0.916515 0.045180
0.402411 0.915085 0.043753
0.443681 0.913655 0.042325
0.484950 0.912225 0.040898
0.526220 0.910795 0.039470
0.570990 0.909479 0.017839
0.616674 0.908192 0.000000
0.662357 0.906906 0.000000
0.708041 0.905620 0.000000
0.753725 0.904333 0.000000
0.809147 0.903364 0.000000
0.850417 0.901934 0.000000
0.891687 0.900504 0.000000
0.936855 0.898342 0.000000
0.983038 0.895989 0.000000
1.000000 0.893637 0.000000
1.000000 0.891285 0.000000
1.000000 0.888932 0.000000
1.000000 0.886580 0.000000
1.000000 0.884227 0.000000
0.000000 0.974894 0.058703
0.000000 0.973464 0.057275
0.000000 0.972034 0.055848
0.000000 0.970604 0.054420
0.000000 0.969174 0.052993
0.025947 0.967744 0.051565
0.067217 0.966314 0.050138
0.108486 0.964884 0.048710
0.149756 0.963454 0.047283
0.191026 0.962024 0.045855
0.232296 0.960594 0.044428
0.273566 0.959164 0.043000
0.314836 0.957733 0.041573
0.356106 0.956303 0.040145
0.397376 0.954873 0.038718
0.438645 0.953443 0.037290
0.479915 0.952013 0.035863
0.521185 0.950583 0.034435
0.562455 0.949153 0.033008
0.607006 0.947830 0.012644
0.652689 0.946544 0.000000
0.698373 0.945257 0.000000
0.744056 0.943971 0.000000
0.789740 0.942685 0.000000
0.845382 0.941722 0.000000
0.886651 0.940292 0.000000
0.927921 0.938862 0.000000
0.972846 0.936746 0.000000
1.000000 0.934394 0.000000
1.000000 0.932041 0.000000
1.000000 0.929689 0.000000
1.000000 0.927337 0.000000
1.000000 0.924984 0.000000
0.000000 1.000000 0.053668
0.000000 1.000000 0.052240
0.000000 1.000000 0.050813
0.000000 1.000000 0.049385
0.000000 1.000000 0.047958
0.020912 1.000000 0.046530
0.062181 1.000000 0.045103
0.103451 1.000000 0.043675
0.144721 1.000000 0.042248
0.185991 1.000000 0.040820
0.227261 1.000000 0.039393
0.268531 0.998952 0.037965
0.309801 0.997522 0.036538
0.351071 0.996092 0.035110
0.392340 0.994662 0.033683
0.433610 0.993232 0.032255
0.474880 0.991802 0.030828
0.516150 0.990372 0.029400
0.557420 0.988942 0.027973
0.598690 0.987512 0.026545
0.643021 0.986181 0.007448
0.688704 0.984895 0.000000
0.734388 0.983609 0.000000
0.780071 0.982322 0.000000
0.825755 0.981036 0.000000
0.881616 0.980081 0.000000
