Resources/LUTs/Fuji_400H_Linear.cube
TITLE "Fuji Pro 400H Accurate (Generated)"
# Accurately modeled from film characteristics
# Fourth color layer (cyan interlayer) simulation
# Color Space: Linear RGB
LUT_3D_SIZE 9
DOMAIN_MIN 0.0 0.0 0.0
DOMAIN_MAX 1.0 1.0 1.0
0.001703 0.001935 0.002167
0.106674 0.044644 0.006246
0.193799 0.048608 0.009618
0.288249 0.042313 0.011324
0.380763 0.034762 0.012855
0.480287 0.012711 0.013201
0.567607 0.014681 0.015207
0.655412 0.016738 0.017299
0.744099 0.018897 0.019492
0.006315 0.104021 0.011466
0.054837 0.116161 0.004822
0.213162 0.213566 0.006686
0.304060 0.203717 0.009122
0.378450 0.194860 0.013176
0.436054 0.156873 0.019453
0.509765 0.168522 0.023399
0.583758 0.180208 0.027488
0.667393 0.188412 0.030247
0.010239 0.186917 0.013130
0.075069 0.206809 0.007769
0.130522 0.214584 0.006686
0.305304 0.308713 0.008715
0.396929 0.294241 0.010765
0.458506 0.238211 0.016060
0.534117 0.249691 0.019636
0.609665 0.261644 0.023403
0.685593 0.273988 0.027378
0.015943 0.265431 0.015434
0.096096 0.294017 0.010687
0.155505 0.308713 0.008715
0.223100 0.308713 0.008715
0.396929 0.390635 0.010765
0.475729 0.319925 0.013766
0.552762 0.329935 0.017070
0.629628 0.340989 0.020575
0.706791 0.352808 0.024295
0.024786 0.339449 0.019807
0.116566 0.376945 0.013587
0.180789 0.395669 0.011087
0.252832 0.398303 0.010765
0.323575 0.398303 0.010765
0.480287 0.401945 0.013201
0.567607 0.409619 0.015207
0.646042 0.418988 0.018443
0.724205 0.429655 0.021959
0.042549 0.404364 0.025389
0.152853 0.459562 0.016094
0.230734 0.481172 0.013248
0.317788 0.481552 0.013201
0.400575 0.481552 0.013201
0.480287 0.481552 0.013201
0.567607 0.489326 0.015207
0.655412 0.497199 0.017299
0.739276 0.505885 0.020071
0.049796 0.477334 0.029466
0.164497 0.537432 0.019327
0.242550 0.560877 0.016174
0.325197 0.568720 0.015207
0.408258 0.568720 0.015207
0.488073 0.568720 0.015207
0.567607 0.568720 0.015207
0.655412 0.576620 0.017299
0.744099 0.584697 0.019492
0.057213 0.550734 0.033664
0.176222 0.615374 0.022715
0.254729 0.640516 0.019266
0.332630 0.656341 0.017299
0.415999 0.656341 0.017299
0.495959 0.656341 0.017299
0.575523 0.656341 0.017299
0.655412 0.656341 0.017299
0.744099 0.664395 0.019492
0.064844 0.624907 0.038009
0.188082 0.693814 0.026274
0.267226 0.720549 0.022537
0.342702 0.740929 0.019959
0.423845 0.744817 0.019492
0.503983 0.744817 0.019492
0.583615 0.744817 0.019492
0.663484 0.744817 0.019492
0.744099 0.744817 0.019492
0.004154 0.009986 0.118561
0.062113 0.004429 0.118561
0.213162 0.006342 0.201188
0.307275 0.008320 0.194131
0.396929 0.010323 0.183633
0.480287 0.012711 0.141389
0.567607 0.014681 0.147242
0.655412 0.016738 0.153090
0.744099 0.018897 0.158985
0.004739 0.107725 0.114646
0.134601 0.136009 0.140992
0.242845 0.150197 0.151926
0.346291 0.160424 0.162186
0.448311 0.167639 0.169429
0.548804 0.173458 0.175270
0.651017 0.178430 0.180260
0.755627 0.182765 0.184612
0.863134 0.186595 0.188456
0.006008 0.214584 0.138232
0.164106 0.234784 0.158888
0.242923 0.244362 0.151992
0.337796 0.261773 0.167838
0.427306 0.281988 0.181814
0.524071 0.294595 0.188479
0.623428 0.304560 0.193801
0.725266 0.313079 0.198449
0.830056 0.320548 0.202562
0.008107 0.307272 0.143067
0.187537 0.327456 0.175243
0.258850 0.344867 0.164146
0.346405 0.347823 0.162246
0.443701 0.363084 0.172178
0.532782 0.380258 0.183769
0.622376 0.398005 0.194331
0.713228 0.415705 0.204141
0.805864 0.433189 0.213378
0.011133 0.388062 0.139881
0.206871 0.417675 0.187982
0.279231 0.437948 0.176276
0.360444 0.449755 0.169485
0.448444 0.449755 0.169485
0.547962 0.463848 0.175829
0.639138 0.479490 0.186053
0.731516 0.496251 0.195552
0.825645 0.513449 0.204496
0.015008 0.459664 0.128377
0.223912 0.505803 0.198843
0.298199 0.528671 0.186620
0.375384 0.546164 0.177348
0.462416 0.550101 0.175323
0.548953 0.550101 0.175323
0.651182 0.564326 0.180310
0.747352 0.578911 0.188386
0.842764 0.595026 0.197083
0.018137 0.537544 0.131292
0.239730 0.594862 0.208630
0.316201 0.620200 0.195942
0.393439 0.639561 0.186316
0.474579 0.652121 0.180310
0.563205 0.652121 0.180310
0.651182 0.652121 0.180310
0.755807 0.666678 0.184659
0.858441 0.680723 0.190509
0.021427 0.615494 0.134667
0.254681 0.685523 0.217628
0.333414 0.713251 0.204512
0.411281 0.734418 0.194561
0.489312 0.751795 0.186727
0.575922 0.756496 0.184659
0.665772 0.756496 0.184659
0.755807 0.756496 0.184659
0.863329 0.771434 0.188500
0.024893 0.693941 0.138399
0.268990 0.778270 0.226016
0.349998 0.808337 0.212500
0.428809 0.831271 0.202246
0.506882 0.850087 0.194172
0.587441 0.863730 0.188500
0.679020 0.863730 0.188500
0.770783 0.863730 0.188500
0.863329 0.863730 0.188500
0.006008 0.012048 0.216011
0.077709 0.006342 0.216011
0.141718 0.006342 0.216011
0.307275 0.008320 0.298111
0.396929 0.010323 0.285775
0.480287 0.012711 0.233357
0.567607 0.014681 0.240226
0.655412 0.016738 0.247094
0.744099 0.018897 0.254018
0.008120 0.120275 0.200843
0.148866 0.150197 0.245728
0.242845 0.150197 0.245728
0.346291 0.160424 0.258766
0.448311 0.167639 0.269570
0.548804 0.173458 0.278357
0.651017 0.178430 0.285936
0.755627 0.182765 0.292611
0.863134 0.186595 0.298574
0.006923 0.200791 0.209033
0.150162 0.242566 0.244010
0.260444 0.261888 0.263336
0.369173 0.274887 0.276336
0.474862 0.284739 0.286187
0.578638 0.292649 0.294096
0.683942 0.299384 0.300829
0.792496 0.307280 0.306121
0.903547 0.314884 0.310954
0.008084 0.307458 0.232804
0.160944 0.344782 0.255226
0.290205 0.361275 0.284270
0.369173 0.370573 0.276336
0.466000 0.388458 0.292822
0.558927 0.408509 0.307607
0.662010 0.420765 0.314638
0.768393 0.432269 0.320182
0.877323 0.442862 0.325250
0.009892 0.398303 0.239138
0.173013 0.437851 0.260048
0.315035 0.456543 0.301099
0.385665 0.472759 0.288699
0.474862 0.476135 0.286187
0.573196 0.490575 0.297764
0.666469 0.508596 0.311780
0.761780 0.528597 0.324151
0.858432 0.549223 0.335942
0.012276 0.481172 0.232945
0.183310 0.528564 0.265262
0.336741 0.549176 0.315354
0.406981 0.567399 0.302491
0.487706 0.579729 0.294096
0.578638 0.579729 0.294096
0.681630 0.593186 0.302256
0.778295 0.609726 0.314330
0.876267 0.628400 0.325840
0.015099 0.560877 0.232988
0.192593 0.620084 0.270235
0.356753 0.642462 0.328132
0.427892 0.662595 0.314851
0.504222 0.679137 0.304348
0.591712 0.684806 0.300829
0.683942 0.684806 0.300829
0.792496 0.697899 0.306121
0.892599 0.713215 0.316847
0.018093 0.640516 0.234343
0.201131 0.713127 0.274830
0.379158 0.738103 0.339229
0.451829 0.760098 0.325580
0.527529 0.778156 0.314783
0.607049 0.793090 0.306121
0.700689 0.793090 0.306121
0.792496 0.791146 0.306121
0.903547 0.804627 0.310954
0.021271 0.720549 0.236629
0.209091 0.808204 0.279036
0.401272 0.835396 0.349735
0.475628 0.859205 0.335736
0.551442 0.878740 0.324662
0.629287 0.895629 0.315373
0.717062 0.903834 0.310954
0.812107 0.903834 0.310954
0.903547 0.899560 0.310954
0.007935 0.013287 0.310156
0.093365 0.008320 0.310156
0.165198 0.008320 0.310156
0.235035 0.008320 0.310156
0.396929 0.010323 0.380321
0.480287 0.012711 0.320660
0.567607 0.014681 0.328062
0.655412 0.016738 0.335487
0.744099 0.018897 0.342988
0.009966 0.131602 0.294395
0.159073 0.160424 0.349131
0.255876 0.160424 0.349131
0.346291 0.160424 0.349131
0.448311 0.167639 0.363153
0.548804 0.173458 0.374620
0.651017 0.178430 0.384564
0.755627 0.182765 0.393374
0.863134 0.186595 0.401294
0.010314 0.210343 0.291933
0.162444 0.256681 0.343887
0.273442 0.274887 0.371976
0.369173 0.274887 0.371976
0.474862 0.284739 0.384894
0.578638 0.292649 0.395342
0.683942 0.299384 0.404305
0.792496 0.304677 0.434382
0.903547 0.309512 0.466045
0.009160 0.292235 0.300347
0.161421 0.344042 0.345466
0.274843 0.368910 0.370315
0.385073 0.386459 0.387848
0.493255 0.398461 0.399837
0.599261 0.408074 0.409440
0.708000 0.418139 0.416623
0.818144 0.427671 0.423391
0.930876 0.437171 0.429445
0.010403 0.393982 0.321890
0.166275 0.449622 0.363153
0.285808 0.472759 0.380742
0.414280 0.485359 0.407979
0.493255 0.494499 0.399837
0.590221 0.511765 0.416704
0.689625 0.532272 0.430258
0.797987 0.545941 0.437262
0.908975 0.558426 0.443535
0.012232 0.481552 0.320660
0.174080 0.546054 0.369872
0.299605 0.567399 0.385152
0.439691 0.581227 0.424971
0.509204 0.596638 0.412381
0.599261 0.600311 0.409440
0.701804 0.614875 0.421169
0.799344 0.634476 0.436314
0.898282 0.656287 0.450584
0.014165 0.568720 0.328062
0.183008 0.639441 0.372416
0.311974 0.662595 0.390492
0.466490 0.678849 0.439150
0.535073 0.695858 0.426205
0.614935 0.708807 0.416623
0.708000 0.707129 0.416623
0.814924 0.720489 0.425576
0.915078 0.738167 0.439562
0.016187 0.656341 0.335487
0.191218 0.734289 0.375648
0.322712 0.760098 0.389617
0.492306 0.776989 0.452678
0.561192 0.795530 0.439398
0.636626 0.811570 0.428237
0.725684 0.818670 0.423391
0.818144 0.815137 0.423391
0.930790 0.828329 0.429500
0.018766 0.740929 0.339006
0.198874 0.831134 0.379083
0.332880 0.859205 0.388674
0.518306 0.876830 0.465325
0.588068 0.896867 0.451731
0.662318 0.914191 0.440304
0.743007 0.930044 0.430106
0.839249 0.931083 0.429445
0.930876 0.925018 0.429445
0.009892 0.014232 0.399679
0.108220 0.010323 0.399679
0.186663 0.010323 0.399679
0.262124 0.010323 0.399679
0.334294 0.010323 0.399679
0.480287 0.012711 0.403317
0.567607 0.014681 0.410983
0.655412 0.016738 0.418706
0.744099 0.018897 0.426534
0.011772 0.138904 0.384504
0.166275 0.167639 0.450936
0.266676 0.167639 0.450936
0.360335 0.167639 0.450936
0.448311 0.167639 0.450936
0.548804 0.173458 0.464873
0.651017 0.178430 0.477005
0.755627 0.182765 0.487797
0.863134 0.186595 0.497541
0.013591 0.219175 0.371398
0.168079 0.268476 0.447743
0.283295 0.284739 0.477409
0.382114 0.284739 0.477409
0.474862 0.284739 0.477409
0.578638 0.292649 0.490214
0.683942 0.299384 0.501257
0.792496 0.304677 0.535363
0.903547 0.309512 0.571126
0.012473 0.299553 0.379287
0.174419 0.355649 0.436783
0.286749 0.383069 0.472784
0.397087 0.398461 0.495746
0.493255 0.398461 0.495746
0.599261 0.408074 0.507611
0.708000 0.415266 0.540633
0.818144 0.422042 0.572606
0.930876 0.428104 0.610377
0.011411 0.380244 0.387277
0.169561 0.443825 0.445146
0.285914 0.472617 0.473897
0.398531 0.492867 0.494116
0.507804 0.507676 0.508892
0.616160 0.519440 0.519387
0.725641 0.530824 0.528439
0.837051 0.542024 0.536424
0.950972 0.553166 0.543574
0.012996 0.475199 0.398666
0.172084 0.549952 0.464873
0.291206 0.579729 0.490214
0.409659 0.596638 0.503079
0.536505 0.608095 0.527646
0.616160 0.616578 0.519387
0.716142 0.633928 0.536350
0.819393 0.654355 0.550147
0.931806 0.668969 0.557504
0.014204 0.568386 0.410797
0.177049 0.651956 0.477005
0.301463 0.679137 0.494392
0.423516 0.695858 0.499865
0.565758 0.707284 0.544537
0.634993 0.722312 0.531841
0.725641 0.724563 0.528439
0.830298 0.739114 0.541628
0.931084 0.760010 0.558037
0.016187 0.656341 0.418706
0.183417 0.751663 0.482182
0.311905 0.778156 0.488428
0.436742 0.795530 0.499343
0.594840 0.807461 0.560080
0.662148 0.823818 0.547073
0.743124 0.837526 0.536424
0.837051 0.833773 0.536424
0.947128 0.847505 0.546339
0.018313 0.744817 0.426534
0.190831 0.849946 0.483619
0.321793 0.878740 0.483899
0.449108 0.896867 0.498056
0.624059 0.909237 0.574599
0.691175 0.926890 0.561301
0.767574 0.943044 0.549416
0.858261 0.951121 0.543574
0.950972 0.944773 0.543574
0.012232 0.012711 0.482819
0.138387 0.012711 0.482819
0.230485 0.012711 0.482819
0.317788 0.012711 0.482819
0.400575 0.012711 0.482819
0.480287 0.012711 0.482819
0.567607 0.014681 0.490580
0.655412 0.016738 0.498441
0.744099 0.018897 0.506439
0.013818 0.139903 0.469942
0.172084 0.173458 0.551102
0.275464 0.173458 0.551102
0.371821 0.173458 0.551102
0.462288 0.173458 0.551102
0.548804 0.173458 0.551102
0.651017 0.178430 0.565305
0.755627 0.182765 0.577978
0.863134 0.186595 0.589456
0.015870 0.225861 0.454774
0.172459 0.277058 0.550367
0.291206 0.292649 0.580822
0.392582 0.292649 0.580822
0.487706 0.292649 0.580822
0.578638 0.292649 0.580822
0.683942 0.299384 0.593844
0.792496 0.304677 0.631513
0.903547 0.309512 0.670895
0.016327 0.304463 0.451587
0.178959 0.370898 0.537876
0.292693 0.394313 0.578617
0.406711 0.408074 0.601362
0.505160 0.408074 0.601362
0.599261 0.408074 0.601362
0.708000 0.415266 0.637750
0.818144 0.422042 0.672858
0.930876 0.428104 0.714156
0.015046 0.385678 0.460685
0.180748 0.453926 0.534513
0.299956 0.483742 0.568009
0.410102 0.506083 0.597147
0.516976 0.524133 0.618190
0.607616 0.518181 0.618190
0.725641 0.527248 0.655345
0.837051 0.535247 0.691128
0.950972 0.542410 0.733509
0.013999 0.467253 0.468542
0.176218 0.541925 0.543090
0.294924 0.574227 0.575330
0.409454 0.596892 0.597950
0.518483 0.615511 0.612123
0.628959 0.626495 0.627419
0.739477 0.639417 0.637740
0.851844 0.652112 0.646850
0.966661 0.664727 0.655016
0.015250 0.559640 0.483562
0.177829 0.650296 0.564209
0.297943 0.684806 0.593844
0.413911 0.708807 0.603678
0.529473 0.722312 0.613393
0.658132 0.730897 0.646313
0.739477 0.738969 0.637740
0.841957 0.756666 0.655280
0.948971 0.777945 0.669190
0.016562 0.653129 0.496474
0.181378 0.756316 0.577978
0.303237 0.793090 0.594812
0.425553 0.811570 0.598091
0.544761 0.823818 0.610520
0.690043 0.832722 0.663687
0.760397 0.847931 0.650552
0.851844 0.849159 0.646850
0.959481 0.864353 0.660729
0.018313 0.744817 0.506439
0.185203 0.863536 0.589456
0.312496 0.895629 0.585774
0.437651 0.914191 0.591707
0.559041 0.926890 0.608357
0.722049 0.936060 0.679906
0.789969 0.952456 0.666488
0.872295 0.966762 0.655016
0.966661 0.961069 0.655016
0.014165 0.014681 0.569834
0.144206 0.014681 0.569834
0.237347 0.014681 0.569834
0.325197 0.014681 0.569834
0.408258 0.014681 0.569834
0.488073 0.014681 0.569834
0.567607 0.014681 0.569834
0.655412 0.016738 0.577719
0.744099 0.018897 0.585779
0.015546 0.146091 0.558381
0.177049 0.178430 0.652896
0.283043 0.178430 0.652896
0.381783 0.178430 0.652896
0.474456 0.178430 0.652896
0.563061 0.178430 0.652896
0.651017 0.178430 0.652896
0.755627 0.182765 0.667426
0.863134 0.186595 0.680618
0.017719 0.234945 0.541744
0.177049 0.284487 0.652896
0.297943 0.299384 0.685671
0.401564 0.299384 0.685671
0.498784 0.299384 0.685671
0.591712 0.299384 0.685671
0.683942 0.299384 0.685671
0.792496 0.304677 0.726660
0.903547 0.309512 0.769410
0.019454 0.312692 0.529494
0.182699 0.382754 0.641047
0.297943 0.402933 0.685671
0.413911 0.428913 0.709614
0.498095 0.415266 0.709614
0.591436 0.415266 0.709614
0.684119 0.415266 0.709614
0.818144 0.422042 0.771865
0.930876 0.428104 0.816418
0.018426 0.391066 0.536655
0.188169 0.467818 0.629894
0.304963 0.498538 0.674456
0.415041 0.530155 0.708078
0.526059 0.544230 0.727170
0.604735 0.527248 0.727170
0.699429 0.527248 0.727170
0.837051 0.535247 0.792048
0.950972 0.542410 0.837453
0.017256 0.470176 0.545164
0.186199 0.551547 0.633876
0.308467 0.583516 0.668955
0.422867 0.620716 0.697561
0.529394 0.642135 0.723181
0.635794 0.649318 0.740937
0.721803 0.636767 0.740937
0.851844 0.645897 0.796460
0.966661 0.654081 0.842306
0.016235 0.551789 0.552936
0.181986 0.641560 0.642523
0.302698 0.677163 0.678045
0.417906 0.703383 0.691894
0.528961 0.722924 0.710159
0.637381 0.738480 0.730090
0.750986 0.747750 0.748327
0.864121 0.761849 0.758527
0.979652 0.775845 0.767677
0.017586 0.644607 0.568312
0.183142 0.752290 0.664550
0.303593 0.792469 0.686422
0.420695 0.818670 0.699017
0.534072 0.837526 0.714616
0.648662 0.847931 0.727792
0.782113 0.854928 0.767446
0.864121 0.862670 0.758527
0.969361 0.881499 0.776607
0.019007 0.738880 0.581893
0.185203 0.863536 0.680618
0.308074 0.903834 0.686707
0.427426 0.930044 0.697077
0.547112 0.943044 0.705853
0.664671 0.952456 0.722902
0.816659 0.959607 0.785286
0.887882 0.975129 0.771653
0.979652 0.975369 0.767677
0.016187 0.016738 0.657271
0.150024 0.016738 0.657271
0.244210 0.016738 0.657271
0.332630 0.016738 0.657271
0.415999 0.016738 0.657271
0.495959 0.016738 0.657271
0.575523 0.016738 0.657271
0.655412 0.016738 0.657271
0.744099 0.018897 0.665307
0.017344 0.152057 0.647537
0.181378 0.182765 0.757005
0.289721 0.182765 0.757005
0.390611 0.182765 0.757005
0.485282 0.182765 0.757005
0.575783 0.182765 0.757005
0.665613 0.182765 0.757005
0.755627 0.182765 0.757005
0.863134 0.186595 0.771911
0.019637 0.243404 0.629538
0.181378 0.291164 0.757005
0.303237 0.317063 0.793684
0.393530 0.304677 0.793684
0.489731 0.304677 0.793684
0.581772 0.304677 0.793684
0.673186 0.304677 0.793684
0.764836 0.304677 0.793684
0.903547 0.309512 0.867710
0.021461 0.323604 0.616271
0.185834 0.392493 0.746925
0.303237 0.423994 0.793684
0.420695 0.448962 0.819195
0.491453 0.422042 0.819195
0.584035 0.422042 0.819195
0.676005 0.422042 0.819195
0.768226 0.422042 0.819195
0.930876 0.428104 0.918284
0.021993 0.397920 0.612557
0.191404 0.482208 0.734630
0.308595 0.523692 0.784428
0.420695 0.552563 0.819195
0.534072 0.567630 0.838000
0.596887 0.535247 0.838000
0.690367 0.535247 0.838000
0.784064 0.535247 0.838000
0.950972 0.542410 0.940925
0.020705 0.475254 0.621670
0.195451 0.562906 0.725900
0.315114 0.612094 0.773377
0.427574 0.648978 0.809193
0.534861 0.668162 0.836981
0.644945 0.675500 0.852711
0.711768 0.645897 0.852711
0.807655 0.645897 0.852711
0.966661 0.654081 0.946194
0.019577 0.554644 0.629989
0.191081 0.650948 0.735334
0.314464 0.700249 0.774469
0.432579 0.737226 0.802020
0.543268 0.760914 0.826221
0.648346 0.774896 0.848744
0.757157 0.776841 0.864919
0.837744 0.757842 0.864919
0.979652 0.767015 0.939303
0.018566 0.636775 0.637748
0.187087 0.743409 0.744131
0.309001 0.783114 0.769522
0.425872 0.811106 0.785857
0.538305 0.832063 0.805120
0.647993 0.848711 0.826286
0.758803 0.862749 0.849529
0.874514 0.872091 0.872338
0.990626 0.887403 0.882456
0.020024 0.730464 0.653494
0.187868 0.857056 0.767038
0.309622 0.900949 0.777103
0.426764 0.931083 0.791580
0.541248 0.951121 0.808215
0.653147 0.966762 0.827334
0.770350 0.975129 0.844610
0.909058 0.980741 0.891749
0.990626 0.988231 0.882456
0.018313 0.018897 0.745536
0.155890 0.018897 0.745536
0.251130 0.018897 0.745536
0.340140 0.018897 0.745536
0.423845 0.018897 0.745536
0.503983 0.018897 0.745536
0.583615 0.018897 0.745536
0.663484 0.018897 0.745536
0.744099 0.018897 0.745536
0.019227 0.157921 0.737773
0.185203 0.186595 0.863938
0.295686 0.186595 0.863938
0.398547 0.186595 0.863938
0.495056 0.186595 0.863938
0.587307 0.186595 0.863938
0.678867 0.186595 0.863938
0.770609 0.186595 0.863938
0.863134 0.186595 0.863938
0.021639 0.251491 0.718494
0.185203 0.297128 0.863938
0.308074 0.335310 0.904121
0.384435 0.309512 0.904121
0.479442 0.309512 0.904121
0.570438 0.309512 0.904121
0.660888 0.309512 0.904121
0.751630 0.309512 0.904121
0.843240 0.309512 0.904121
0.023551 0.333817 0.704270
0.188486 0.400752 0.855988
0.308074 0.445631 0.904121
0.426764 0.471826 0.931291
0.480789 0.428104 0.931291
0.572105 0.428104 0.931291
0.662878 0.428104 0.931291
0.753949 0.428104 0.931291
0.845894 0.428104 0.931291
0.025168 0.407210 0.692892
0.194145 0.494324 0.842571
0.311798 0.548677 0.897225
0.426764 0.578185 0.931291
0.541248 0.594201 0.951269
0.584734 0.542410 0.951269
0.676743 0.542410 0.951269
0.768997 0.542410 0.951269
0.862090 0.542410 0.951269
0.024360 0.481827 0.698512
0.199056 0.578511 0.831208
0.318412 0.641957 0.885169
0.431622 0.678476 0.923723
0.541248 0.696870 0.951269
0.653147 0.705149 0.966863
0.697995 0.654081 0.966863
0.791952 0.654081 0.966863
0.886685 0.654081 0.966863
0.023128 0.559528 0.707344
0.199626 0.661931 0.829906
0.324471 0.727940 0.874334
0.438976 0.770642 0.912428
0.548078 0.795403 0.941899
0.653795 0.807169 0.966054
0.766353 0.809161 0.979776
0.821492 0.767015 0.979776
0.918265 0.767015 0.979776
0.022021 0.639612 0.715579
0.195498 0.752702 0.839416
0.320045 0.822200 0.882229
0.439495 0.862607 0.911638
0.554207 0.885798 0.933594
0.662675 0.901343 0.955051
0.769820 0.909602 0.975810
0.881757 0.907239 0.990683
0.956121 0.882106 0.990683
0.021009 0.722600 0.723374
0.191661 0.847973 0.848418
0.314808 0.891384 0.860613
0.433084 0.921226 0.877403
0.546766 0.943518 0.897525
0.657606 0.961194 0.919790
0.769528 0.976071 0.944332
0.883441 0.988859 0.971067
1.000000 1.000000 1.000000
