Resources/LUTs/Fuji_Astia_100F_Linear.cube
TITLE "Fuji_Astia_100F_Linear_v2"
LUT_3D_SIZE 33
DOMAIN_MIN 0.0 0.0 0.0
DOMAIN_MAX 1.0 1.0 1.0
# Fuji Astia 100F (RDP III) Linear LUT v2.0
# ========================================
# Input/Output: Linear RGB
# 
# Film Characteristics:
# - Soft S-curve (lower contrast than Provia)
# - Excellent skin tone rendering (desaturated reds/oranges)
# - Subtle cyan bias in shadows
# - Clean, slightly warm highlights
# - High vibrance, moderate saturation
# - Muted greens with cyan shift
# 
# Usage: Apply in linear space pipeline
# sRGB -> Linear -> LUT -> Grain/Bloom -> Linear -> sRGB
0.002984 0.008984 0.023016
0.029530 0.014222 0.026917
0.053351 0.019105 0.031817
0.076001 0.022888 0.035576
0.105809 0.026742 0.039491
0.136677 0.029491 0.042288
0.168570 0.031137 0.043972
0.201449 0.031690 0.044550
0.231762 0.034673 0.047261
0.261347 0.038223 0.050482
0.290766 0.041752 0.053683
0.320003 0.045259 0.056861
0.349041 0.048742 0.060014
0.377869 0.052199 0.063141
0.406478 0.055629 0.066240
0.434863 0.059032 0.069311
0.463022 0.062407 0.072354
0.490959 0.065754 0.075369
0.518679 0.069075 0.078357
0.546190 0.072371 0.081319
0.573507 0.075642 0.084256
0.600645 0.078891 0.087171
0.627623 0.082121 0.090066
0.654462 0.085334 0.092943
0.681186 0.088533 0.095806
0.707820 0.091720 0.098658
0.734392 0.094900 0.101502
0.760930 0.098076 0.104342
0.809394 0.103944 0.109930
0.851894 0.109080 0.114770
0.880342 0.112490 0.117849
0.895739 0.114372 0.119546
0.900018 0.114898 0.119878
0.008835 0.034474 0.027287
0.032319 0.037384 0.027027
0.055379 0.043667 0.032292
0.076513 0.049243 0.037202
0.105391 0.055524 0.041622
0.135254 0.060849 0.045010
0.166069 0.065219 0.047368
0.197422 0.068902 0.049082
0.226241 0.074141 0.053191
0.254921 0.079354 0.057279
0.283441 0.084538 0.061340
0.311784 0.089688 0.065374
0.339933 0.094803 0.069376
0.367879 0.099880 0.073346
0.395612 0.104917 0.077281
0.423128 0.109914 0.081182
0.450425 0.114871 0.085048
0.477506 0.119787 0.088879
0.504376 0.124664 0.092676
0.531044 0.129504 0.096441
0.557523 0.134308 0.100175
0.583828 0.139080 0.103882
0.609978 0.143823 0.107564
0.635993 0.148542 0.111224
0.661897 0.153239 0.114867
0.687714 0.157920 0.118495
0.713470 0.162591 0.122114
0.739159 0.167272 0.125797
0.786029 0.175956 0.133086
0.827112 0.183565 0.139449
0.854556 0.188640 0.143625
0.869449 0.191383 0.145790
0.873565 0.192123 0.146227
0.014360 0.057330 0.032611
0.035377 0.060295 0.030504
0.056460 0.060596 0.029304
0.076360 0.064253 0.035448
0.105225 0.073068 0.039881
0.135075 0.079291 0.043282
0.165877 0.084557 0.045654
0.197358 0.088969 0.047239
0.226177 0.094209 0.051348
0.254857 0.099422 0.055436
0.283377 0.104606 0.059497
0.311720 0.109756 0.063531
0.339869 0.114871 0.067533
0.367815 0.119948 0.071503
0.395548 0.124985 0.075438
0.423064 0.129982 0.079339
0.450361 0.134939 0.083205
0.477442 0.139855 0.087036
0.504312 0.144732 0.090833
0.530980 0.149571 0.094598
0.557459 0.154376 0.098333
0.583764 0.159148 0.102039
0.609914 0.163891 0.105721
0.635929 0.168609 0.109381
0.661750 0.173348 0.113190
0.687434 0.178096 0.117084
0.713057 0.182833 0.120969
0.738648 0.187563 0.124848
0.785518 0.196247 0.132137
0.826601 0.203856 0.138500
0.854045 0.208931 0.142676
0.868938 0.211674 0.144841
0.873053 0.212414 0.145278
0.018811 0.079025 0.036789
0.039285 0.080987 0.033984
0.060915 0.081533 0.032472
0.078041 0.081259 0.031905
0.105090 0.086677 0.038154
0.134927 0.096173 0.041568
0.165717 0.102265 0.043951
0.197324 0.107419 0.045410
0.226144 0.112658 0.049520
0.254824 0.117872 0.053607
0.283344 0.123055 0.057669
0.311686 0.128206 0.061702
0.339836 0.133320 0.065704
0.367781 0.138397 0.069674
0.395514 0.143435 0.073610
0.423030 0.148432 0.077510
0.450327 0.153388 0.081376
0.477408 0.158304 0.085207
0.504278 0.163181 0.089004
0.530946 0.168021 0.092769
0.557425 0.172825 0.096504
0.583599 0.177663 0.100474
0.609616 0.182473 0.104421
0.635499 0.187257 0.108347
0.661269 0.192021 0.112255
0.686953 0.196769 0.116150
0.712577 0.201506 0.120034
0.738167 0.206236 0.123913
0.785037 0.214920 0.131203
0.826120 0.222529 0.137565
0.853564 0.227604 0.141741
0.868457 0.230347 0.143906
0.872573 0.231087 0.144344
0.023429 0.107663 0.041664
0.042963 0.109492 0.036831
0.061777 0.109133 0.036224
0.084696 0.110132 0.034289
0.107542 0.109815 0.033697
0.134675 0.114377 0.039816
0.165449 0.124832 0.042215
0.197139 0.131011 0.043590
0.226013 0.136258 0.047645
0.254693 0.141471 0.051733
0.283213 0.146655 0.055795
0.311555 0.151805 0.059828
0.339705 0.156920 0.063830
0.367651 0.161997 0.067800
0.395384 0.167034 0.071735
0.422900 0.172031 0.075636
0.450197 0.176988 0.079502
0.477231 0.181927 0.083427
0.503968 0.186871 0.087490
0.530503 0.191777 0.091520
0.556849 0.196648 0.095521
0.583022 0.201486 0.099493
0.609039 0.206296 0.103441
0.634921 0.211080 0.107367
0.660692 0.215844 0.111275
0.686376 0.220592 0.115169
0.711999 0.225329 0.119054
0.737589 0.230059 0.122933
0.784460 0.238743 0.130223
0.825543 0.246352 0.136585
0.852987 0.251427 0.140761
0.867880 0.254170 0.142926
0.872007 0.254920 0.143432
0.026999 0.137302 0.045592
0.045491 0.138998 0.038632
0.065194 0.138632 0.038032
0.090359 0.140101 0.035627
0.114201 0.139693 0.035005
0.138068 0.139390 0.034418
0.165180 0.143018 0.040479
0.196855 0.149243 0.041870
0.225883 0.159824 0.045771
0.254563 0.165038 0.049859
0.283083 0.170221 0.053920
0.311425 0.175372 0.057954
0.339575 0.180487 0.061956
0.367521 0.185564 0.065926
0.395159 0.190649 0.070052
0.422542 0.195712 0.074218
0.449706 0.200735 0.078350
0.476654 0.205718 0.082447
0.503391 0.210661 0.086510
0.529926 0.215567 0.090540
0.556272 0.220438 0.094541
0.582445 0.225276 0.098513
0.608462 0.230086 0.102461
0.634344 0.234871 0.106387
0.660115 0.239635 0.110295
0.685799 0.244382 0.114189
0.711422 0.249119 0.118074
0.737012 0.253849 0.121953
0.783883 0.262534 0.129243
0.824991 0.270163 0.135756
0.852473 0.275269 0.140161
0.867403 0.278043 0.142554
0.871556 0.278815 0.143219
0.029525 0.167911 0.048576
0.046873 0.169472 0.039388
0.067463 0.169098 0.038796
0.086396 0.168744 0.038213
0.119888 0.170656 0.035272
0.144725 0.170240 0.034659
0.169585 0.169951 0.034071
0.202337 0.176537 0.034385
0.225754 0.177249 0.043898
0.254434 0.188549 0.047985
0.282944 0.193738 0.052068
0.311153 0.198955 0.056367
0.339170 0.204136 0.060635
0.366982 0.209280 0.064871
0.394583 0.214384 0.069072
0.421966 0.219447 0.073239
0.449130 0.224470 0.077370
0.476078 0.229453 0.081467
0.502815 0.234396 0.085530
0.529350 0.239302 0.089561
0.555696 0.244173 0.093561
0.581869 0.249011 0.097533
0.607886 0.253821 0.101481
0.633768 0.258606 0.105407
0.659539 0.263370 0.109315
0.685224 0.268118 0.113216
0.710885 0.272886 0.117329
0.736513 0.277648 0.121436
0.783421 0.286363 0.128954
0.824541 0.294004 0.135544
0.852023 0.299110 0.139949
0.866954 0.301884 0.142341
0.871107 0.302655 0.143007
0.031013 0.199451 0.050616
0.047118 0.200877 0.039106
0.068592 0.200496 0.038521
0.088340 0.200135 0.037946
0.124526 0.202584 0.034467
0.150433 0.202159 0.033863
0.176235 0.201735 0.033259
0.201999 0.201490 0.032782
0.232131 0.205657 0.035713
0.253982 0.205239 0.046762
0.282369 0.209687 0.051089
0.310578 0.222614 0.055388
0.338595 0.227795 0.059657
0.366408 0.232938 0.063892
0.394008 0.238042 0.068093
0.421391 0.243106 0.072260
0.448555 0.248128 0.076391
0.475503 0.253111 0.080488
0.502240 0.258054 0.084551
0.528776 0.262960 0.088582
0.555122 0.267831 0.092582
0.581294 0.272670 0.096555
0.607326 0.277492 0.100592
0.633246 0.282308 0.104746
0.659055 0.287103 0.108882
0.684776 0.291882 0.113005
0.710437 0.296650 0.117117
0.736065 0.301412 0.121225
0.782973 0.310127 0.128742
0.824094 0.317767 0.135333
0.851575 0.322873 0.139737
0.866506 0.325648 0.142130
0.870659 0.326419 0.142796
0.034333 0.229026 0.054037
0.049465 0.229608 0.041363
0.070950 0.229292 0.040713
0.090738 0.228993 0.040076
0.115822 0.228693 0.039615
0.154153 0.231746 0.035866
0.180021 0.231462 0.035454
0.205805 0.231179 0.035042
0.231573 0.230985 0.034720
0.261005 0.234582 0.038188
0.281796 0.233236 0.050111
0.310006 0.237656 0.054410
0.338023 0.251357 0.058678
0.365835 0.256500 0.062914
0.393436 0.261604 0.067115
0.420819 0.266667 0.071282
0.447983 0.271690 0.075413
0.474931 0.276673 0.079510
0.501668 0.281616 0.083573
0.528231 0.286546 0.087776
0.554615 0.291448 0.092005
0.580825 0.296318 0.096205
0.606880 0.301159 0.100381
0.632800 0.305975 0.104535
0.658609 0.310770 0.108672
0.684330 0.315549 0.112794
0.709991 0.320317 0.116907
0.735619 0.325079 0.121014
0.782527 0.333794 0.128532
0.823648 0.341434 0.135122
0.851129 0.346541 0.139526
0.866060 0.349315 0.141919
0.870213 0.350086 0.142585
0.038572 0.257512 0.058241
0.051812 0.258087 0.044102
0.073164 0.257837 0.043718
0.092819 0.257605 0.043346
0.117877 0.257318 0.042936
0.157463 0.260816 0.038740
0.183331 0.260533 0.038328
0.209116 0.260250 0.037917
0.234796 0.259968 0.037506
0.260450 0.259786 0.037196
0.289717 0.263363 0.040643
0.309435 0.261089 0.053433
0.337452 0.265478 0.057701
0.365265 0.269836 0.061937
0.392865 0.285051 0.066138
0.420253 0.290118 0.070332
0.447455 0.295172 0.074692
0.474440 0.300186 0.079017
0.501215 0.305161 0.083308
0.527788 0.310098 0.087567
0.554171 0.315000 0.091795
0.580382 0.319870 0.095996
0.606436 0.324711 0.100172
0.632356 0.329527 0.104326
0.658165 0.334322 0.108462
0.683886 0.339101 0.112584
0.709547 0.343869 0.116697
0.735175 0.348631 0.120804
0.782083 0.357346 0.128322
0.823204 0.364986 0.134912
0.850686 0.370092 0.139317
0.865616 0.372867 0.141710
0.869769 0.373638 0.142375
0.042366 0.286048 0.063262
0.053855 0.286550 0.047400
0.075207 0.286300 0.047016
0.094862 0.286068 0.046644
0.119921 0.285781 0.046234
0.144944 0.285494 0.045824
0.186623 0.289440 0.041182
0.212408 0.289157 0.040771
0.238087 0.288875 0.040360
0.263642 0.288594 0.039950
0.289164 0.288426 0.039652
0.318248 0.291980 0.043077
0.336902 0.288798 0.056836
0.364753 0.293193 0.061300
0.392391 0.297554 0.065729
0.419811 0.313538 0.070124
0.447013 0.318592 0.074483
0.473999 0.323606 0.078808
0.500773 0.328581 0.083099
0.527346 0.333518 0.087358
0.553730 0.338420 0.091587
0.579940 0.343290 0.095787
0.605995 0.348131 0.099963
0.631915 0.352947 0.104117
0.657723 0.357742 0.108253
0.683445 0.362521 0.112376
0.709106 0.367289 0.116488
0.734734 0.372051 0.120596
0.781642 0.380766 0.128113
0.822762 0.388406 0.134704
0.850244 0.393512 0.139108
0.865175 0.396287 0.141501
0.869328 0.397058 0.142167
0.046136 0.314406 0.068247
0.055884 0.314835 0.050673
0.077237 0.314585 0.050289
0.096892 0.314352 0.049917
0.121950 0.314065 0.049506
0.146974 0.313779 0.049096
0.189893 0.318166 0.044013
0.215678 0.317883 0.043602
0.241358 0.317601 0.043191
0.266938 0.317346 0.042981
0.292380 0.317097 0.042808
0.317785 0.316972 0.042757
0.346702 0.320533 0.046391
0.375408 0.324067 0.049999
0.391952 0.320836 0.065522
0.419373 0.325163 0.069917
0.446575 0.329456 0.074276
0.473560 0.346879 0.078601
0.500335 0.351854 0.082892
0.526908 0.356791 0.087151
0.553291 0.361694 0.091380
0.579502 0.366563 0.095580
0.605556 0.371404 0.099756
0.631476 0.376220 0.103910
0.657285 0.381016 0.108046
0.683006 0.385795 0.112169
0.708667 0.390563 0.116281
0.734295 0.395324 0.120388
0.781203 0.404040 0.127906
0.822324 0.411680 0.134497
0.849806 0.416786 0.138901
0.864736 0.419560 0.141294
0.868889 0.420332 0.141959
0.049881 0.342571 0.073194
0.057899 0.342926 0.053917
0.079251 0.342676 0.053533
0.098906 0.342443 0.053162
0.123964 0.342156 0.052751
0.148998 0.341877 0.052391
0.174011 0.341625 0.052212
0.218993 0.346480 0.046929
0.244704 0.346229 0.046753
0.270289 0.345979 0.046579
0.295731 0.345730 0.046405
0.321014 0.345483 0.046232
0.346258 0.345371 0.046194
0.374964 0.348905 0.049802
0.403451 0.352413 0.053382
0.418937 0.348286 0.069711
0.446139 0.352578 0.074070
0.473124 0.356837 0.078395
0.499899 0.361062 0.082686
0.526472 0.379906 0.086945
0.552856 0.384809 0.091174
0.579066 0.389678 0.095374
0.605121 0.394519 0.099550
0.631041 0.399335 0.103704
0.656849 0.404131 0.107840
0.682571 0.408910 0.111963
0.708232 0.413678 0.116075
0.733860 0.418439 0.120183
0.780768 0.427155 0.127701
0.821888 0.434795 0.134291
0.849370 0.439901 0.138695
0.864300 0.442675 0.141088
0.868454 0.443447 0.141754
0.053598 0.370530 0.078100
0.059897 0.370811 0.057133
0.081277 0.370582 0.056883
0.100979 0.370383 0.056743
0.126085 0.370130 0.056564
0.151156 0.369878 0.056385
0.176169 0.369626 0.056207
0.222320 0.374905 0.050500
0.248030 0.374653 0.050324
0.273615 0.374403 0.050150
0.299057 0.374155 0.049976
0.324340 0.373907 0.049803
0.349451 0.373662 0.049632
0.374523 0.373562 0.049606
0.403010 0.377070 0.053186
0.431273 0.380550 0.056738
0.445706 0.375533 0.073866
0.472692 0.379791 0.078191
0.499467 0.384017 0.082482
0.526040 0.388210 0.086741
0.552423 0.407755 0.090969
0.578634 0.412625 0.095170
0.604688 0.417466 0.099346
0.630608 0.422282 0.103500
0.656417 0.427077 0.107636
0.682138 0.431857 0.111758
0.707799 0.436624 0.115871
0.733427 0.441386 0.119978
0.780335 0.450102 0.127496
0.821456 0.457742 0.134086
0.848938 0.462848 0.138491
0.863868 0.465622 0.140884
0.868021 0.466394 0.141549
0.057287 0.398277 0.083347
0.062019 0.398584 0.061000
0.083419 0.398369 0.060847
0.103121 0.398170 0.060707
0.128226 0.397917 0.060528
0.153297 0.397665 0.060350
0.178311 0.397413 0.060171
0.203244 0.397162 0.059994
0.251331 0.402861 0.053868
0.276916 0.402611 0.053694
0.302358 0.402362 0.053520
0.327641 0.402115 0.053347
0.352752 0.401870 0.053176
0.377680 0.401626 0.053006
0.402572 0.401539 0.052992
0.430835 0.405019 0.056544
0.458873 0.408471 0.060068
0.472263 0.402571 0.077988
0.499037 0.406796 0.082279
0.525610 0.410989 0.086538
0.551994 0.415153 0.090767
0.578204 0.419289 0.094967
0.604259 0.440238 0.099143
0.630179 0.445054 0.103297
0.655987 0.449849 0.107433
0.681709 0.454628 0.111556
0.707370 0.459396 0.115668
0.732998 0.464158 0.119776
0.779906 0.472873 0.127293
0.821027 0.480514 0.133884
0.848508 0.485620 0.138288
0.863439 0.488394 0.140681
0.867592 0.489165 0.141347
0.060947 0.425805 0.088831
0.064933 0.426153 0.065722
0.085543 0.425937 0.064780
0.105245 0.425739 0.064640
0.130351 0.425486 0.064461
0.155422 0.425234 0.064283
0.180435 0.424982 0.064105
0.205368 0.424731 0.063927
0.254606 0.430847 0.057384
0.280191 0.430597 0.057210
0.305633 0.430348 0.057036
0.330916 0.430101 0.056863
0.356027 0.429855 0.056692
0.380954 0.429612 0.056522
0.405692 0.429370 0.056353
0.430401 0.429296 0.056351
0.458439 0.432748 0.059875
0.486253 0.436173 0.063371
0.513851 0.439571 0.066839
0.525185 0.433590 0.086337
0.551569 0.437753 0.090566
0.577779 0.441889 0.094766
0.603833 0.446001 0.098942
0.629753 0.467647 0.103096
0.655562 0.472442 0.107232
0.681283 0.477221 0.111355
0.706944 0.481989 0.115467
0.732572 0.486750 0.119575
0.779480 0.495466 0.127092
0.820601 0.503106 0.133683
0.848083 0.508212 0.138087
0.863013 0.510986 0.140480
0.867166 0.511758 0.141146
0.064578 0.453114 0.094271
0.068835 0.453502 0.071418
0.087651 0.453286 0.068682
0.107353 0.453088 0.068542
0.132459 0.452835 0.068363
0.157530 0.452582 0.068184
0.182543 0.452331 0.068006
0.207476 0.452080 0.067829
0.232307 0.451830 0.067652
0.283440 0.458359 0.060698
0.308882 0.458110 0.060524
0.334165 0.457863 0.060351
0.359275 0.457618 0.060180
0.384203 0.457374 0.060010
0.408941 0.457132 0.059841
0.433484 0.456892 0.059673
0.458008 0.456831 0.059684
0.485823 0.460256 0.063179
0.513420 0.463654 0.066648
0.540810 0.467026 0.070090
0.551146 0.460173 0.090366
0.577356 0.464309 0.094567
0.603411 0.468421 0.098742
0.629331 0.472511 0.102897
0.655139 0.476584 0.107033
0.680861 0.499634 0.111155
0.706522 0.504401 0.115268
0.732150 0.509163 0.119375
0.779058 0.517879 0.126893
0.820178 0.525519 0.133483
0.847660 0.530625 0.137888
0.862591 0.533399 0.140280
0.866744 0.534171 0.140946
0.068180 0.480206 0.099668
0.072705 0.480633 0.077069
0.089742 0.480417 0.072553
0.109444 0.480219 0.072413
0.134549 0.479966 0.072234
0.159620 0.479714 0.072055
0.184634 0.479462 0.071877
0.209567 0.479211 0.071699
0.234398 0.478961 0.071523
0.286663 0.485901 0.064158
0.312105 0.485652 0.063984
0.337388 0.485405 0.063811
0.362498 0.485159 0.063640
0.387426 0.484916 0.063470
0.412164 0.484674 0.063301
0.436707 0.484434 0.063133
0.461055 0.484196 0.062967
0.485396 0.484147 0.062990
0.512993 0.487545 0.066458
0.540382 0.490918 0.069901
0.567577 0.494266 0.073318
0.576937 0.486551 0.094369
0.602992 0.490662 0.098544
0.628912 0.494753 0.102699
0.654720 0.498826 0.106835
0.680442 0.502885 0.110957
0.706103 0.526636 0.115070
0.731731 0.531397 0.119177
0.778639 0.540113 0.126695
0.819759 0.547753 0.133285
0.847241 0.552859 0.137690
0.862172 0.555633 0.140082
0.866325 0.556405 0.140748
0.071754 0.507085 0.105023
0.076546 0.507552 0.082675
0.091816 0.507336 0.076393
0.111518 0.507138 0.076253
0.136624 0.506885 0.076074
0.161695 0.506633 0.075896
0.186708 0.506381 0.075717
0.211641 0.506130 0.075540
0.236473 0.505880 0.075363
0.261183 0.505631 0.075187
0.315303 0.512978 0.067417
0.340586 0.512731 0.067245
0.365696 0.512486 0.067073
0.390624 0.512242 0.066903
0.415362 0.512000 0.066734
0.439905 0.511761 0.066567
0.464253 0.511523 0.066400
0.488406 0.511286 0.066235
0.512569 0.511250 0.066270
0.539959 0.514622 0.069712
0.567153 0.517971 0.073130
0.594168 0.521297 0.076525
0.602576 0.512730 0.098348
0.628496 0.516821 0.102502
0.654305 0.520894 0.106638
0.680026 0.524953 0.110761
0.705687 0.529002 0.114873
0.731315 0.533047 0.118981
0.778223 0.562173 0.126499
0.819344 0.569813 0.133089
0.846850 0.574920 0.137477
0.861880 0.577694 0.139804
0.866133 0.578465 0.140403
0.075300 0.533763 0.110337
0.080357 0.534268 0.088239
0.093875 0.534053 0.080205
0.113577 0.533855 0.080065
0.138683 0.533602 0.079886
0.163754 0.533349 0.079707
0.188767 0.533097 0.079529
0.213700 0.532846 0.079351
0.238531 0.532596 0.079175
0.263242 0.532348 0.078999
0.318476 0.540099 0.070825
0.343759 0.539852 0.070652
0.368870 0.539607 0.070481
0.393798 0.539363 0.070310
0.418536 0.539121 0.070141
0.443079 0.538881 0.069974
0.467426 0.538643 0.069808
0.491580 0.538407 0.069643
0.515545 0.538173 0.069479
0.539538 0.538149 0.069525
0.566732 0.541497 0.072943
0.593748 0.544823 0.076338
0.620603 0.548130 0.079714
0.628084 0.538722 0.102307
0.653892 0.542795 0.106444
0.679614 0.546854 0.110566
0.705275 0.550904 0.114678
0.730963 0.554948 0.118745
0.777971 0.562351 0.126197
0.819191 0.591708 0.132721
0.846772 0.596814 0.137059
0.861802 0.599588 0.139385
0.866055 0.600360 0.139984
0.078822 0.560250 0.115614
0.084142 0.560795 0.093764
0.095919 0.560579 0.083989
0.115621 0.560381 0.083849
0.140727 0.560128 0.083670
0.165798 0.559876 0.083492
0.190811 0.559624 0.083313
0.215744 0.559373 0.083136
0.240576 0.559123 0.082959
0.265286 0.558874 0.082783
0.321628 0.567027 0.074208
0.346910 0.566780 0.074035
0.372021 0.566534 0.073864
0.396949 0.566291 0.073693
0.421687 0.566049 0.073525
0.446230 0.565809 0.073357
0.470577 0.565571 0.073191
0.494731 0.565335 0.073026
0.518696 0.565100 0.072862
0.542481 0.564868 0.072700
0.566315 0.564856 0.072757
0.593330 0.568182 0.076153
0.620185 0.571489 0.079528
0.646902 0.574778 0.082886
0.673600 0.578054 0.086165
0.679400 0.568600 0.110241
0.705161 0.572650 0.114288
0.730889 0.576694 0.118328
0.777896 0.584096 0.125780
0.819116 0.590586 0.132304
0.846698 0.618552 0.136642
0.861728 0.621327 0.138968
0.865981 0.622098 0.139567
0.082320 0.586564 0.120856
0.087901 0.587146 0.099252
0.097950 0.586931 0.087749
0.117652 0.586732 0.087608
0.142758 0.586480 0.087430
0.167829 0.586227 0.087251
0.192842 0.585975 0.087073
0.217775 0.585724 0.086895
0.242606 0.585474 0.086719
0.267317 0.585225 0.086543
0.291889 0.584978 0.086368
0.350041 0.593530 0.077396
0.375151 0.593284 0.077224
0.400079 0.593041 0.077054
0.424817 0.592799 0.076885
0.449360 0.592559 0.076718
0.473708 0.592321 0.076552
0.497861 0.592085 0.076387
0.521826 0.591851 0.076223
0.545611 0.591618 0.076061
0.569260 0.591387 0.075877
0.593048 0.591387 0.075880
0.620003 0.594694 0.079189
0.646819 0.597983 0.082480
0.673520 0.601259 0.085757
0.700132 0.604523 0.089023
0.705089 0.594252 0.113872
0.730817 0.598296 0.117913
0.777825 0.605699 0.125364
0.819045 0.612188 0.131888
0.846626 0.616525 0.136226
0.861656 0.642922 0.138552
0.865909 0.643694 0.139152
0.085798 0.612721 0.126067
0.091638 0.613342 0.104708
0.099969 0.613126 0.091486
0.119671 0.612928 0.091346
0.144777 0.612675 0.091167
0.169848 0.612423 0.090988
0.194861 0.612171 0.090810
0.219794 0.611920 0.090633
0.244625 0.611670 0.090456
0.269336 0.611421 0.090280
0.293908 0.611173 0.090105
0.353153 0.620122 0.080737
0.378263 0.619876 0.080565
0.403191 0.619632 0.080395
0.427929 0.619391 0.080226
0.452472 0.619151 0.080059
0.476820 0.618913 0.079892
0.501043 0.618677 0.079681
0.525108 0.618442 0.079451
0.548992 0.618210 0.079222
0.572707 0.617979 0.078994
0.596266 0.617750 0.078768
0.619926 0.617761 0.078782
0.646742 0.621051 0.082073
0.673443 0.624326 0.085350
0.700055 0.627590 0.088616
0.726604 0.630847 0.091874
0.730748 0.619771 0.117498
0.777755 0.627173 0.124949
0.818975 0.633662 0.131473
0.846557 0.637999 0.135811
0.861587 0.640356 0.138138
0.865840 0.641011 0.138737
0.089258 0.638742 0.131251
0.095356 0.639402 0.110135
0.101977 0.639186 0.095204
0.121679 0.638988 0.095064
0.146785 0.638735 0.094885
0.171856 0.638483 0.094706
0.196869 0.638231 0.094528
0.221802 0.637980 0.094350
0.246633 0.637730 0.094174
0.271344 0.637481 0.093998
0.295916 0.637233 0.093823
0.320335 0.636988 0.093649
0.381359 0.646330 0.083889
0.406293 0.646087 0.083715
0.431130 0.645845 0.083479
0.455773 0.645605 0.083245
0.480220 0.645367 0.083013
0.504474 0.645131 0.082781
0.528539 0.644897 0.082551
0.552423 0.644664 0.082322
0.576138 0.644433 0.082095
0.599697 0.644204 0.081868
0.623117 0.643976 0.081642
0.646667 0.643999 0.081667
0.673368 0.647274 0.084944
0.699980 0.650539 0.088210
0.726529 0.653795 0.091468
0.753043 0.657048 0.094721
0.777688 0.648537 0.124536
0.818908 0.655026 0.131060
0.846490 0.659363 0.135398
0.861520 0.661719 0.137724
0.865773 0.662374 0.138323
0.092702 0.664652 0.136412
0.099058 0.665349 0.115539
0.103977 0.665134 0.098906
0.123679 0.664936 0.098765
0.148784 0.664683 0.098587
0.173856 0.664430 0.098408
0.198869 0.664178 0.098230
0.223802 0.663927 0.098052
0.248633 0.663677 0.097875
0.273344 0.663429 0.097700
0.297959 0.663181 0.097496
0.322477 0.662935 0.097256
0.384683 0.672671 0.087037
0.409711 0.672427 0.086800
0.434548 0.672185 0.086565
0.459191 0.671945 0.086331
0.483638 0.671707 0.086098
0.507891 0.671471 0.085867
0.531956 0.671237 0.085637
0.555840 0.671005 0.085408
0.579555 0.670774 0.085180
0.603115 0.670544 0.084954
0.626535 0.670316 0.084728
0.649835 0.670090 0.084503
0.673295 0.670124 0.084539
0.699906 0.673388 0.087805
0.726455 0.676645 0.091063
0.752970 0.679897 0.094316
0.801419 0.685850 0.100327
0.818843 0.676297 0.130647
0.846424 0.680634 0.134985
0.861454 0.682990 0.137311
0.865707 0.683646 0.137911
0.096136 0.690475 0.141557
0.102748 0.691210 0.120925
0.105970 0.690994 0.102595
0.125672 0.690796 0.102455
0.150777 0.690543 0.102276
0.175848 0.690291 0.102097
0.200862 0.690039 0.101919
0.225873 0.689788 0.101689
0.250805 0.689538 0.101446
0.275615 0.689289 0.101204
0.300287 0.689042 0.100962
0.324805 0.688796 0.100722
0.349157 0.688552 0.100483
0.413118 0.698679 0.089875
0.437955 0.698437 0.089640
0.462598 0.698197 0.089406
0.487045 0.697959 0.089173
0.511299 0.697723 0.088942
0.535364 0.697489 0.088712
0.559248 0.697256 0.088483
0.582963 0.697025 0.088255
0.606522 0.696796 0.088028
0.629942 0.696568 0.087803
0.653242 0.696341 0.087578
0.676442 0.696116 0.087354
0.699835 0.696161 0.087400
0.726384 0.699418 0.090658
0.752898 0.702670 0.093912
0.801347 0.708623 0.099922
0.818778 0.697497 0.130235
0.846360 0.701834 0.134573
0.861390 0.704190 0.136899
0.865643 0.704846 0.137498
0.099561 0.716237 0.146689
0.106428 0.717010 0.126299
0.107958 0.716794 0.106276
0.127676 0.716596 0.106125
0.152881 0.716343 0.105880
0.178051 0.716090 0.105635
0.203164 0.715839 0.105390
0.228197 0.715588 0.105146
0.253128 0.715338 0.104903
