Resources/LUTs/Fuji_Velvia_100_Linear.cube
# Fuji Velvia 100 - High Saturation Slide Film Emulation
# 33x33x33 3D LUT for Linear Colorspace
# Characteristics: Vivid colors, high contrast, punchy reds/greens/blues
# Film Type: E-6 Reversal (Slide Film)
#
# Created for Film Emulation Pro Filters
TITLE "Fuji Velvia 100 Linear"
LUT_3D_SIZE 9
DOMAIN_MIN 0.0 0.0 0.0
DOMAIN_MAX 1.0 1.0 1.0
0.000000 0.000000 0.000000
0.108724 0.001724 0.000000
0.299217 0.002776 0.000000
0.499421 0.003547 0.000000
0.701806 0.004231 0.000000
0.901124 0.004853 0.000000
1.000000 0.005421 0.000000
1.000000 0.005424 0.000000
1.000000 0.005424 0.000000
0.003001 0.091305 0.000000
0.108724 0.091305 0.000000
0.299217 0.103894 0.000000
0.499421 0.107454 0.000000
0.701806 0.110325 0.000000
0.901124 0.112743 0.000000
1.000000 0.114818 0.000000
1.000000 0.114829 0.000000
1.000000 0.114829 0.000000
0.005148 0.250878 0.000000
0.108724 0.250878 0.000000
0.299217 0.250878 0.000000
0.499421 0.250878 0.000000
0.701806 0.250878 0.000000
0.901124 0.288720 0.000000
1.000000 0.292305 0.000000
1.000000 0.292323 0.000000
1.000000 0.292323 0.000000
0.007101 0.424325 0.000000
0.164860 0.424325 0.000000
0.299217 0.424325 0.000000
0.499421 0.424325 0.000000
0.701806 0.424325 0.000000
0.901124 0.424325 0.000000
1.000000 0.424325 0.000000
1.000000 0.424325 0.000000
1.000000 0.424325 0.000000
0.008915 0.600665 0.000000
0.175668 0.600665 0.000000
0.299217 0.600665 0.000000
0.499421 0.600665 0.000000
0.701806 0.600665 0.000000
0.901124 0.600665 0.000000
1.000000 0.600665 0.000000
1.000000 0.600665 0.000000
1.000000 0.600665 0.000000
0.010607 0.774929 0.000000
0.184951 0.774929 0.000000
0.299217 0.774929 0.000000
0.499421 0.774929 0.000000
0.701806 0.774929 0.000000
0.901124 0.774929 0.000000
1.000000 0.774929 0.000000
1.000000 0.774929 0.000000
1.000000 0.774929 0.000000
0.012178 0.943391 0.000000
0.193044 0.943391 0.000000
0.299217 0.943391 0.000000
0.499421 0.943391 0.000000
0.701806 0.943391 0.000000
0.901124 0.943391 0.000000
1.000000 0.943391 0.000000
1.000000 0.943391 0.000000
1.000000 0.943391 0.000000
0.012186 0.944288 0.000000
0.193085 0.944288 0.000000
0.299217 0.944288 0.000000
0.499421 0.944288 0.000000
0.701806 0.944288 0.000000
0.901124 0.944288 0.000000
1.000000 0.944288 0.000000
1.000000 0.944288 0.000000
1.000000 0.944288 0.000000
0.012186 0.944288 0.000000
0.193085 0.944288 0.000000
0.299217 0.944288 0.000000
0.499421 0.944288 0.000000
0.701806 0.944288 0.000000
0.901124 0.944288 0.000000
1.000000 0.944288 0.000000
1.000000 0.944288 0.000000
1.000000 0.944288 0.000000
0.001125 0.000000 0.092639
0.108724 0.000000 0.092639
0.299217 0.000000 0.092639
0.499421 0.000000 0.092639
0.701806 0.000000 0.092639
0.901124 0.000000 0.092639
1.000000 0.000000 0.092639
1.000000 0.000000 0.092639
1.000000 0.000000 0.092639
0.000000 0.091305 0.092639
0.108724 0.091305 0.092639
0.369487 0.065116 0.053243
0.665504 0.051551 0.039376
0.974600 0.044616 0.030080
1.000000 0.068394 0.044141
1.000000 0.116958 0.092408
1.000000 0.117241 0.092639
1.000000 0.117241 0.092639
0.000000 0.250878 0.092639
0.073529 0.323473 0.049471
0.342933 0.288631 0.073661
0.617445 0.270648 0.048192
0.974600 0.251711 0.030080
1.000000 0.251155 0.044141
1.000000 0.296280 0.092408
1.000000 0.296476 0.092639
1.000000 0.296476 0.092639
0.000000 0.424325 0.047103
0.057148 0.597968 0.034067
0.311442 0.513514 0.051364
0.601890 0.513514 0.051364
0.895009 0.491771 0.040389
1.000000 0.485385 0.044141
1.000000 0.460591 0.092408
1.000000 0.460562 0.092639
1.000000 0.460562 0.092639
0.000000 0.600665 0.042899
0.050826 0.887718 0.024171
0.333250 0.887718 0.024171
0.566885 0.747121 0.044223
0.869354 0.747121 0.044223
1.000000 0.695304 0.044141
1.000000 0.600974 0.092408
1.000000 0.600665 0.092639
1.000000 0.600665 0.092639
0.000000 0.774929 0.039579
0.094547 0.944288 0.044141
0.345368 0.944288 0.044141
0.531997 0.944288 0.044141
0.810119 0.944288 0.044141
1.000000 0.944288 0.044141
1.000000 0.775527 0.092408
1.000000 0.774929 0.092639
1.000000 0.774929 0.092639
0.000000 0.943391 0.036885
0.160612 0.944288 0.092408
0.385840 0.944288 0.092408
0.499479 0.944288 0.092408
0.702160 0.944288 0.092408
0.901806 0.944288 0.092408
1.000000 0.944288 0.092408
1.000000 0.943391 0.092639
1.000000 0.943391 0.092639
0.000000 0.944288 0.036872
0.160997 0.944288 0.092639
0.386102 0.944288 0.092639
0.499421 0.944288 0.092639
0.701806 0.944288 0.092639
0.901124 0.944288 0.092639
1.000000 0.944288 0.092639
1.000000 0.944288 0.092639
1.000000 0.944288 0.092639
0.000000 0.944288 0.036872
0.160997 0.944288 0.092639
0.386102 0.944288 0.092639
0.499421 0.944288 0.092639
0.701806 0.944288 0.092639
0.901124 0.944288 0.092639
1.000000 0.944288 0.092639
1.000000 0.944288 0.092639
1.000000 0.944288 0.092639
0.001812 0.000000 0.252897
0.123895 0.000000 0.252897
0.299217 0.000000 0.252897
0.499421 0.000000 0.252897
0.701806 0.000000 0.252897
0.901124 0.000000 0.252897
1.000000 0.000000 0.252897
1.000000 0.000000 0.252897
1.000000 0.000000 0.252897
0.000000 0.072396 0.252897
0.076126 0.062864 0.313675
0.349463 0.070011 0.296344
0.617445 0.056817 0.264991
0.974600 0.035187 0.237418
1.000000 0.051971 0.230989
1.000000 0.091075 0.252746
1.000000 0.091305 0.252897
1.000000 0.091305 0.252897
0.000000 0.250878 0.252897
0.077311 0.305763 0.307834
0.299217 0.250878 0.252897
0.565137 0.214998 0.214175
0.848342 0.194072 0.186115
1.000000 0.196205 0.177806
1.000000 0.281022 0.252482
1.000000 0.281495 0.252897
1.000000 0.281495 0.252897
0.000000 0.424325 0.252897
0.058650 0.554804 0.268066
0.252041 0.492350 0.207533
0.540692 0.460221 0.227824
0.806767 0.441355 0.203156
1.000000 0.423302 0.177806
1.000000 0.465411 0.252482
1.000000 0.465650 0.252897
1.000000 0.465650 0.252897
0.000000 0.600665 0.252897
0.032943 0.887718 0.192048
0.227577 0.753583 0.175234
0.507835 0.680493 0.209029
0.793179 0.680493 0.209029
1.000000 0.657815 0.186461
1.000000 0.630743 0.252482
1.000000 0.630636 0.252897
1.000000 0.630636 0.252897
0.000000 0.774929 0.252897
0.061434 0.944288 0.177515
0.250545 0.944288 0.177806
0.536658 0.944288 0.177806
0.758869 0.902617 0.194128
1.000000 0.902617 0.194128
1.000000 0.775432 0.252482
1.000000 0.774929 0.252897
1.000000 0.774929 0.252897
0.000000 0.943391 0.252897
0.108448 0.944288 0.188742
0.356482 0.944288 0.252482
0.576339 0.944288 0.252482
0.701957 0.944288 0.252482
0.901698 0.944288 0.252482
1.000000 0.944288 0.252482
1.000000 0.943391 0.252897
1.000000 0.943391 0.252897
0.000000 0.944288 0.252897
0.108724 0.944288 0.188832
0.357071 0.944288 0.252897
0.576650 0.944288 0.252897
0.701806 0.944288 0.252897
0.901124 0.944288 0.252897
1.000000 0.944288 0.252897
1.000000 0.944288 0.252897
1.000000 0.944288 0.252897
0.000000 0.944288 0.252897
0.108724 0.944288 0.188832
0.357071 0.944288 0.252897
0.576650 0.944288 0.252897
0.701806 0.944288 0.252897
0.901124 0.944288 0.252897
1.000000 0.944288 0.252897
1.000000 0.944288 0.252897
1.000000 0.944288 0.252897
0.002301 0.000000 0.426317
0.128188 0.000000 0.426317
0.299217 0.000000 0.426317
0.499421 0.000000 0.426317
0.701806 0.000000 0.426317
0.901124 0.000000 0.426317
1.000000 0.000000 0.426317
1.000000 0.000000 0.426317
1.000000 0.000000 0.426317
0.000000 0.067728 0.426317
0.058352 0.046276 0.570610
0.322121 0.056817 0.528829
0.617445 0.056817 0.528829
0.895009 0.047486 0.493624
1.000000 0.051971 0.454597
1.000000 0.091075 0.426367
1.000000 0.091305 0.426317
1.000000 0.091305 0.426317
0.000000 0.250878 0.426317
0.058650 0.252516 0.556477
0.256283 0.212238 0.483377
0.546744 0.222403 0.467402
0.806767 0.201249 0.434669
1.000000 0.175986 0.405985
1.000000 0.250464 0.426129
1.000000 0.250878 0.426317
1.000000 0.250878 0.426317
0.000000 0.424325 0.426317
0.058650 0.554804 0.556477
0.258263 0.476127 0.478018
0.499421 0.424325 0.426317
0.764588 0.385783 0.384036
1.000000 0.364068 0.350852
1.000000 0.451057 0.425755
1.000000 0.451679 0.426317
1.000000 0.451679 0.426317
0.000000 0.600665 0.426317
0.045953 0.815653 0.511351
0.227696 0.716494 0.436772
0.449512 0.665774 0.376624
0.741395 0.635238 0.399115
0.998317 0.618635 0.370589
1.000000 0.620413 0.425755
1.000000 0.620589 0.426317
1.000000 0.620589 0.426317
0.000000 0.774929 0.426317
0.061434 0.944288 0.454597
0.210954 0.944288 0.357019
0.427275 0.915915 0.338042
0.708422 0.849137 0.377308
0.985849 0.849137 0.377308
1.000000 0.775284 0.425755
1.000000 0.774929 0.426317
1.000000 0.774929 0.426317
0.000000 0.943391 0.426317
0.108448 0.944288 0.426367
0.298737 0.944288 0.364759
0.549529 0.944288 0.425755
0.763341 0.944288 0.425755
0.901530 0.944288 0.425755
1.000000 0.944288 0.425755
1.000000 0.943391 0.426317
1.000000 0.943391 0.426317
0.000000 0.944288 0.426317
0.108724 0.944288 0.426317
0.299217 0.944288 0.364876
0.550287 0.944288 0.426317
0.763605 0.944288 0.426317
0.901124 0.944288 0.426317
1.000000 0.944288 0.426317
1.000000 0.944288 0.426317
1.000000 0.944288 0.426317
0.000000 0.944288 0.426317
0.108724 0.944288 0.426317
0.299217 0.944288 0.364876
0.550287 0.944288 0.426317
0.763605 0.944288 0.426317
0.901124 0.944288 0.426317
1.000000 0.944288 0.426317
1.000000 0.944288 0.426317
1.000000 0.944288 0.426317
0.002688 0.000000 0.602181
0.131650 0.000000 0.602181
0.299217 0.000000 0.602181
0.499421 0.000000 0.602181
0.701806 0.000000 0.602181
0.901124 0.000000 0.602181
1.000000 0.000000 0.602181
1.000000 0.000000 0.602181
1.000000 0.000000 0.602181
0.000000 0.064157 0.602181
0.047914 0.035187 0.839680
0.300182 0.035187 0.839680
0.576931 0.047486 0.770348
0.895009 0.047486 0.770348
1.000000 0.051971 0.696433
1.000000 0.091075 0.602489
1.000000 0.091305 0.602181
1.000000 0.091305 0.602181
0.000000 0.250878 0.602181
0.041336 0.209688 0.839680
0.228040 0.184264 0.729710
0.519006 0.201249 0.693515
0.806767 0.201249 0.693515
1.000000 0.184609 0.659107
1.000000 0.250464 0.602312
1.000000 0.250878 0.602181
1.000000 0.250878 0.602181
0.000000 0.424325 0.602181
0.045953 0.509544 0.816184
0.227696 0.419532 0.717526
0.453305 0.381990 0.656804
0.747154 0.393279 0.641633
0.998317 0.368531 0.608761
1.000000 0.423763 0.602036
1.000000 0.424325 0.602181
1.000000 0.424325 0.602181
0.000000 0.600665 0.602181
0.045953 0.815653 0.816184
0.227696 0.716494 0.717526
0.454996 0.650401 0.651724
0.701806 0.600665 0.602181
0.955067 0.567163 0.563077
1.000000 0.620045 0.601494
1.000000 0.620794 0.602181
1.000000 0.620794 0.602181
0.000000 0.774929 0.602181
0.061434 0.944288 0.696433
0.210954 0.944288 0.667595
0.419919 0.882157 0.610412
0.659431 0.831552 0.555642
0.933849 0.803583 0.578119
1.000000 0.788913 0.601494
1.000000 0.788879 0.602181
1.000000 0.788879 0.602181
0.000000 0.943391 0.602181
0.108448 0.944288 0.602489
0.298737 0.944288 0.602312
0.498774 0.944288 0.550998
0.737999 0.944288 0.601494
0.901199 0.944288 0.601494
1.000000 0.944288 0.601494
1.000000 0.943391 0.602181
1.000000 0.943391 0.602181
0.000000 0.944288 0.602181
0.108724 0.944288 0.602181
0.299217 0.944288 0.602181
0.499421 0.944288 0.551066
0.738899 0.944288 0.602181
0.901124 0.944288 0.602181
1.000000 0.944288 0.602181
1.000000 0.944288 0.602181
1.000000 0.944288 0.602181
0.000000 0.944288 0.602181
0.108724 0.944288 0.602181
0.299217 0.944288 0.602181
0.499421 0.944288 0.551066
0.738899 0.944288 0.602181
0.901124 0.944288 0.602181
1.000000 0.944288 0.602181
1.000000 0.944288 0.602181
1.000000 0.944288 0.602181
0.003010 0.000000 0.775674
0.134566 0.000000 0.775674
0.343035 0.000000 0.775674
0.499421 0.000000 0.775674
0.701806 0.000000 0.775674
0.901124 0.000000 0.775674
1.000000 0.000000 0.775674
1.000000 0.000000 0.775674
1.000000 0.000000 0.775674
0.000000 0.061277 0.775674
0.072882 0.051971 0.944068
0.299537 0.051971 0.944068
0.569599 0.051971 0.944068
0.810119 0.051971 0.944068
1.000000 0.051971 0.944068
1.000000 0.091075 0.776269
1.000000 0.091305 0.775674
1.000000 0.091305 0.775674
0.000000 0.194579 0.775674
0.061434 0.194727 0.944068
0.225439 0.175986 0.944068
0.498244 0.175986 0.944068
0.767234 0.184609 0.921709
1.000000 0.184609 0.921709
1.000000 0.250464 0.776175
1.000000 0.250878 0.775674
1.000000 0.250878 0.775674
0.000000 0.424325 0.775674
0.061434 0.401044 0.944068
0.210954 0.372898 0.944068
0.422932 0.348782 0.893417
0.722387 0.368531 0.860345
0.998317 0.368531 0.860345
1.000000 0.423763 0.776028
1.000000 0.424325 0.775674
1.000000 0.424325 0.775674
0.000000 0.600665 0.775674
0.061434 0.695304 0.944068
0.210954 0.666340 0.944068
0.419919 0.588903 0.882313
0.660783 0.561425 0.822663
0.939127 0.572723 0.808777
1.000000 0.599976 0.775740
1.000000 0.600665 0.775674
1.000000 0.600665 0.775674
0.000000 0.774929 0.775674
0.061434 0.944288 0.944068
0.210954 0.944288 0.944068
0.419919 0.882157 0.882313
0.661141 0.817498 0.818019
0.901124 0.774929 0.775674
1.000000 0.776116 0.765750
1.000000 0.776752 0.766303
1.000000 0.776752 0.766303
0.000000 0.943391 0.775674
0.108448 0.944288 0.776269
0.298737 0.944288 0.776175
0.498774 0.944288 0.776028
0.701016 0.944288 0.775740
0.910180 0.944288 0.765750
1.000000 0.944288 0.765750
1.000000 0.943338 0.766303
1.000000 0.943338 0.766303
0.000000 0.944288 0.775674
0.108724 0.944288 0.775674
0.299217 0.944288 0.775674
0.499421 0.944288 0.775674
0.701806 0.944288 0.775674
0.910962 0.944288 0.766303
1.000000 0.944288 0.766303
1.000000 0.944288 0.766303
1.000000 0.944288 0.766303
0.000000 0.944288 0.775674
0.108724 0.944288 0.775674
0.299217 0.944288 0.775674
0.499421 0.944288 0.775674
0.701806 0.944288 0.775674
0.910962 0.944288 0.766303
1.000000 0.944288 0.766303
1.000000 0.944288 0.766303
1.000000 0.944288 0.766303
0.003288 0.000000 0.943177
0.137069 0.000000 0.943177
0.347182 0.000000 0.943177
0.499421 0.000000 0.943177
0.701806 0.000000 0.943177
0.901124 0.000000 0.943177
1.000000 0.000000 0.943177
1.000000 0.000000 0.943177
1.000000 0.000000 0.943177
0.000000 0.058894 0.943177
0.126617 0.091075 0.944068
0.330084 0.091075 0.944068
0.541117 0.091075 0.944068
0.702160 0.091075 0.944068
0.901806 0.091075 0.944068
1.000000 0.091075 0.944068
1.000000 0.091305 0.943177
1.000000 0.091305 0.943177
0.000000 0.189883 0.943177
0.108448 0.209546 0.944068
0.319695 0.250464 0.944068
0.527373 0.250464 0.944068
0.736250 0.250464 0.944068
0.901698 0.250464 0.944068
1.000000 0.250464 0.944068
1.000000 0.250878 0.943177
1.000000 0.250878 0.943177
0.000000 0.424325 0.943177
0.108448 0.367823 0.944068
0.298737 0.385080 0.944068
0.517471 0.423763 0.944068
0.724422 0.423763 0.944068
0.901530 0.423763 0.944068
1.000000 0.423763 0.944068
1.000000 0.424325 0.943177
1.000000 0.424325 0.943177
0.000000 0.600665 0.943177
0.108448 0.600974 0.944068
0.298737 0.552762 0.944068
0.498774 0.568200 0.944068
0.714755 0.599976 0.944068
0.917096 0.599976 0.944068
1.000000 0.599976 0.944068
1.000000 0.600665 0.943177
1.000000 0.600665 0.943177
0.000000 0.774929 0.943177
0.108448 0.775527 0.944068
0.298737 0.775432 0.944068
0.498774 0.775284 0.944068
0.701016 0.752118 0.944068
0.897366 0.764954 0.944068
1.000000 0.764954 0.944068
1.000000 0.765510 0.943124
1.000000 0.765510 0.943124
0.000000 0.943391 0.943177
0.108448 0.944288 0.944068
0.298737 0.944288 0.944068
0.498774 0.944288 0.944068
0.701016 0.944288 0.944068
0.889729 0.944288 0.944068
1.000000 0.911813 0.911792
1.000000 0.884766 0.880766
1.000000 0.884766 0.880766
0.000000 0.944288 0.943177
0.108724 0.944288 0.943177
0.299217 0.944288 0.943177
0.499421 0.944288 0.943177
0.701806 0.944288 0.943177
0.890364 0.944288 0.943124
1.000000 0.944288 0.880766
1.000000 0.942521 0.882455
1.000000 0.942521 0.882455
0.000000 0.944288 0.943177
0.108724 0.944288 0.943177
0.299217 0.944288 0.943177
0.499421 0.944288 0.943177
0.701806 0.944288 0.943177
0.890364 0.944288 0.943124
1.000000 0.944288 0.880766
1.000000 0.942521 0.882455
1.000000 0.942521 0.882455
0.003289 0.000000 0.944068
0.137082 0.000000 0.944068
0.347203 0.000000 0.944068
0.499421 0.000000 0.944068
0.701806 0.000000 0.944068
0.901124 0.000000 0.944068
1.000000 0.000000 0.944068
1.000000 0.000000 0.944068
1.000000 0.000000 0.944068
0.000000 0.058882 0.944068
0.126932 0.091305 0.944068
0.330289 0.091305 0.944068
0.541083 0.091305 0.944068
0.701806 0.091305 0.944068
0.901124 0.091305 0.944068
1.000000 0.091305 0.944068
1.000000 0.091305 0.944068
1.000000 0.091305 0.944068
0.000000 0.189859 0.944068
0.108724 0.209657 0.944068
0.320214 0.250878 0.944068
0.527624 0.250878 0.944068
0.736127 0.250878 0.944068
0.901124 0.250878 0.944068
1.000000 0.250878 0.944068
1.000000 0.250878 0.944068
1.000000 0.250878 0.944068
0.000000 0.424325 0.944068
0.108724 0.367742 0.944068
0.299217 0.385223 0.944068
0.518159 0.424325 0.944068
0.724624 0.424325 0.944068
0.901124 0.424325 0.944068
1.000000 0.424325 0.944068
1.000000 0.424325 0.944068
1.000000 0.424325 0.944068
0.000000 0.600665 0.944068
0.108724 0.600665 0.944068
0.299217 0.552593 0.944068
0.499421 0.568296 0.944068
0.715585 0.600665 0.944068
0.917058 0.600665 0.944068
1.000000 0.600665 0.944068
1.000000 0.600665 0.944068
1.000000 0.600665 0.944068
0.000000 0.774929 0.944068
0.108724 0.774929 0.944068
0.299217 0.774929 0.944068
0.499421 0.774929 0.944068
0.701806 0.752001 0.944068
0.898056 0.765510 0.944068
1.000000 0.765510 0.944068
1.000000 0.765510 0.944068
1.000000 0.765510 0.944068
0.000000 0.943391 0.944068
0.108724 0.943391 0.944068
0.299217 0.943391 0.944068
0.499421 0.943391 0.944068
0.701806 0.943391 0.944068
0.890364 0.943338 0.944068
1.000000 0.880601 0.944068
1.000000 0.881207 0.943442
1.000000 0.881207 0.943442
0.000000 0.944288 0.944068
0.108724 0.944288 0.944068
0.299217 0.944288 0.944068
0.499421 0.944288 0.944068
0.701806 0.944288 0.944068
0.890364 0.944288 0.944068
1.000000 0.944288 0.944068
1.000000 0.912428 0.912404
1.000000 0.912428 0.912404
0.000000 0.944288 0.944068
0.108724 0.944288 0.944068
0.299217 0.944288 0.944068
0.499421 0.944288 0.944068
0.701806 0.944288 0.944068
0.890364 0.944288 0.944068
1.000000 0.944288 0.944068
1.000000 0.912428 0.912404
1.000000 0.912428 0.912404
0.003289 0.000000 0.944068
0.137082 0.000000 0.944068
0.347203 0.000000 0.944068
0.499421 0.000000 0.944068
0.701806 0.000000 0.944068
0.901124 0.000000 0.944068
1.000000 0.000000 0.944068
1.000000 0.000000 0.944068
1.000000 0.000000 0.944068
0.000000 0.058882 0.944068
0.126932 0.091305 0.944068
0.330289 0.091305 0.944068
0.541083 0.091305 0.944068
0.701806 0.091305 0.944068
0.901124 0.091305 0.944068
1.000000 0.091305 0.944068
1.000000 0.091305 0.944068
1.000000 0.091305 0.944068
0.000000 0.189859 0.944068
0.108724 0.209657 0.944068
0.320214 0.250878 0.944068
0.527624 0.250878 0.944068
0.736127 0.250878 0.944068
0.901124 0.250878 0.944068
1.000000 0.250878 0.944068
1.000000 0.250878 0.944068
1.000000 0.250878 0.944068
0.000000 0.424325 0.944068
0.108724 0.367742 0.944068
0.299217 0.385223 0.944068
0.518159 0.424325 0.944068
0.724624 0.424325 0.944068
0.901124 0.424325 0.944068
1.000000 0.424325 0.944068
1.000000 0.424325 0.944068
1.000000 0.424325 0.944068
0.000000 0.600665 0.944068
0.108724 0.600665 0.944068
0.299217 0.552593 0.944068
0.499421 0.568296 0.944068
0.715585 0.600665 0.944068
0.917058 0.600665 0.944068
1.000000 0.600665 0.944068
1.000000 0.600665 0.944068
1.000000 0.600665 0.944068
0.000000 0.774929 0.944068
0.108724 0.774929 0.944068
0.299217 0.774929 0.944068
0.499421 0.774929 0.944068
0.701806 0.752001 0.944068
0.898056 0.765510 0.944068
1.000000 0.765510 0.944068
1.000000 0.765510 0.944068
1.000000 0.765510 0.944068
0.000000 0.943391 0.944068
0.108724 0.943391 0.944068
0.299217 0.943391 0.944068
0.499421 0.943391 0.944068
0.701806 0.943391 0.944068
0.890364 0.943338 0.944068
1.000000 0.880601 0.944068
1.000000 0.881207 0.943442
1.000000 0.881207 0.943442
0.000000 0.944288 0.944068
0.108724 0.944288 0.944068
0.299217 0.944288 0.944068
0.499421 0.944288 0.944068
0.701806 0.944288 0.944068
0.890364 0.944288 0.944068
1.000000 0.944288 0.944068
1.000000 0.912428 0.912404
1.000000 0.912428 0.912404
0.000000 0.944288 0.944068
0.108724 0.944288 0.944068
0.299217 0.944288 0.944068
0.499421 0.944288 0.944068
0.701806 0.944288 0.944068
0.890364 0.944288 0.944068
1.000000 0.944288 0.944068
1.000000 0.912428 0.912404
1.000000 0.912428 0.912404
