Resources/LUTs/Fuji_400H_Linear.cube
TITLE "Fuji Pro 400H Accurate (Generated)"
# Accurately modeled from film characteristics
# Fourth color layer (cyan interlayer) simulation
# Color Space: Linear RGB
LUT_3D_SIZE 33
DOMAIN_MIN 0.0 0.0 0.0
DOMAIN_MAX 1.0 1.0 1.0
0.001703 0.001935 0.002167
0.035027 0.025483 0.003182
0.061161 0.035148 0.004169
0.084687 0.040874 0.005187
0.106674 0.044644 0.006246
0.127592 0.047265 0.007346
0.147703 0.049150 0.008489
0.170132 0.049358 0.009141
0.193799 0.048608 0.009618
0.217449 0.047405 0.010069
0.241078 0.045888 0.010501
0.264680 0.044165 0.010918
0.288249 0.042313 0.011324
0.311781 0.040395 0.011720
0.335269 0.038457 0.012110
0.358160 0.036580 0.012486
0.380763 0.034762 0.012855
0.403370 0.032999 0.013223
0.425988 0.031303 0.013592
0.458472 0.012230 0.012711
0.480287 0.012711 0.013201
0.502099 0.013196 0.013696
0.523917 0.013686 0.014195
0.545751 0.014181 0.014698
0.567607 0.014681 0.015207
0.589495 0.015186 0.015721
0.611421 0.015697 0.016241
0.633391 0.016215 0.016767
0.655412 0.016738 0.017299
0.677488 0.017268 0.017837
0.699625 0.017804 0.018382
0.721827 0.018347 0.018934
0.744099 0.018897 0.019492
0.003326 0.033362 0.007626
0.013420 0.034598 0.003489
0.041136 0.064666 0.003676
0.079494 0.091305 0.004202
0.115670 0.107917 0.004706
0.140525 0.110405 0.005201
0.163323 0.111453 0.005915
0.184139 0.111959 0.006862
0.204701 0.112062 0.007871
0.224707 0.111900 0.008920
0.244235 0.111576 0.010006
0.263346 0.111160 0.011126
0.282092 0.110701 0.012278
0.300514 0.110236 0.013459
0.318651 0.109790 0.014667
0.336118 0.109391 0.015871
0.353842 0.108790 0.016971
0.375467 0.106627 0.017412
0.397126 0.104424 0.017851
0.427501 0.069277 0.016941
0.448526 0.070523 0.017509
0.469566 0.071760 0.018081
0.490628 0.072990 0.018656
0.511722 0.074213 0.019235
0.532853 0.075433 0.019819
0.554030 0.076650 0.020408
0.575256 0.077864 0.021002
0.596539 0.079078 0.021602
0.617883 0.080292 0.022207
0.639294 0.081507 0.022818
0.660774 0.082723 0.023436
0.682330 0.083942 0.024060
0.703963 0.085164 0.024691
0.004369 0.058643 0.009524
0.016110 0.059558 0.004733
0.025831 0.062806 0.004037
0.053780 0.091305 0.004202
0.090474 0.116914 0.004706
0.133304 0.141838 0.005201
0.164896 0.150642 0.005692
0.188969 0.150573 0.006184
0.212306 0.149607 0.006799
0.232780 0.148540 0.007758
0.252749 0.147368 0.008755
0.272277 0.146159 0.009788
0.291420 0.144962 0.010854
0.310223 0.143809 0.011950
0.328723 0.142724 0.013074
0.346530 0.141747 0.014197
0.363927 0.140871 0.015330
0.381169 0.140093 0.016486
0.398284 0.139419 0.017664
0.415333 0.104701 0.018856
0.436039 0.106356 0.019456
0.456767 0.107989 0.020058
0.477525 0.109603 0.020664
0.498321 0.111201 0.021275
0.519160 0.112785 0.021889
0.540049 0.114358 0.022508
0.560994 0.115921 0.023133
0.581999 0.117476 0.023762
0.603070 0.119026 0.024397
0.624212 0.120570 0.025038
0.645428 0.122111 0.025686
0.666722 0.123649 0.026339
0.688098 0.125186 0.027000
0.005351 0.081902 0.010675
0.019032 0.082788 0.005800
0.029394 0.086794 0.004999
0.039665 0.089783 0.004459
0.069281 0.116914 0.004706
0.106146 0.141838 0.005201
0.148349 0.166258 0.005692
0.188969 0.184052 0.006184
0.213162 0.183074 0.006686
0.237059 0.181268 0.007189
0.259061 0.179118 0.007905
0.278896 0.177121 0.008876
0.298330 0.175195 0.009880
0.317411 0.173368 0.010916
0.336178 0.171660 0.011980
0.354235 0.170120 0.013045
0.371871 0.168729 0.014122
0.389344 0.167473 0.015223
0.406683 0.166357 0.016346
0.410388 0.132751 0.019679
0.428699 0.135595 0.020672
0.447570 0.138210 0.021576
0.468106 0.140158 0.022204
0.488685 0.142079 0.022837
0.509311 0.143976 0.023474
0.529991 0.145853 0.024115
0.550731 0.147712 0.024761
0.571534 0.149555 0.025413
0.592407 0.151385 0.026070
0.613353 0.153204 0.026732
0.634376 0.155014 0.027401
0.655480 0.156817 0.028077
0.676669 0.158613 0.028758
0.006315 0.104021 0.011466
0.022042 0.105128 0.006785
0.033151 0.109794 0.005893
0.043944 0.113269 0.005289
0.054837 0.116161 0.004822
0.086547 0.141838 0.005201
0.124132 0.166258 0.005692
0.166594 0.190367 0.006184
0.213162 0.213566 0.006686
0.237059 0.211769 0.007189
0.260693 0.209317 0.007695
0.284091 0.206412 0.008204
0.304060 0.203717 0.009122
0.323369 0.201210 0.010109
0.342356 0.198874 0.011126
0.360619 0.196769 0.012144
0.378450 0.194860 0.013176
0.396113 0.193124 0.014232
0.413636 0.191565 0.015311
0.417574 0.153974 0.018492
0.436054 0.156873 0.019453
0.454502 0.159777 0.020424
0.472931 0.162686 0.021405
0.491349 0.165601 0.022397
0.509765 0.168522 0.023399
0.528188 0.171450 0.024412
0.546622 0.174387 0.025437
0.565077 0.177332 0.026473
0.583758 0.180208 0.027488
0.604544 0.182280 0.028168
0.625409 0.184336 0.028855
0.646357 0.186380 0.029547
0.667393 0.188412 0.030247
0.007279 0.125367 0.012046
0.025117 0.126907 0.007722
0.037004 0.132168 0.006748
0.048375 0.136081 0.006086
0.059729 0.139335 0.005573
0.071465 0.141838 0.005201
0.105211 0.166258 0.005692
0.143840 0.190367 0.006184
0.187557 0.214584 0.006686
0.235196 0.238496 0.007189
0.260693 0.237871 0.007695
0.284091 0.234864 0.008204
0.307275 0.231513 0.008715
0.328568 0.228168 0.009441
0.347745 0.225195 0.010417
0.366186 0.222515 0.011396
0.384188 0.220081 0.012389
0.402015 0.217859 0.013407
0.419698 0.215849 0.014449
0.423841 0.174558 0.017501
0.442465 0.177471 0.018435
0.461055 0.180396 0.019379
0.479622 0.183332 0.020333
0.498176 0.186279 0.021298
0.516724 0.189237 0.022273
0.535276 0.192206 0.023260
0.553839 0.195187 0.024259
0.572419 0.198179 0.025270
0.591022 0.201184 0.026293
0.609654 0.204201 0.027328
0.628321 0.207231 0.028377
0.647026 0.210275 0.029438
0.665775 0.213333 0.030512
0.008248 0.146141 0.012490
0.028252 0.148289 0.008629
0.040922 0.154100 0.007579
0.052892 0.158416 0.006863
0.064740 0.162003 0.006307
0.076666 0.165139 0.005849
0.089870 0.166258 0.005692
0.125191 0.190367 0.006184
0.165554 0.214584 0.006686
0.209868 0.238496 0.007189
0.257729 0.262137 0.007695
0.284091 0.262035 0.008204
0.307275 0.258564 0.008715
0.330264 0.254841 0.009230
0.352588 0.251026 0.009808
0.371189 0.247760 0.010753
0.389343 0.244791 0.011712
0.407317 0.242073 0.012697
0.425143 0.239604 0.013705
0.429471 0.194810 0.016646
0.448224 0.197704 0.017555
0.466939 0.200619 0.018474
0.485630 0.203552 0.019404
0.504304 0.206502 0.020345
0.522971 0.209469 0.021298
0.541639 0.212453 0.022262
0.560315 0.215452 0.023238
0.579007 0.218467 0.024226
0.597720 0.221498 0.025226
0.616461 0.224545 0.026239
0.635234 0.227608 0.027265
0.654045 0.230687 0.028304
0.672897 0.233782 0.029357
0.009229 0.166532 0.012841
0.031452 0.169443 0.009519
0.044905 0.175768 0.008397
0.057480 0.180462 0.007630
0.069836 0.184361 0.007034
0.082202 0.187768 0.006542
0.094993 0.190367 0.006184
0.109485 0.190367 0.006184
0.146871 0.214584 0.006686
0.188225 0.238496 0.007189
0.233151 0.262137 0.007695
0.281303 0.285535 0.008204
0.307275 0.284765 0.008715
0.330264 0.280911 0.009230
0.353073 0.276887 0.009749
0.375188 0.272874 0.010258
0.394078 0.269296 0.011114
0.412187 0.266070 0.012068
0.430143 0.263130 0.013046
0.434642 0.214967 0.015887
0.453513 0.217815 0.016774
0.472344 0.220693 0.017671
0.491146 0.223598 0.018579
0.509930 0.226529 0.019499
0.528705 0.229482 0.020430
0.547479 0.232458 0.021373
0.566259 0.235455 0.022328
0.585053 0.238472 0.023296
0.603867 0.241510 0.024276
0.622706 0.244567 0.025268
0.641577 0.247644 0.026274
0.660484 0.250740 0.027293
0.679431 0.253856 0.028326
0.010239 0.186917 0.013130
0.034763 0.190735 0.010410
0.049003 0.197554 0.009219
0.062193 0.202612 0.008404
0.075069 0.206809 0.007769
0.087890 0.210475 0.007243
0.100781 0.213773 0.006793
0.115286 0.214584 0.006686
0.130522 0.214584 0.006686
0.169163 0.238496 0.007189
0.211395 0.262137 0.007695
0.256877 0.285535 0.008204
0.305304 0.308713 0.008715
0.330264 0.306720 0.009230
0.353073 0.302555 0.009749
0.375188 0.298391 0.010258
0.396929 0.294241 0.010765
0.416786 0.290343 0.011495
0.434864 0.286913 0.012446
0.439525 0.235434 0.015194
0.458506 0.238211 0.016060
0.477445 0.241029 0.016937
0.496353 0.243883 0.017825
0.515241 0.246772 0.018724
0.534117 0.249691 0.019636
0.552990 0.252639 0.020559
0.571868 0.255615 0.021495
0.590757 0.258617 0.022443
0.609665 0.261644 0.023403
0.628598 0.264695 0.024377
0.647560 0.267770 0.025364
0.666556 0.270867 0.026364
0.685593 0.273988 0.027378
0.011259 0.206960 0.013370
0.038119 0.211800 0.011291
0.053134 0.219087 0.010034
0.066931 0.224488 0.009172
0.080323 0.228967 0.008499
0.093600 0.232879 0.007942
0.106899 0.236396 0.007464
0.121081 0.238496 0.007189
0.136838 0.238496 0.007189
0.152501 0.238496 0.007189
0.192279 0.262137 0.007695
0.235326 0.285535 0.008204
0.281341 0.308713 0.008715
0.330054 0.331692 0.009230
0.353073 0.327611 0.009749
0.375188 0.323308 0.010258
0.396929 0.319011 0.010765
0.418592 0.314721 0.011276
0.439279 0.310592 0.011902
0.444092 0.255896 0.014566
0.463176 0.258579 0.015413
0.482216 0.261314 0.016270
0.501222 0.264098 0.017140
0.520205 0.266926 0.018021
0.539175 0.269793 0.018914
0.558141 0.272696 0.019819
0.577109 0.275634 0.020736
0.596088 0.278604 0.021666
0.615084 0.281605 0.022609
0.634102 0.284635 0.023566
0.653149 0.287693 0.024535
0.672230 0.290778 0.025518
0.691349 0.293890 0.026514
0.012291 0.226704 0.013575
0.041514 0.232663 0.012165
0.057291 0.240395 0.010844
0.071684 0.246123 0.009937
0.085586 0.250871 0.009228
0.099313 0.255016 0.008641
0.113018 0.258742 0.008136
0.126853 0.262137 0.007695
0.143114 0.262137 0.007695
0.159263 0.262137 0.007695
0.175318 0.262137 0.007695
0.216124 0.285535 0.008204
0.259916 0.308713 0.008715
0.306429 0.331692 0.009230
0.353073 0.352153 0.009749
0.375188 0.347723 0.010258
0.396929 0.343288 0.010765
0.418592 0.338853 0.011276
0.440197 0.334465 0.011792
0.448397 0.276398 0.013992
0.467578 0.278965 0.014820
0.486711 0.281600 0.015660
0.505809 0.284295 0.016512
0.524882 0.287044 0.017375
0.543941 0.289842 0.018251
0.562993 0.292686 0.019139
0.582046 0.295570 0.020040
0.601109 0.298494 0.020953
0.620187 0.301455 0.021880
0.639286 0.304450 0.022819
0.658413 0.307478 0.023772
0.677572 0.310538 0.024739
0.696768 0.313629 0.025719
0.013916 0.246185 0.014344
0.044943 0.253345 0.013033
0.061466 0.261502 0.011651
0.076445 0.267542 0.010700
0.090846 0.272548 0.009957
0.105017 0.276915 0.009340
0.119124 0.280841 0.008809
0.133307 0.284449 0.008341
0.149340 0.285535 0.008204
0.165958 0.285535 0.008204
0.182466 0.285535 0.008204
0.198880 0.285535 0.008204
0.240610 0.308713 0.008715
0.285078 0.331692 0.009230
0.332045 0.354487 0.009749
0.375188 0.371706 0.010258
0.396929 0.367145 0.010765
0.418592 0.362574 0.011276
0.440197 0.358045 0.011792
0.452480 0.296972 0.013462
0.471751 0.299405 0.014274
0.490973 0.301922 0.015097
0.510158 0.304511 0.015932
0.529317 0.307166 0.016779
0.548458 0.309880 0.017639
0.567592 0.312648 0.018511
0.586726 0.315466 0.019396
0.605867 0.318331 0.020294
0.625022 0.321238 0.021204
0.644198 0.324186 0.022129
0.663400 0.327173 0.023066
0.682633 0.330197 0.024017
0.701902 0.333256 0.024982
0.015943 0.265431 0.015434
0.048401 0.273861 0.013897
0.065654 0.282426 0.012456
0.081205 0.288765 0.011464
0.096096 0.294017 0.010687
0.110702 0.298599 0.010041
0.125204 0.302715 0.009485
0.139750 0.306498 0.008994
0.155505 0.308713 0.008715
0.172574 0.308713 0.008715
0.189519 0.308713 0.008715
0.206356 0.308713 0.008715
0.223100 0.308713 0.008715
0.265658 0.331692 0.009230
0.310733 0.354487 0.009749
0.356969 0.376583 0.010258
0.396929 0.390635 0.010765
0.418592 0.385937 0.011276
0.440197 0.381275 0.011792
0.456371 0.317643 0.012971
0.475729 0.319925 0.013766
0.495035 0.322306 0.014574
0.514303 0.324773 0.015394
0.533542 0.327319 0.016225
0.552762 0.329935 0.017070
0.571973 0.332615 0.017927
0.591183 0.335354 0.018796
0.610399 0.338146 0.019679
0.629628 0.340989 0.020575
0.648876 0.343880 0.021485
0.668149 0.346814 0.022408
0.687452 0.349791 0.023345
0.706791 0.352808 0.024295
0.018066 0.284466 0.016533
0.051881 0.294224 0.014759
0.069849 0.303181 0.013261
0.085960 0.309808 0.012228
0.101329 0.315297 0.011418
0.116360 0.320084 0.010744
0.131247 0.324384 0.010164
0.146149 0.328334 0.009651
0.161600 0.331692 0.009230
0.179105 0.331692 0.009230
0.196470 0.331692 0.009230
0.213715 0.331692 0.009230
0.230854 0.331692 0.009230
0.247900 0.331692 0.009230
0.291197 0.354487 0.009749
0.335714 0.376583 0.010258
0.381757 0.398303 0.010765
0.418592 0.408986 0.011276
0.440197 0.404198 0.011792
0.458472 0.338578 0.012711
0.479536 0.340543 0.013293
0.498922 0.342772 0.014086
0.518268 0.345104 0.014891
0.537584 0.347527 0.015708
0.556880 0.350032 0.016538
0.576165 0.352611 0.017380
0.595447 0.355258 0.018236
0.614734 0.357967 0.019104
0.634033 0.360735 0.019986
0.653350 0.363556 0.020882
0.672691 0.366428 0.021791
0.692061 0.369349 0.022714
0.711466 0.372314 0.023651
0.020276 0.303311 0.017638
0.055380 0.314445 0.015621
0.074046 0.323780 0.014067
0.090702 0.330684 0.012994
0.106538 0.336401 0.012152
0.121983 0.341385 0.011451
0.137247 0.345862 0.010847
0.152496 0.349974 0.010313
0.168030 0.353857 0.009826
0.185542 0.354487 0.009749
0.203312 0.354487 0.009749
0.220948 0.354487 0.009749
0.238467 0.354487 0.009749
0.255883 0.354487 0.009749
0.273207 0.354487 0.009749
0.316102 0.376583 0.010258
0.360556 0.398303 0.010765
0.406958 0.419942 0.011276
0.440197 0.426846 0.011792
0.458472 0.359611 0.012711
0.480287 0.361504 0.013201
0.502099 0.363395 0.013696
0.522076 0.365519 0.014419
0.541465 0.367806 0.015222
0.560833 0.370187 0.016038
0.580189 0.372653 0.016867
0.599540 0.375197 0.017709
0.618896 0.377813 0.018564
0.638261 0.380495 0.019433
0.657644 0.383238 0.020315
0.677050 0.386038 0.021211
0.696485 0.388892 0.022121
0.715953 0.391798 0.023045
0.022510 0.321548 0.018725
0.058809 0.334064 0.016461
0.078141 0.343755 0.014855
0.095316 0.350920 0.013744
0.111595 0.356852 0.012872
0.127434 0.362022 0.012145
0.143055 0.366665 0.011518
0.158634 0.370930 0.010963
0.174480 0.374956 0.010457
0.191730 0.376583 0.010258
0.209881 0.376583 0.010258
0.227884 0.376583 0.010258
0.245760 0.376583 0.010258
0.263522 0.376583 0.010258
0.281185 0.376583 0.010258
0.298345 0.376583 0.010258
0.341328 0.398303 0.010765
0.386270 0.419942 0.011276
0.433049 0.441519 0.011792
0.458472 0.379994 0.012711
0.480287 0.381900 0.013201
0.502099 0.383806 0.013696
0.523917 0.385711 0.014195
0.545117 0.387691 0.014775
0.564553 0.389940 0.015578
0.583974 0.392285 0.016394
0.603391 0.394719 0.017223
0.622810 0.397233 0.018066
0.642239 0.399821 0.018922
0.661684 0.402478 0.019792
0.681150 0.405200 0.020675
0.700645 0.407982 0.021573
0.720172 0.410820 0.022485
0.024786 0.339449 0.019807
0.062211 0.353360 0.017294
0.082185 0.363393 0.015636
0.099860 0.370808 0.014489
0.116566 0.376945 0.013587
0.132784 0.382293 0.012835
0.148749 0.387096 0.012187
0.164645 0.391506 0.011612
0.180789 0.395669 0.011087
0.197751 0.398303 0.010765
0.216264 0.398303 0.010765
0.234618 0.398303 0.010765
0.252832 0.398303 0.010765
0.270924 0.398303 0.010765
0.288907 0.398303 0.010765
0.306374 0.398303 0.010765
0.323575 0.398303 0.010765
0.367142 0.419942 0.011276
0.412557 0.441519 0.011792
0.458472 0.400028 0.012711
0.480287 0.401945 0.013201
0.502099 0.403861 0.013696
0.523917 0.405778 0.014195
0.545751 0.407697 0.014698
0.567607 0.409619 0.015207
0.587595 0.411782 0.015951
0.607073 0.414096 0.016768
0.626553 0.416501 0.017599
0.646042 0.418988 0.018443
0.665545 0.421553 0.019301
0.685070 0.424188 0.020173
0.704622 0.426890 0.021058
0.724205 0.429655 0.021959
0.027127 0.357262 0.020898
0.065624 0.372594 0.018130
0.086226 0.382958 0.016422
0.104389 0.390616 0.015239
0.121511 0.396953 0.014309
0.138097 0.402475 0.013532
0.154395 0.407432 0.012862
0.170600 0.411983 0.012267
0.187035 0.416279 0.011725
0.203679 0.419942 0.011276
0.222541 0.419942 0.011276
0.241232 0.419942 0.011276
0.259773 0.419942 0.011276
0.278182 0.419942 0.011276
0.296473 0.419942 0.011276
0.314233 0.419942 0.011276
0.331719 0.419942 0.011276
0.349168 0.419942 0.011276
0.393277 0.441519 0.011792
0.458472 0.419990 0.012711
0.480287 0.421914 0.013201
0.502099 0.423839 0.013696
0.523917 0.425765 0.014195
0.545751 0.427694 0.014698
0.567607 0.429626 0.015207
0.589495 0.431563 0.015721
0.610649 0.433594 0.016334
0.630188 0.435879 0.017153
0.649735 0.438257 0.017986
0.669295 0.440720 0.018832
0.688876 0.443262 0.019693
0.708483 0.445877 0.020567
0.728121 0.448561 0.021456
0.029526 0.375009 0.021996
0.069047 0.391780 0.018971
0.090262 0.402467 0.017214
0.108900 0.410361 0.015995
0.126425 0.416892 0.015036
0.143370 0.422582 0.014236
0.159992 0.427689 0.013544
0.176495 0.432378 0.012930
0.193213 0.436803 0.012370
0.209888 0.440939 0.011862
0.228707 0.441519 0.011792
0.247722 0.441519 0.011792
0.266577 0.441519 0.011792
0.285290 0.441519 0.011792
0.303878 0.441519 0.011792
0.321920 0.441519 0.011792
0.339678 0.441519 0.011792
0.357395 0.441519 0.011792
0.375085 0.441519 0.011792
0.458472 0.439897 0.012711
0.480287 0.441827 0.013201
0.502099 0.443758 0.013696
0.523917 0.445691 0.014195
0.545751 0.447628 0.014698
0.567607 0.449568 0.015207
0.589495 0.451514 0.015721
0.611421 0.453465 0.016241
0.633391 0.455422 0.016767
0.653328 0.457646 0.017549
0.672944 0.460000 0.018384
0.692580 0.462440 0.019234
0.712240 0.464961 0.020098
0.731931 0.467557 0.020976
0.040758 0.386136 0.024384
0.082628 0.413399 0.019400
0.107578 0.424735 0.017571
0.129437 0.433110 0.016304
0.149948 0.440038 0.015307
0.169748 0.446075 0.014476
0.189146 0.451494 0.013758
0.208383 0.456469 0.013122
0.228761 0.459769 0.012711
0.250963 0.459769 0.012711
0.272866 0.459769 0.012711
0.294511 0.459769 0.012711
0.315931 0.459769 0.012711
0.337154 0.459769 0.012711
0.358201 0.459769 0.012711
0.378602 0.459769 0.012711
0.398656 0.459769 0.012711
0.418640 0.459769 0.012711
0.438573 0.459769 0.012711
0.458472 0.459769 0.012711
0.480287 0.461701 0.013201
0.502099 0.463636 0.013696
0.523917 0.465574 0.014195
0.545751 0.467516 0.014698
0.567607 0.469463 0.015207
0.589495 0.471415 0.015721
0.611421 0.473374 0.016241
0.633391 0.475339 0.016767
0.655412 0.477312 0.017299
0.676503 0.479408 0.017955
0.696192 0.481739 0.018794
0.715904 0.484158 0.019647
0.735647 0.486660 0.020514
0.042549 0.404364 0.025389
0.085101 0.432294 0.020292
0.110280 0.443900 0.018417
0.132268 0.452471 0.017117
0.152853 0.459562 0.016094
0.172689 0.465738 0.015239
0.192093 0.471282 0.014501
0.211310 0.476370 0.013846
0.230734 0.481172 0.013248
0.252730 0.481552 0.013201
0.274667 0.481552 0.013201
0.296342 0.481552 0.013201
0.317788 0.481552 0.013201
0.339032 0.481552 0.013201
0.360096 0.481552 0.013201
0.380510 0.481552 0.013201
0.400575 0.481552 0.013201
0.420567 0.481552 0.013201
0.440505 0.481552 0.013201
0.460407 0.481552 0.013201
0.480287 0.481552 0.013201
0.502099 0.483489 0.013696
0.523917 0.485430 0.014195
0.545751 0.487375 0.014698
0.567607 0.489326 0.015207
0.589495 0.491283 0.015721
0.611421 0.493247 0.016241
0.633391 0.495219 0.016767
0.655412 0.497199 0.017299
0.677488 0.499187 0.017837
0.699625 0.501185 0.018382
0.719484 0.503485 0.019214
0.739276 0.505885 0.020071
0.044348 0.422589 0.026399
0.087571 0.451170 0.021190
0.112977 0.463040 0.019271
0.135096 0.471804 0.017938
0.155760 0.479052 0.016889
0.175637 0.485365 0.016012
0.195053 0.491030 0.015253
0.214258 0.496230 0.014580
0.233649 0.501136 0.013965
0.254491 0.503329 0.013696
0.276465 0.503329 0.013696
0.298170 0.503329 0.013696
0.319642 0.503329 0.013696
0.340907 0.503329 0.013696
0.361989 0.503329 0.013696
0.382417 0.503329 0.013696
0.402494 0.503329 0.013696
0.422494 0.503329 0.013696
0.442439 0.503329 0.013696
0.462345 0.503329 0.013696
0.482227 0.503329 0.013696
0.502099 0.503329 0.013696
0.523917 0.505271 0.014195
0.545751 0.507218 0.014698
0.567607 0.509171 0.015207
0.589495 0.511132 0.015721
0.611421 0.513100 0.016241
0.633391 0.515076 0.016767
0.655412 0.517061 0.017299
0.677488 0.519055 0.017837
0.699625 0.521059 0.018382
0.721827 0.523073 0.018934
0.742828 0.525247 0.019643
0.046154 0.440821 0.027414
0.090039 0.470038 0.022096
0.115671 0.482166 0.020132
0.137924 0.491119 0.018768
0.158669 0.498521 0.017692
0.178591 0.504968 0.016793
0.198026 0.510752 0.016014
0.217226 0.516060 0.015323
0.236591 0.521068 0.014691
0.256250 0.525110 0.014195
0.278260 0.525110 0.014195
0.299996 0.525110 0.014195
0.321494 0.525110 0.014195
0.342781 0.525110 0.014195
0.363881 0.525110 0.014195
0.384325 0.525110 0.014195
0.404413 0.525110 0.014195
0.424423 0.525110 0.014195
0.444375 0.525110 0.014195
0.464286 0.525110 0.014195
0.484171 0.525110 0.014195
0.504044 0.525110 0.014195
0.523917 0.525110 0.014195
0.545751 0.527057 0.014698
0.567607 0.529012 0.015207
0.589495 0.530973 0.015721
0.611421 0.532944 0.016241
0.633391 0.534922 0.016767
0.655412 0.536911 0.017299
0.677488 0.538909 0.017837
0.699625 0.540917 0.018382
0.721827 0.542936 0.018934
0.744099 0.544967 0.019492
0.047970 0.459067 0.028437
0.092507 0.488907 0.023009
0.118365 0.501288 0.021002
0.140752 0.510425 0.019606
0.161581 0.517978 0.018505
0.181553 0.524555 0.017583
0.201011 0.530456 0.016785
0.220212 0.535871 0.016076
0.239559 0.540978 0.015427
0.258765 0.545751 0.014838
0.280053 0.546904 0.014698
0.301821 0.546904 0.014698
0.323345 0.546904 0.014698
0.344655 0.546904 0.014698
0.365775 0.546904 0.014698
0.386233 0.546904 0.014698
0.406334 0.546904 0.014698
0.426354 0.546904 0.014698
0.446314 0.546904 0.014698
0.466230 0.546904 0.014698
0.486119 0.546904 0.014698
0.505994 0.546904 0.014698
0.525868 0.546904 0.014698
0.545751 0.546904 0.014698
0.567607 0.548858 0.015207
0.589495 0.550820 0.015721
0.611421 0.552790 0.016241
0.633391 0.554770 0.016767
0.655412 0.556760 0.017299
0.677488 0.558761 0.017837
0.699625 0.560772 0.018382
0.721827 0.562795 0.018934
0.744099 0.564829 0.019492
0.049796 0.477334 0.029466
0.094977 0.507785 0.023931
0.121059 0.520413 0.021881
0.143581 0.529731 0.020454
0.164497 0.537432 0.019327
0.184523 0.544138 0.018384
0.204008 0.550153 0.017566
0.223215 0.555671 0.016839
0.242550 0.560877 0.016174
0.261727 0.565740 0.015569
0.281847 0.568720 0.015207
0.303646 0.568720 0.015207
0.325197 0.568720 0.015207
0.346530 0.568720 0.015207
0.367669 0.568720 0.015207
0.388144 0.568720 0.015207
0.408258 0.568720 0.015207
0.428289 0.568720 0.015207
0.448257 0.568720 0.015207
0.468180 0.568720 0.015207
0.488073 0.568720 0.015207
0.507951 0.568720 0.015207
0.527825 0.568720 0.015207
0.547708 0.568720 0.015207
0.567607 0.568720 0.015207
0.589495 0.570680 0.015721
0.611421 0.572650 0.016241
0.633391 0.574630 0.016767
0.655412 0.576620 0.017299
0.677488 0.578622 0.017837
0.699625 0.580635 0.018382
0.721827 0.582660 0.018934
0.744099 0.584697 0.019492
0.051632 0.495628 0.030503
0.097450 0.526678 0.024861
0.123755 0.539550 0.022769
0.146414 0.549045 0.021311
0.167419 0.556892 0.020159
0.187500 0.563723 0.019194
0.207017 0.569850 0.018357
0.226235 0.575471 0.017613
0.245564 0.580772 0.016931
0.264718 0.585725 0.016311
0.283756 0.590388 0.015743
0.305472 0.590565 0.015721
0.327051 0.590565 0.015721
0.348408 0.590565 0.015721
0.369567 0.590565 0.015721
0.390058 0.590565 0.015721
0.410186 0.590565 0.015721
0.430228 0.590565 0.015721
0.450205 0.590565 0.015721
0.470135 0.590565 0.015721
0.490034 0.590565 0.015721
0.509915 0.590565 0.015721
0.529791 0.590565 0.015721
0.549673 0.590565 0.015721
0.569571 0.590565 0.015721
0.589495 0.590565 0.015721
0.611421 0.592532 0.016241
0.633391 0.594511 0.016767
0.655412 0.596500 0.017299
0.677488 0.598501 0.017837
0.699625 0.600514 0.018382
0.721827 0.602540 0.018934
0.744099 0.604578 0.019492
0.053480 0.513956 0.031548
0.099927 0.545595 0.025801
0.126455 0.558706 0.023666
0.149250 0.568375 0.022178
0.170346 0.576364 0.021001
0.190487 0.583319 0.020014
0.210038 0.589555 0.019158
0.229272 0.595277 0.018396
0.248598 0.600672 0.017698
0.267736 0.605713 0.017064
0.286743 0.610458 0.016481
0.307300 0.612446 0.016241
0.328907 0.612446 0.016241
0.350288 0.612446 0.016241
0.371468 0.612446 0.016241
0.391976 0.612446 0.016241
0.412118 0.612446 0.016241
0.432172 0.612446 0.016241
0.452159 0.612446 0.016241
0.472097 0.612446 0.016241
0.492001 0.612446 0.016241
0.511886 0.612446 0.016241
