Resources/LUTs/Fuji_Astia_100F_Linear.cube
TITLE "Fuji_Astia_100F_Linear_v2"
LUT_3D_SIZE 5
DOMAIN_MIN 0.0 0.0 0.0
DOMAIN_MAX 1.0 1.0 1.0
# Fuji Astia 100F (RDP III) Linear LUT v2.0
# ========================================
# Input/Output: Linear RGB
# 
# Film Characteristics:
# - Soft S-curve (lower contrast than Provia)
# - Excellent skin tone rendering (desaturated reds/oranges)
# - Subtle cyan bias in shadows
# - Clean, slightly warm highlights
# - High vibrance, moderate saturation
# - Muted greens with cyan shift
# 
# Usage: Apply in linear space pipeline
# sRGB -> Linear -> LUT -> Grain/Bloom -> Linear -> sRGB
0.002984 0.008984 0.023016
0.231762 0.034673 0.047261
0.463022 0.062407 0.072354
0.681186 0.088533 0.095806
0.900018 0.114898 0.119878
0.034333 0.229026 0.054037
0.231573 0.230985 0.034720
0.447983 0.271690 0.075413
0.658609 0.310770 0.108672
0.870213 0.350086 0.142585
0.064578 0.453114 0.094271
0.232307 0.451830 0.067652
0.458008 0.456831 0.059684
0.655139 0.476584 0.107033
0.866744 0.534171 0.140946
0.092702 0.664652 0.136412
0.248633 0.663677 0.097875
0.483638 0.671707 0.086098
0.673295 0.670124 0.084539
0.865707 0.683646 0.137911
0.122674 0.877089 0.177581
0.267554 0.876425 0.126544
0.511593 0.887673 0.111443
0.700989 0.885830 0.109624
0.891531 0.884322 0.108143
0.017093 0.023220 0.263943
0.231700 0.034657 0.244506
0.462197 0.061628 0.268838
0.680361 0.087754 0.292290
0.898832 0.114300 0.317083
0.011918 0.250143 0.253293
0.259798 0.259798 0.261893
0.495892 0.282261 0.282885
0.717468 0.304442 0.305648
0.925165 0.341539 0.343242
0.063402 0.452506 0.285297
0.284070 0.489742 0.299788
0.492471 0.491847 0.281340
0.700053 0.525405 0.318238
0.902113 0.563908 0.361697
0.091527 0.664044 0.327439
0.307961 0.705628 0.338170
0.512800 0.711150 0.303360
0.712347 0.709433 0.301697
0.901347 0.719562 0.358481
0.121769 0.876481 0.368427
0.348831 0.908120 0.387127
0.506611 0.907124 0.348697
0.729935 0.915093 0.337065
0.920388 0.913497 0.335496
0.032463 0.038718 0.504165
0.260470 0.036159 0.498821
0.461509 0.060987 0.465889
0.679533 0.086974 0.489202
0.897644 0.113700 0.514717
0.022472 0.261298 0.498630
0.268269 0.268979 0.509374
0.494695 0.281670 0.492617
0.716264 0.303859 0.514315
0.923976 0.340939 0.541431
0.018672 0.495449 0.494057
0.259910 0.512114 0.511378
0.515243 0.515243 0.515243
0.737709 0.536535 0.537122
0.950460 0.568671 0.569722
0.026297 0.727486 0.503872
0.307038 0.705033 0.539553
0.539270 0.732061 0.552124
0.736614 0.734046 0.534195
0.937063 0.767320 0.579530
0.120861 0.875871 0.559687
0.347923 0.907510 0.578387
0.575476 0.939218 0.597129
0.734778 0.938004 0.571414
0.949307 0.942735 0.563342
0.046977 0.053322 0.730640
0.275029 0.050808 0.725342
0.488888 0.088381 0.679664
0.678501 0.086365 0.675382
0.896523 0.113135 0.701076
0.032363 0.271847 0.730088
0.277535 0.278904 0.741458
0.517105 0.276929 0.739677
0.715129 0.303308 0.711111
0.922855 0.340374 0.728345
0.028526 0.505960 0.726135
0.264468 0.516367 0.748861
0.523192 0.523861 0.749366
0.736644 0.535914 0.734685
0.949610 0.568106 0.756455
0.025126 0.726971 0.724923
0.261595 0.749061 0.747199
0.516681 0.753235 0.751572
0.758360 0.756110 0.754610
0.977179 0.782881 0.781407
0.035324 0.959994 0.733086
0.284138 0.969880 0.743136
0.574635 0.938643 0.777497
0.789286 0.968547 0.795143
0.976596 0.970309 0.778215
0.061550 0.067988 0.958083
0.289648 0.065520 0.952830
0.518050 0.062859 0.947386
0.705167 0.113588 0.890325
0.895397 0.112568 0.888228
0.059994 0.290901 0.944834
0.303356 0.305291 0.958180
0.530968 0.303436 0.956994
0.731477 0.340806 0.916493
0.921729 0.339807 0.916052
0.038493 0.516586 0.959267
0.286545 0.526508 0.969883
0.543699 0.544965 0.971958
0.758321 0.543175 0.970799
0.948755 0.567538 0.943982
0.035119 0.737495 0.957867
0.283968 0.747416 0.967952
0.533354 0.757359 0.978060
0.772889 0.771003 0.983271
0.976325 0.782313 0.968934
0.034418 0.959477 0.954895
0.283232 0.969364 0.964945
0.532584 0.979272 0.975018
0.767794 0.988616 0.984488
1.000000 0.998000 0.994000
