Resources/LUTs/Fuji_Eterna_linear.cube
TITLE "Fuji_Eterna_Cinema_v2_Improved"
LUT_3D_SIZE 9
DOMAIN_MIN 0.0 0.0 0.0
DOMAIN_MAX 1.0 1.0 1.0
0.023259 0.057192 0.063470
0.100559 0.061107 0.066730
0.186654 0.065533 0.070461
0.295109 0.071212 0.075322
0.370123 0.075214 0.078798
0.444953 0.079271 0.082366
0.579269 0.086736 0.089053
0.723802 0.095086 0.096740
0.804154 0.099917 0.101306
0.045514 0.156140 0.070140
0.126866 0.143761 0.078295
0.212294 0.148387 0.082360
0.319827 0.154343 0.087682
0.394133 0.158556 0.091511
0.468178 0.162849 0.095471
0.600746 0.170838 0.103033
0.771948 0.175490 0.099002
0.853297 0.180092 0.103604
0.067920 0.250990 0.078803
0.148924 0.253946 0.081378
0.238016 0.241736 0.097089
0.343970 0.248166 0.103200
0.433986 0.251882 0.095153
0.508500 0.256097 0.099369
0.642765 0.263693 0.106964
0.788134 0.271916 0.115188
0.869483 0.276518 0.119790
0.090237 0.372595 0.092737
0.169338 0.376122 0.096264
0.257630 0.380059 0.100200
0.367514 0.368764 0.126279
0.454432 0.373683 0.115599
0.528946 0.377899 0.119814
0.663211 0.385494 0.127410
0.808580 0.393718 0.135634
0.889929 0.398320 0.140236
0.101839 0.458101 0.104339
0.180941 0.461628 0.107866
0.269233 0.465565 0.111803
0.380759 0.470538 0.116775
0.456014 0.457264 0.147184
0.543127 0.462378 0.133995
0.677391 0.469974 0.141591
0.822761 0.478198 0.149815
0.904110 0.482800 0.154417
0.113442 0.543608 0.115942
0.192543 0.547134 0.119469
0.280835 0.551071 0.123405
0.392361 0.556044 0.128378
0.469714 0.559493 0.131827
0.544513 0.545763 0.168089
0.691572 0.554453 0.155772
0.836942 0.562677 0.163996
0.918291 0.567279 0.168598
0.134348 0.697679 0.136848
0.213449 0.701206 0.140375
0.301741 0.705142 0.144312
0.413268 0.710115 0.149284
0.490620 0.713564 0.152733
0.567973 0.717013 0.156182
0.703978 0.705228 0.205757
0.862494 0.714898 0.189548
0.943902 0.719518 0.194138
0.156983 0.864493 0.159483
0.236085 0.868020 0.163010
0.324377 0.871957 0.166947
0.435933 0.876938 0.171914
0.513435 0.880432 0.175333
0.591063 0.883963 0.178727
0.731254 0.890422 0.184779
0.879238 0.878664 0.246019
0.959220 0.884181 0.251057
0.169686 0.957853 0.172143
0.248950 0.961429 0.175637
0.337579 0.965466 0.179507
0.449764 0.970637 0.184347
0.527728 0.974269 0.187674
0.605816 0.977939 0.190976
0.746839 0.984646 0.196862
0.899984 0.992046 0.203143
0.981133 0.976865 0.267785
0.026053 0.058517 0.133692
0.103300 0.062448 0.136978
0.189334 0.066892 0.140739
0.297706 0.072596 0.145642
0.372657 0.076616 0.149149
0.447419 0.080693 0.152751
0.581598 0.088200 0.159507
0.725937 0.096608 0.167291
0.806131 0.101487 0.171936
0.052734 0.141058 0.145070
0.129409 0.145161 0.148642
0.214760 0.149810 0.152745
0.322185 0.155798 0.158121
0.396405 0.160038 0.161994
0.470349 0.164360 0.166004
0.602640 0.172433 0.173704
0.743965 0.181745 0.182995
0.822989 0.186975 0.188225
0.069793 0.251985 0.155237
0.150706 0.254968 0.157859
0.240140 0.243262 0.167645
0.345855 0.249763 0.173876
0.435450 0.253346 0.168505
0.509964 0.257561 0.172721
0.644229 0.265157 0.180316
0.789598 0.273380 0.188540
0.870947 0.277982 0.193142
0.091434 0.373793 0.169509
0.170536 0.377320 0.173036
0.258828 0.381256 0.176973
0.369177 0.370427 0.197066
0.455896 0.375147 0.188951
0.530410 0.379362 0.193166
0.664675 0.386958 0.200762
0.810044 0.395182 0.208986
0.891393 0.399784 0.213588
0.103037 0.459299 0.181112
0.182138 0.462826 0.184638
0.270430 0.466763 0.188575
0.381957 0.471735 0.193548
0.457677 0.458927 0.217971
0.544591 0.463842 0.207347
0.678855 0.471438 0.214943
0.824225 0.479661 0.223167
0.905574 0.484263 0.227769
0.114639 0.544805 0.192714
0.193741 0.548332 0.196241
0.282033 0.552269 0.200178
0.393559 0.557242 0.205150
0.470912 0.560691 0.208599
0.546177 0.547427 0.238875
0.693036 0.555917 0.229124
0.838406 0.564141 0.237348
0.919754 0.568743 0.241950
0.135546 0.698876 0.213620
0.214647 0.702403 0.217147
0.302939 0.706340 0.221084
0.414465 0.711313 0.226057
0.491818 0.714762 0.229506
0.569171 0.718211 0.232955
0.705642 0.706892 0.276543
0.863961 0.716363 0.262899
0.945416 0.720997 0.267480
0.158181 0.865691 0.236256
0.237283 0.869218 0.239783
0.325575 0.873154 0.243719
0.437168 0.878147 0.248678
0.514714 0.881654 0.252089
0.592385 0.885199 0.255474
0.732656 0.891681 0.261510
0.881190 0.880414 0.316748
0.961220 0.885945 0.321776
0.170924 0.959063 0.248907
0.250233 0.962652 0.252393
0.338912 0.966705 0.256252
0.451160 0.971894 0.261080
0.529167 0.975539 0.264398
0.607299 0.979222 0.267691
0.748400 0.985953 0.273562
0.901631 0.993378 0.279826
0.983293 0.978677 0.338473
0.029151 0.060001 0.212083
0.106338 0.063950 0.215398
0.192302 0.068415 0.219195
0.300579 0.074148 0.224145
0.375459 0.078190 0.227688
0.450144 0.082290 0.231328
0.584161 0.089845 0.238165
0.728268 0.098323 0.246065
0.808253 0.103264 0.250814
0.055619 0.142607 0.223567
0.132221 0.146731 0.227175
0.217485 0.151406 0.231322
0.324783 0.157432 0.236761
0.398901 0.161703 0.240685
0.472724 0.166062 0.244756
0.604606 0.174257 0.252661
0.745822 0.183602 0.262006
0.824846 0.188832 0.267236
0.082599 0.235579 0.237667
0.158323 0.239966 0.241714
0.242458 0.244980 0.246426
0.347800 0.251593 0.252843
0.420186 0.256383 0.257633
0.492571 0.261173 0.262423
0.622999 0.269805 0.271055
0.764215 0.279150 0.280400
0.843240 0.284380 0.285630
0.092771 0.375130 0.255201
0.171873 0.378657 0.258728
0.260165 0.382593 0.262665
0.371034 0.372284 0.276077
0.457530 0.376781 0.270825
0.532044 0.380996 0.275041
0.666309 0.388592 0.282636
0.811678 0.396816 0.290860
0.893027 0.401418 0.295462
0.104374 0.460636 0.266804
0.183475 0.464163 0.270331
0.271767 0.468100 0.274267
0.383293 0.473072 0.279240
0.459534 0.460784 0.296982
0.546225 0.465476 0.289222
0.680489 0.473072 0.296817
0.825859 0.481295 0.305041
0.907208 0.485898 0.309643
0.115976 0.546142 0.278406
0.195078 0.549669 0.281933
0.283370 0.553606 0.285870
0.394896 0.558579 0.290843
0.472249 0.562028 0.294292
0.548034 0.549284 0.317886
0.694670 0.557551 0.310998
0.840040 0.565775 0.319222
0.921389 0.570377 0.323824
0.136883 0.700213 0.299312
0.215984 0.703740 0.302839
0.304276 0.707677 0.306776
0.415802 0.712650 0.311749
0.493155 0.716099 0.315198
0.570508 0.719548 0.318647
0.707499 0.708749 0.355554
0.865616 0.718003 0.344769
0.947123 0.722653 0.349339
0.159518 0.867028 0.321948
0.238620 0.870555 0.325475
0.326911 0.874491 0.329411
0.438565 0.879502 0.334359
0.516160 0.883024 0.337759
0.593880 0.886583 0.341135
0.734237 0.893091 0.347154
0.883387 0.882373 0.395691
0.963470 0.887920 0.400709
0.172324 0.960419 0.334587
0.251683 0.964023 0.338062
0.340417 0.968092 0.341910
0.452735 0.973302 0.346725
0.530791 0.976962 0.350033
0.608972 0.980660 0.353316
0.750160 0.987417 0.359169
0.903486 0.994871 0.365414
0.985721 0.980705 0.417370
0.033032 0.061886 0.311118
0.110143 0.065858 0.314471
0.196017 0.070350 0.318313
0.304169 0.076120 0.323325
0.378956 0.080190 0.326915
0.453539 0.084321 0.330606
0.587341 0.091940 0.337550
0.731122 0.100515 0.345613
0.810713 0.105575 0.350560
0.059224 0.144574 0.322740
0.135732 0.148727 0.326395
0.220880 0.153437 0.330600
0.328011 0.159513 0.336123
0.401991 0.163825 0.340116
0.475644 0.168235 0.344272
0.606951 0.176602 0.352464
0.748167 0.185948 0.361809
0.827192 0.191177 0.367039
0.085796 0.237668 0.337044
0.161374 0.242100 0.341165
0.245293 0.247179 0.345984
0.350146 0.253938 0.352646
0.422531 0.258729 0.357436
0.494916 0.263519 0.362226
0.625345 0.272150 0.370858
0.766561 0.281495 0.380203
0.845585 0.286725 0.385432
0.112372 0.357357 0.358607
0.186394 0.362256 0.363506
0.269016 0.367723 0.368973
0.373380 0.374630 0.375880
0.445765 0.379420 0.380670
0.518150 0.384210 0.385460
0.648579 0.392842 0.394092
0.789795 0.402187 0.403437
0.868819 0.407416 0.408666
0.106063 0.462325 0.375046
0.185164 0.465852 0.378573
0.273456 0.469788 0.382510
0.384982 0.474761 0.387482
0.461879 0.463129 0.396785
0.548289 0.467540 0.392641
0.682553 0.475136 0.400237
0.827923 0.483359 0.408461
0.909272 0.487962 0.413063
0.117665 0.547831 0.386648
0.196767 0.551358 0.390175
0.285059 0.555295 0.394112
0.396585 0.560267 0.399085
0.473937 0.563716 0.402534
0.550379 0.551629 0.417689
0.696734 0.559615 0.414418
0.842104 0.567839 0.422642
0.923453 0.572441 0.427244
0.138571 0.701902 0.407555
0.217673 0.705429 0.411082
0.305965 0.709366 0.415018
0.417491 0.714338 0.419991
0.494844 0.717787 0.423440
0.572196 0.721236 0.426889
0.709844 0.711094 0.455357
0.867733 0.720083 0.448178
0.949307 0.724753 0.452735
0.161207 0.868716 0.430190
0.240308 0.872243 0.433717
0.328614 0.876184 0.437651
0.440357 0.881222 0.442580
0.518012 0.884762 0.445969
0.595794 0.888339 0.449332
0.736263 0.894881 0.455329
0.886188 0.884855 0.495402
0.966338 0.890423 0.500407
0.174120 0.962139 0.442807
0.253542 0.965762 0.446270
0.342346 0.969853 0.450105
0.454753 0.975090 0.454901
0.532869 0.978768 0.458197
0.611112 0.982484 0.461468
0.752411 0.989274 0.467299
0.905857 0.996764 0.473520
0.988815 0.983275 0.517023
0.035703 0.063200 0.379817
0.112760 0.067188 0.383198
0.198569 0.071699 0.387072
0.306633 0.077495 0.392128
0.381352 0.081585 0.395752
0.455862 0.085738 0.399480
0.589508 0.093405 0.406503
0.733032 0.102057 0.414693
0.812339 0.107202 0.419782
0.061699 0.145947 0.391538
0.138139 0.150120 0.395227
0.223203 0.154855 0.399473
0.330212 0.160968 0.405058
0.404089 0.165310 0.409102
0.477608 0.169760 0.413325
0.608578 0.178229 0.421686
0.749794 0.187574 0.431031
0.828818 0.192804 0.436261
0.087975 0.239130 0.405990
0.163441 0.243595 0.410166
0.247186 0.248725 0.415072
0.351773 0.255565 0.421868
0.424158 0.260355 0.426658
0.496543 0.265146 0.431448
0.626971 0.273777 0.440079
0.768188 0.283122 0.449425
0.847212 0.288352 0.454654
0.113999 0.358984 0.427829
0.188021 0.363882 0.432727
0.270643 0.369350 0.438195
0.375006 0.376256 0.445101
0.447392 0.381047 0.449892
0.519777 0.385837 0.454682
0.650205 0.394468 0.463313
0.791421 0.403814 0.472658
0.870446 0.409043 0.477888
0.130114 0.442693 0.443943
0.204135 0.447592 0.448842
0.286757 0.453060 0.454310
0.391121 0.459966 0.461216
0.463506 0.464756 0.466006
0.535891 0.469546 0.470796
0.666320 0.478178 0.479428
0.807536 0.487523 0.488773
0.886560 0.492753 0.494003
0.118836 0.549002 0.461723
0.197938 0.552529 0.465250
0.286230 0.556466 0.469187
0.397756 0.561439 0.474160
0.475109 0.564888 0.477609
0.552006 0.553256 0.486911
0.698166 0.561047 0.486148
0.843535 0.569271 0.494372
0.924884 0.573873 0.498974
0.139743 0.703073 0.482630
0.218844 0.706600 0.486157
0.307136 0.710537 0.490093
0.418662 0.715510 0.495066
0.496015 0.718959 0.498515
0.573368 0.722408 0.501964
0.711471 0.712721 0.524579
0.869218 0.721531 0.519898
0.950840 0.726215 0.524445
0.162378 0.869888 0.505265
0.241480 0.873415 0.508792
0.329813 0.877364 0.512720
0.441617 0.882420 0.517638
0.519315 0.885972 0.521017
0.597139 0.889563 0.524372
0.737685 0.896127 0.530354
0.888149 0.886582 0.564557
0.968346 0.892164 0.569553
0.175383 0.963338 0.517864
0.254848 0.966974 0.521318
0.343701 0.971079 0.525143
0.456169 0.976335 0.529927
0.534329 0.980026 0.533215
0.612614 0.983754 0.536477
0.753990 0.990568 0.542293
0.907519 0.998083 0.548497
0.990979 0.985063 0.586137
0.038356 0.064519 0.448526
0.115357 0.068523 0.451934
0.201101 0.073054 0.455841
0.309075 0.078878 0.460943
0.383725 0.082988 0.464600
0.458158 0.087164 0.468367
0.591639 0.094880 0.475472
0.734867 0.103622 0.483811
0.813966 0.108829 0.489003
0.064152 0.147326 0.460346
0.140522 0.151520 0.464071
0.225500 0.156280 0.468360
0.332380 0.162432 0.474008
0.406147 0.166808 0.478108
0.479513 0.171304 0.482408
0.610205 0.179856 0.490908
0.751421 0.189201 0.500253
0.830445 0.194431 0.505482
0.090119 0.240601 0.474953
0.165465 0.245102 0.479189
0.248997 0.250297 0.484202
0.353399 0.257192 0.491089
0.425785 0.261982 0.495879
0.498170 0.266772 0.500670
0.628598 0.275404 0.509301
0.769814 0.284749 0.518646
0.848839 0.289979 0.523876
0.115626 0.360611 0.497050
0.189647 0.365509 0.501949
0.272269 0.370977 0.507417
0.376633 0.377883 0.514323
0.449018 0.382673 0.519113
0.521404 0.387464 0.523904
0.651832 0.396095 0.532535
0.793048 0.405440 0.541880
0.872073 0.410670 0.547110
0.131740 0.444320 0.513165
0.205762 0.449219 0.518064
0.288384 0.454686 0.523531
0.392748 0.461593 0.530438
0.465133 0.466383 0.535228
0.537518 0.471173 0.540018
0.667947 0.479805 0.548650
0.809163 0.489150 0.557995
0.888187 0.494379 0.563224
0.147855 0.528030 0.529280
0.221877 0.532928 0.534178
0.304499 0.538396 0.539646
0.408863 0.545302 0.546552
0.481248 0.550093 0.551343
0.553633 0.554883 0.556133
0.684061 0.563514 0.564764
0.825278 0.572859 0.574109
0.904302 0.578089 0.579339
0.140914 0.704245 0.557705
0.220015 0.707772 0.561232
0.308307 0.711708 0.565168
0.419834 0.716681 0.570141
0.497186 0.720130 0.573590
0.574539 0.723579 0.577039
0.713098 0.714348 0.593801
0.870719 0.722983 0.591614
0.933857 0.729078 0.608272
0.163549 0.871059 0.580340
0.242651 0.874586 0.583867
0.331026 0.878548 0.587787
0.442891 0.883622 0.592692
0.520632 0.887187 0.596063
0.598499 0.890791 0.599409
0.739121 0.897378 0.605376
0.890125 0.888314 0.633709
0.970368 0.893909 0.638695
0.176660 0.964541 0.592918
0.256169 0.968190 0.596364
0.345071 0.972310 0.600178
0.457600 0.977584 0.604950
0.535803 0.981288 0.608229
0.614130 0.985029 0.611483
0.755583 0.991866 0.617283
0.909195 0.999406 0.623471
0.993158 0.986856 0.655248
0.043090 0.066909 0.572353
0.119990 0.070944 0.575812
0.205612 0.075512 0.579780
0.313417 0.081386 0.584966
0.387937 0.085536 0.588689
0.462225 0.089755 0.592527
0.595381 0.097568 0.599795
0.737873 0.106530 0.608502
0.816898 0.111760 0.613732
0.068514 0.149827 0.584359
0.144753 0.154061 0.588149
0.229567 0.158871 0.592521
0.336197 0.165097 0.598294
0.409736 0.169541 0.602507
0.482707 0.174156 0.607005
0.613136 0.182787 0.615636
0.754352 0.192133 0.624981
0.833376 0.197362 0.630211
0.093889 0.243281 0.599262
0.168982 0.247858 0.603625
0.251967 0.253217 0.608911
0.356331 0.260123 0.615818
0.428716 0.264913 0.620608
0.501101 0.269704 0.625398
0.631529 0.278335 0.634029
0.772746 0.287680 0.643375
0.851770 0.292910 0.648604
0.118557 0.363542 0.621779
0.192579 0.368440 0.626677
0.275201 0.373908 0.632145
0.379565 0.380815 0.639052
0.451950 0.385605 0.643842
0.524335 0.390395 0.648632
0.654763 0.399026 0.657263
0.795980 0.408372 0.666609
0.875004 0.413601 0.671838
0.134672 0.447251 0.637893
0.208693 0.452150 0.642792
0.291315 0.457618 0.648260
0.395679 0.464524 0.655166
0.468064 0.469314 0.659956
0.540449 0.474105 0.664747
0.670878 0.482736 0.673378
0.812094 0.492081 0.682723
0.891119 0.497311 0.687953
0.150786 0.530961 0.654008
0.224808 0.535859 0.658907
0.307430 0.541327 0.664374
0.411794 0.548234 0.671281
0.484179 0.553024 0.676071
0.556564 0.557814 0.680861
0.686993 0.566445 0.689493
0.828209 0.575791 0.698838
0.907233 0.581020 0.704067
0.179823 0.681795 0.683045
0.253844 0.686693 0.687943
0.336466 0.692161 0.693411
0.440830 0.699067 0.700317
0.513215 0.703857 0.705107
0.585601 0.708648 0.709898
0.716041 0.717283 0.718527
0.857606 0.726732 0.727802
0.937033 0.732083 0.732951
0.165660 0.873169 0.715616
0.244786 0.876704 0.719138
0.333249 0.880692 0.723040
0.445225 0.885799 0.727923
0.523043 0.889388 0.731279
0.600986 0.893014 0.734610
0.741747 0.899643 0.740548
0.893720 0.891444 0.758305
0.974047 0.897065 0.763274
0.178999 0.966720 0.728148
0.258586 0.970393 0.731578
0.347575 0.974539 0.735375
0.460216 0.979846 0.740125
0.538495 0.983573 0.743388
0.616899 0.987337 0.746627
0.758491 0.994215 0.752399
0.912252 1.000000 0.758557
0.997120 0.990096 0.779771
0.048149 0.069517 0.706455
0.124933 0.073587 0.709972
0.210417 0.078196 0.714009
0.318030 0.084128 0.719291
0.392399 0.088323 0.723089
0.466517 0.092593 0.727013
0.599267 0.100528 0.734483
0.741047 0.109704 0.743547
0.820071 0.114934 0.748776
0.073150 0.152562 0.718673
0.149238 0.156841 0.722538
0.233859 0.161709 0.727006
0.340182 0.168028 0.732933
0.413403 0.172567 0.737306
0.485881 0.177330 0.742049
0.616310 0.185961 0.750681
0.757526 0.195306 0.760026
0.836550 0.200536 0.765255
0.097811 0.246230 0.733932
0.172517 0.250923 0.738489
0.255140 0.256390 0.743956
0.359504 0.263297 0.750862
0.431889 0.268087 0.755653
0.504275 0.272877 0.760443
0.634703 0.281509 0.769074
0.775919 0.290854 0.778419
0.854944 0.296084 0.783649
0.121731 0.366716 0.756823
0.195752 0.371614 0.761722
0.278374 0.377082 0.767190
0.382738 0.383988 0.774096
0.455123 0.388778 0.778886
0.527508 0.393569 0.783677
0.657937 0.402200 0.792308
0.799153 0.411545 0.801653
0.878178 0.416775 0.806883
0.137845 0.450425 0.772938
0.211867 0.455324 0.777837
0.294489 0.460791 0.783304
0.398853 0.467698 0.790211
0.471238 0.472488 0.795001
0.543623 0.477278 0.799791
0.674052 0.485910 0.808423
0.815268 0.495255 0.817768
0.894292 0.500484 0.822997
0.153960 0.534135 0.789053
0.227982 0.539033 0.793951
0.310604 0.544501 0.799419
0.414967 0.551407 0.806325
0.487353 0.556198 0.811116
0.559738 0.560988 0.815906
0.690166 0.569619 0.824537
0.831382 0.578964 0.833882
0.910407 0.584194 0.839112
0.182996 0.684968 0.818089
0.257018 0.689867 0.822988
0.339640 0.695334 0.828455
0.444004 0.702241 0.835362
0.516389 0.707031 0.840152
0.588774 0.711821 0.844942
0.719280 0.720476 0.853558
0.861006 0.729974 0.862801
0.940524 0.735352 0.867932
0.214439 0.848278 0.849526
0.288560 0.853207 0.854405
0.371448 0.858754 0.859819
0.476381 0.865832 0.866612
0.549315 0.870786 0.871293
0.622374 0.875779 0.875948
0.754333 0.884869 0.884273
0.897667 0.894850 0.893195
0.978084 0.900497 0.898146
0.181584 0.969095 0.874552
0.261256 0.972793 0.877965
0.350340 0.976968 0.881743
0.463100 0.982311 0.886469
0.541463 0.986062 0.889716
0.619950 0.989852 0.892938
0.761691 0.996775 0.898680
0.915615 1.000000 0.904805
1.000000 0.993620 0.914582
0.050947 0.070986 0.781515
0.127665 0.075076 0.785065
0.213069 0.079709 0.789141
0.320569 0.085675 0.794480
0.394849 0.089897 0.798323
0.468863 0.094198 0.802299
0.601348 0.102212 0.809901
0.742823 0.111480 0.819118
0.821847 0.116710 0.824347
0.075703 0.154105 0.793855
0.151701 0.158411 0.797765
0.236205 0.163314 0.802292
0.342332 0.169692 0.808317
0.415272 0.174315 0.812830
0.487657 0.179106 0.817620
0.618086 0.187737 0.826251
0.759302 0.197082 0.835597
0.838326 0.202312 0.840826
0.099919 0.247907 0.809338
0.174295 0.252699 0.814059
0.256916 0.258166 0.819527
0.361280 0.265073 0.826433
0.433665 0.269863 0.831223
0.506051 0.274653 0.836014
0.636479 0.283285 0.844645
0.777695 0.292630 0.853990
0.856720 0.297860 0.859220
0.123507 0.368492 0.832394
0.197528 0.373390 0.837293
0.280150 0.378858 0.842760
0.384514 0.385764 0.849667
0.456899 0.390554 0.854457
0.529284 0.395345 0.859247
0.659713 0.403976 0.867879
0.800929 0.413321 0.877224
0.879954 0.418551 0.882454
0.139621 0.452201 0.848509
0.213643 0.457100 0.853407
0.296265 0.462567 0.858875
0.400629 0.469474 0.865782
0.473014 0.474264 0.870572
0.545399 0.479054 0.875362
0.675828 0.487686 0.883993
0.817044 0.497031 0.893339
0.896068 0.502260 0.898568
0.155736 0.535911 0.864624
0.229758 0.540809 0.869522
0.312380 0.546277 0.874990
0.416743 0.553183 0.881896
0.489129 0.557974 0.886686
0.561514 0.562764 0.891477
0.691942 0.571395 0.900108
0.833158 0.580740 0.909453
0.912183 0.585970 0.914683
0.184772 0.686744 0.893660
0.258794 0.691643 0.898558
0.341416 0.697110 0.904026
0.445780 0.704017 0.910933
0.518165 0.708807 0.915723
0.590550 0.713597 0.920513
0.721116 0.722270 0.929117
0.862933 0.731795 0.938342
0.942502 0.737188 0.943463
0.216236 0.850061 0.925093
0.290404 0.855003 0.929962
0.373345 0.860567 0.935366
0.478346 0.867664 0.942145
0.551326 0.872633 0.946816
0.624432 0.877639 0.951462
0.756475 0.886755 0.959771
0.899899 0.896763 0.968674
0.980368 0.902426 0.973615
0.234967 0.941790 0.942458
0.309607 0.946874 0.947233
0.393074 0.952595 0.952531
0.498739 0.959892 0.959178
0.572180 0.964999 0.963757
0.645747 0.970144 0.968311
0.778621 0.979509 0.976453
0.922945 0.989786 0.985177
1.000000 0.995600 0.990017
