Resources/LUTs/Kodak_ColorPlus_200_Linear.cube
# Kodak ColorPlus 200 V4 - Minimal Color-Only
# Gamma ~1.0, no contrast baking
# Skin tone saturation REDUCED to prevent burnt orange
TITLE "Kodak ColorPlus 200 V4"
LUT_3D_SIZE 5
DOMAIN_MIN 0.0 0.0 0.0
DOMAIN_MAX 1.0 1.0 1.0
0.000000 0.000000 0.000000
0.254890 0.030800 0.030020
0.508498 0.061600 0.060270
0.760826 0.092400 0.090751
1.000000 0.121760 0.120000
0.025908 0.251250 0.007961
0.254396 0.251750 0.000000
0.506757 0.282790 0.060809
0.759750 0.313590 0.091170
1.000000 0.342860 0.120000
0.051562 0.502500 0.016041
0.254500 0.503000 0.000000
0.507500 0.503500 0.000000
0.760500 0.504000 0.000000
1.000000 0.563960 0.120000
0.077332 0.753750 0.024068
0.322897 0.754250 0.022628
0.508250 0.754750 0.000000
0.761250 0.755250 0.000000
1.000000 0.755750 0.000000
0.102610 1.000000 0.031940
0.348160 1.000000 0.030000
0.509000 1.000000 0.000000
0.762000 1.000000 0.000000
1.000000 1.000000 0.000000
0.014833 0.025754 0.241667
0.253403 0.000000 0.240606
0.506791 0.061010 0.270996
0.758902 0.091810 0.300563
1.000000 0.121320 0.328560
0.000000 0.250750 0.243968
0.252915 0.251250 0.242900
0.505500 0.282200 0.273180
0.758500 0.313000 0.301780
1.000000 0.342420 0.329000
0.015302 0.502000 0.218638
0.278781 0.502500 0.251755
0.506250 0.503000 0.242000
0.759250 0.534190 0.302310
1.000000 0.563520 0.329440
0.023567 0.753250 0.209165
0.304559 0.753750 0.259777
0.507000 0.754250 0.242500
0.760000 0.754750 0.240500
1.000000 0.755250 0.238500
0.031698 1.000000 0.199872
0.329837 1.000000 0.267650
0.575386 1.000000 0.265710
0.760750 1.000000 0.241000
1.000000 1.000000 0.239000
0.029639 0.051509 0.484019
0.251915 0.000000 0.483865
0.505078 0.000000 0.483715
0.756962 0.000500 0.483556
1.000000 0.001000 0.482000
0.029525 0.286796 0.488117
0.265209 0.275272 0.487963
0.504250 0.251250 0.486500
0.757250 0.312410 0.517230
1.000000 0.341980 0.544600
0.000000 0.501500 0.491000
0.252000 0.502000 0.489000
0.505000 0.502500 0.487000
0.758000 0.533600 0.517760
1.000000 0.563080 0.545040
0.000000 0.752750 0.491500
0.267765 0.753250 0.462458
0.531785 0.753750 0.495488
0.758750 0.754250 0.485500
1.000000 0.784180 0.545480
0.030485 1.000000 0.437435
0.275895 1.000000 0.453164
0.557063 1.000000 0.503360
0.759500 1.000000 0.486000
1.000000 1.000000 0.484000
0.044418 0.077263 0.727054
0.250429 0.000000 0.727799
0.503363 0.000000 0.728570
0.755250 0.000000 0.729000
1.000000 0.000500 0.727000
0.044232 0.312081 0.732942
0.279010 0.301061 0.733500
0.503000 0.250750 0.731500
0.756000 0.251250 0.729500
1.000000 0.251750 0.727500
0.044160 0.548308 0.736000
0.279745 0.537254 0.734000
0.515800 0.524533 0.732000
0.756750 0.502500 0.730000
1.000000 0.562640 0.760640
0.000000 0.752250 0.736500
0.251500 0.752750 0.734500
0.504500 0.753250 0.732500
0.757500 0.753750 0.730500
1.000000 0.783740 0.761080
0.000000 1.000000 0.737000
0.252250 1.000000 0.735000
0.520092 1.000000 0.706457
0.784289 1.000000 0.739070
1.000000 1.000000 0.729000
0.059169 0.103018 0.970774
0.248617 0.058680 0.972408
0.501650 0.000000 0.974100
0.754000 0.000000 0.974000
1.000000 0.000000 0.972000
0.058912 0.337365 0.978445
0.292535 0.326401 0.978500
0.501750 0.250250 0.976500
0.754750 0.250750 0.974500
1.000000 0.251250 0.972500
0.058860 0.573593 0.981000
0.293270 0.562595 0.979000
0.530030 0.550545 0.977000
0.755500 0.502000 0.975000
1.000000 0.502500 0.973000
0.000000 0.751750 0.981500
0.294005 0.798789 0.979500
0.531705 0.787633 0.977500
0.766585 0.773793 0.975500
1.000000 0.753750 0.973500
0.000000 1.000000 0.982000
0.251000 1.000000 0.980000
0.504000 1.000000 0.978000
0.757000 1.000000 0.976000
1.000000 1.000000 0.974000
