Resources/LUTs/Kodak_Portra_160_Linear.cube
# Kodak Portra 160 - Professional Portrait Film Emulation
# 33x33x33 3D LUT for Linear Colorspace
# Characteristics: Natural skin tones, low contrast, muted colors
# Film Type: C-41 Color Negative
#
# Created for Film Emulation Pro Filters
TITLE "Kodak Portra 160 Linear"
LUT_3D_SIZE 9
DOMAIN_MIN 0.0 0.0 0.0
DOMAIN_MAX 1.0 1.0 1.0
0.003865 0.005858 0.009813
0.111964 0.012552 0.013448
0.243044 0.017423 0.015195
0.365457 0.021429 0.016757
0.479957 0.025089 0.018541
0.588071 0.028363 0.020089
0.675537 0.030916 0.021269
0.737857 0.032692 0.022079
0.786805 0.034066 0.022698
0.015654 0.091479 0.022249
0.105377 0.108173 0.011642
0.273978 0.132060 0.007410
0.413549 0.153857 0.007555
0.544494 0.159834 0.007970
0.668286 0.164867 0.008322
0.768516 0.168620 0.008586
0.839966 0.171154 0.008764
0.896105 0.173074 0.008900
0.023642 0.168346 0.033211
0.108332 0.168346 0.022849
0.204177 0.204875 0.013892
0.340987 0.216800 0.015899
0.544494 0.252386 0.007970
0.668286 0.292076 0.008322
0.768516 0.297307 0.008586
0.839966 0.300832 0.008764
0.896105 0.303498 0.008900
0.030760 0.244966 0.043167
0.094222 0.244966 0.028034
0.188924 0.244966 0.028034
0.340987 0.300765 0.015899
0.447158 0.313091 0.018074
0.547337 0.323451 0.019988
0.768516 0.373381 0.008586
0.839966 0.375060 0.008764
0.896105 0.376324 0.008900
0.036546 0.317877 0.053022
0.100084 0.317877 0.033244
0.205159 0.317877 0.033244
0.355264 0.392295 0.018074
0.447158 0.392295 0.018074
0.547337 0.404101 0.019988
0.628346 0.412882 0.019936
0.686047 0.418802 0.020870
0.731360 0.423282 0.021589
0.041748 0.386326 0.062045
0.105041 0.386326 0.037924
0.163318 0.386326 0.037924
0.316682 0.386326 0.035034
0.460875 0.478435 0.018581
0.547337 0.478435 0.018581
0.628346 0.488122 0.019936
0.686047 0.494647 0.020870
0.731360 0.499583 0.021589
0.045818 0.441491 0.069195
0.108753 0.441491 0.038385
0.168112 0.441491 0.038385
0.330696 0.441491 0.038385
0.471081 0.547972 0.019936
0.558615 0.547972 0.019936
0.628346 0.547972 0.019936
0.686047 0.554952 0.020870
0.731360 0.560230 0.021589
0.048658 0.480702 0.074222
0.111268 0.480702 0.040721
0.171350 0.480702 0.040721
0.340243 0.480702 0.040721
0.407745 0.480702 0.040721
0.566213 0.597450 0.020870
0.636482 0.597450 0.020870
0.686047 0.597450 0.020870
0.731360 0.602960 0.021589
0.050857 0.511452 0.071794
0.113177 0.511452 0.042529
0.173805 0.511452 0.042529
0.347520 0.511452 0.042529
0.415829 0.511452 0.042529
0.571962 0.636278 0.021589
0.642636 0.636278 0.021589
0.692476 0.636278 0.021589
0.731360 0.636278 0.021589
0.010249 0.011800 0.125935
0.101528 0.012253 0.122852
0.210034 0.013341 0.137298
0.351353 0.015560 0.144265
0.461049 0.017569 0.151574
0.564586 0.019330 0.157747
0.648326 0.020683 0.162362
0.707982 0.021615 0.165484
0.754833 0.022331 0.167853
0.011990 0.102883 0.096023
0.138125 0.136813 0.124303
0.281844 0.148095 0.133379
0.411289 0.158710 0.140450
0.533488 0.169169 0.146157
0.648186 0.179654 0.150952
0.740613 0.188774 0.154524
0.806738 0.195790 0.156870
0.859846 0.201812 0.158470
0.017106 0.191613 0.116454
0.161527 0.232552 0.146787
0.276650 0.245138 0.136395
0.432791 0.266303 0.130611
0.567053 0.273569 0.132779
0.693684 0.281103 0.134579
0.796054 0.287799 0.135907
0.869414 0.293051 0.136739
0.928327 0.297694 0.137203
0.030760 0.244966 0.122768
0.180548 0.324650 0.167477
0.280910 0.324650 0.162232
0.399975 0.351654 0.145922
0.567053 0.384149 0.132779
0.693684 0.403057 0.134579
0.796054 0.411310 0.135907
0.869414 0.417775 0.136739
0.928327 0.423480 0.125652
0.036546 0.317877 0.136702
0.196367 0.409853 0.187300
0.294691 0.409853 0.176367
0.394234 0.409853 0.176367
0.515908 0.451430 0.140668
0.624430 0.464237 0.146637
0.796054 0.502405 0.124481
0.869414 0.504531 0.125237
0.928327 0.540858 0.125652
0.041748 0.386326 0.148836
0.209968 0.488784 0.206764
0.303236 0.488784 0.172401
0.384997 0.488784 0.172401
0.491612 0.488784 0.172401
0.624430 0.544614 0.146637
0.711722 0.555057 0.151104
0.774118 0.562227 0.154064
0.824234 0.568031 0.156136
0.045818 0.441491 0.158116
0.245484 0.551833 0.204176
0.307301 0.551833 0.180782
0.389668 0.551833 0.180782
0.509686 0.551833 0.180782
0.636605 0.619453 0.151104
0.711722 0.619453 0.151104
0.774118 0.627096 0.154064
0.824234 0.633281 0.156136
0.048658 0.480702 0.150522
0.253737 0.596538 0.215507
0.308957 0.596538 0.186431
0.391569 0.596538 0.186431
0.522294 0.596538 0.186431
0.592438 0.596538 0.186431
0.720878 0.672686 0.154064
0.774118 0.672686 0.154064
0.824234 0.679129 0.156136
0.050857 0.511452 0.154974
0.260662 0.631878 0.224616
0.310074 0.631878 0.190548
0.392852 0.631878 0.190548
0.466034 0.631878 0.190548
0.603767 0.631878 0.190548
0.728928 0.714814 0.156136
0.782509 0.714814 0.156136
0.824234 0.714814 0.156136
0.014087 0.014549 0.226824
0.117752 0.015819 0.220638
0.210034 0.013341 0.233109
0.351353 0.015560 0.242570
0.461049 0.017569 0.252439
0.564586 0.019330 0.260733
0.648326 0.020683 0.266910
0.707982 0.021615 0.271078
0.754833 0.022331 0.227479
0.017106 0.116331 0.175561
0.151645 0.150197 0.222087
0.278869 0.148760 0.223820
0.404802 0.158132 0.235146
0.523400 0.165731 0.244274
0.634548 0.172141 0.251937
0.724022 0.176928 0.257641
0.788002 0.180235 0.261402
0.839389 0.182941 0.264012
0.017106 0.191613 0.175561
0.155062 0.240689 0.218074
0.298256 0.263835 0.238952
0.431700 0.276037 0.248856
0.557209 0.288087 0.256803
0.678248 0.301232 0.262682
0.776047 0.312833 0.267002
0.845601 0.321767 0.269907
0.900167 0.329258 0.272103
0.021516 0.280475 0.203320
0.180548 0.324650 0.233900
0.327239 0.362472 0.263046
0.426681 0.374663 0.252111
0.576788 0.395188 0.245987
0.708234 0.403870 0.247819
0.814866 0.411783 0.249132
0.890897 0.417986 0.228300
0.950643 0.423246 0.228890
0.024931 0.365209 0.218007
0.196367 0.409853 0.253509
0.351120 0.453054 0.285746
0.431689 0.453054 0.255777
0.546829 0.477999 0.239949
0.708234 0.508987 0.226345
0.814866 0.527355 0.227517
0.890897 0.534518 0.228300
0.950643 0.540587 0.228890
0.027964 0.444889 0.230555
0.209968 0.488784 0.247635
0.373992 0.537765 0.280320
0.448629 0.537765 0.269421
0.546407 0.537765 0.269421
0.662415 0.575472 0.247336
0.755601 0.587244 0.252798
0.821780 0.595175 0.256480
0.950643 0.624213 0.228890
0.045818 0.441491 0.226687
0.245484 0.551833 0.279416
0.391408 0.605339 0.297064
0.458360 0.605339 0.279646
0.538182 0.605339 0.279646
0.677754 0.653744 0.252798
0.755601 0.653744 0.252798
0.821780 0.662185 0.256480
0.873650 0.668570 0.259267
0.048658 0.480702 0.214292
0.253737 0.596538 0.292997
0.403286 0.653035 0.309799
0.463062 0.653035 0.286591
0.543344 0.653035 0.286591
0.657489 0.653035 0.286591
0.766624 0.709225 0.256480
0.821780 0.709225 0.256480
0.873650 0.715870 0.259267
0.050857 0.511452 0.219756
0.260662 0.631878 0.303878
0.412346 0.690267 0.320389
0.465421 0.690267 0.291875
0.545934 0.690267 0.291875
0.669525 0.690267 0.291875
0.774967 0.752656 0.259267
0.830468 0.752656 0.259267
0.873650 0.752656 0.259267
0.017318 0.017184 0.327173
0.129504 0.018902 0.317802
0.214263 0.018902 0.317802
0.351353 0.015560 0.336703
0.461049 0.017569 0.348635
0.564586 0.019330 0.358636
0.648326 0.020683 0.366069
0.707982 0.021615 0.371078
0.754833 0.022331 0.312655
0.017318 0.129074 0.272252
0.162300 0.160745 0.318125
0.292242 0.163383 0.314401
0.404802 0.158132 0.321873
0.523400 0.165731 0.332821
0.634548 0.172141 0.341990
0.724022 0.176928 0.348802
0.788002 0.180235 0.353287
0.839389 0.182941 0.356397
0.021516 0.206114 0.253957
0.162300 0.259124 0.318125
0.315131 0.278427 0.338860
0.428828 0.276877 0.340527
0.551264 0.287383 0.351838
0.669174 0.297051 0.360380
0.764324 0.304295 0.366672
0.831941 0.309184 0.370906
0.884958 0.312888 0.374105
0.021516 0.280475 0.253957
0.168558 0.342059 0.309477
0.319339 0.370369 0.334991
0.448228 0.392818 0.354694
0.580515 0.406231 0.363251
0.704591 0.419947 0.370380
0.804526 0.432249 0.375656
0.875531 0.441920 0.345707
0.931201 0.450180 0.348124
0.024931 0.365209 0.290982
0.179626 0.436611 0.330575
0.351120 0.453054 0.351166
0.480560 0.489018 0.343922
0.575823 0.500392 0.334191
0.722550 0.521190 0.327937
0.830397 0.528955 0.329391
0.907254 0.535248 0.330363
0.967630 0.540729 0.331095
0.027964 0.444889 0.305805
0.209968 0.488784 0.309183
0.373992 0.537765 0.338012
0.508154 0.577531 0.363989
0.584399 0.577531 0.358635
0.695030 0.600483 0.343086
0.790793 0.612549 0.349690
0.907254 0.643962 0.330363
0.967630 0.650066 0.331095
0.030316 0.509176 0.316948
0.245484 0.551833 0.323708
0.391408 0.605339 0.351993
0.528947 0.647905 0.381468
0.598771 0.647905 0.370702
0.692495 0.647905 0.370702
0.790793 0.680668 0.349690
0.858722 0.689310 0.354138
0.911922 0.695846 0.357501
0.031948 0.554902 0.296133
0.253737 0.596538 0.333908
0.403286 0.653035 0.379531
0.543091 0.697499 0.394927
0.606158 0.697499 0.378882
0.682498 0.697499 0.378882
0.802111 0.737449 0.354138
0.858722 0.737449 0.354138
0.911922 0.744246 0.357501
0.033206 0.590778 0.301366
0.260662 0.631878 0.341663
0.412346 0.690267 0.391443
0.553861 0.736172 0.406262
0.610188 0.736172 0.385096
0.686817 0.736172 0.385096
0.782855 0.736172 0.385096
0.867635 0.781868 0.357501
0.911922 0.781868 0.357501
0.019724 0.019568 0.424497
0.137928 0.021693 0.412023
0.251477 0.021693 0.412023
0.346320 0.021693 0.412023
0.461049 0.017569 0.437189
0.564586 0.019330 0.448593
0.648326 0.020683 0.457059
0.707982 0.021615 0.387230
0.754833 0.022331 0.390890
0.019724 0.136637 0.354749
0.170971 0.169328 0.408025
0.306689 0.172970 0.402272
0.412381 0.172970 0.402272
0.523400 0.165731 0.413826
0.634548 0.172141 0.424230
0.724022 0.176928 0.431950
0.788002 0.180235 0.437029
0.839389 0.182941 0.440550
0.024931 0.218485 0.330341
0.170971 0.270432 0.408025
0.328772 0.290215 0.431957
0.442466 0.293064 0.428542
0.551264 0.287383 0.435388
0.669174 0.297051 0.445055
0.764324 0.304295 0.452169
0.831941 0.309184 0.456951
0.884958 0.312888 0.460564
0.024931 0.295250 0.330341
0.179626 0.358629 0.394676
0.328772 0.388660 0.431957
0.468612 0.408531 0.448815
0.577831 0.407006 0.450356
0.699119 0.418902 0.460147
0.796662 0.427746 0.425870
0.865903 0.433706 0.430278
0.920156 0.438216 0.433607
0.024931 0.365209 0.330341
0.179626 0.436611 0.394676
0.336496 0.469179 0.424013
0.472774 0.496394 0.405802
0.599384 0.518467 0.421233
0.725702 0.531548 0.428640
0.827324 0.543528 0.434116
0.899476 0.553167 0.437792
0.956017 0.561587 0.440566
0.027964 0.444889 0.373788
0.189043 0.524672 0.382965
0.353410 0.562105 0.404409
0.508154 0.577531 0.419331
0.630729 0.609943 0.440831
0.721302 0.620571 0.431407
0.842720 0.639392 0.425218
0.920229 0.645321 0.426346
0.981100 0.650662 0.427195
0.030316 0.509176 0.386304
0.196122 0.595267 0.396432
0.391408 0.605339 0.410128
0.528947 0.647905 0.434456
0.654292 0.682540 0.458020
0.726172 0.682540 0.452941
0.819103 0.702270 0.438952
0.888415 0.711071 0.444028
0.981100 0.727960 0.427195
0.031948 0.554902 0.360025
0.201123 0.645427 0.405985
0.403286 0.653035 0.421020
0.543091 0.697499 0.445269
0.670294 0.733639 0.471426
0.736804 0.733639 0.462131
0.813804 0.733639 0.462131
0.888415 0.760077 0.444028
0.942668 0.766995 0.447865
0.033206 0.590778 0.365887
0.205466 0.685107 0.413270
0.412346 0.690267 0.429636
0.553861 0.736172 0.469305
0.682465 0.773457 0.482885
0.742982 0.773457 0.469106
0.827428 0.773457 0.469106
0.897506 0.805276 0.447865
0.942668 0.805276 0.447865
0.021841 0.021666 0.515860
0.145093 0.024159 0.500440
0.262347 0.024159 0.500440
0.359402 0.024159 0.500440
0.448413 0.024159 0.500440
0.564586 0.019330 0.531554
0.648326 0.020683 0.540897
0.707982 0.021615 0.458984
0.754833 0.022331 0.463024
0.021841 0.143049 0.432351
0.178303 0.176586 0.491950
0.318882 0.181098 0.484206
0.426855 0.181098 0.484206
0.524819 0.181098 0.484206
0.634548 0.172141 0.499766
0.724022 0.176928 0.508257
0.788002 0.180235 0.513841
0.839389 0.182941 0.517709
0.021841 0.235600 0.432351
0.178303 0.279949 0.491950
0.342608 0.300988 0.517464
0.460344 0.304955 0.512299
0.562530 0.304955 0.512299
0.669174 0.297051 0.522659
0.764324 0.304295 0.530470
0.831941 0.309184 0.535718
0.884958 0.312888 0.539681
0.027964 0.307741 0.402133
0.178303 0.376472 0.491950
0.342608 0.401418 0.517464
0.485782 0.421729 0.536104
0.594807 0.424568 0.532996
0.699119 0.418902 0.539224
0.796662 0.427746 0.498339
0.865903 0.433706 0.503168
0.920156 0.438216 0.506815
0.027964 0.379335 0.402133
0.189043 0.452275 0.473993
0.353410 0.486646 0.505459
0.485782 0.515237 0.488316
0.619185 0.533621 0.501807
0.723186 0.532155 0.503105
0.822620 0.542318 0.510395
0.893146 0.549160 0.515293
0.948376 0.554335 0.518990
0.027964 0.444889 0.402133
0.189043 0.524672 0.432003
0.353410 0.562105 0.460550
0.493546 0.592390 0.481742
0.623212 0.616839 0.498785
0.743346 0.637390 0.513068
0.846363 0.648194 0.519148
0.919462 0.657103 0.523227
0.976723 0.665096 0.526305
0.030316 0.509176 0.449459
0.196122 0.595267 0.457792
0.366228 0.636555 0.479846
0.509099 0.669094 0.497030
0.654292 0.682540 0.509521
0.769261 0.711831 0.529129
0.842833 0.720340 0.521414
0.930986 0.734824 0.516217
0.992265 0.739587 0.517166
0.031948 0.554902 0.418131
0.201123 0.645427 0.468176
0.374927 0.689251 0.489550
0.519632 0.723318 0.506352
0.670294 0.733639 0.520832
0.786839 0.764179 0.541786
0.845360 0.764179 0.537963
0.913291 0.778996 0.527025
0.968413 0.786014 0.531264
0.033206 0.590778 0.424526
0.205466 0.685107 0.476090
0.381543 0.730462 0.497338
0.553861 0.736172 0.508704
0.682465 0.773457 0.529862
0.800198 0.804945 0.552775
0.854219 0.804945 0.545583
0.910200 0.804945 0.545583
0.968413 0.824841 0.531264
0.023473 0.023283 0.589489
0.150479 0.026065 0.571677
0.270484 0.026065 0.571677
0.369168 0.026065 0.571677
0.459517 0.026065 0.571677
0.542641 0.026065 0.571677
0.648326 0.020683 0.510406
0.707982 0.021615 0.516132
0.754833 0.022331 0.520458
0.023473 0.147856 0.494975
0.183790 0.182018 0.559334
0.325103 0.182018 0.559334
0.437646 0.187193 0.549940
0.536985 0.187193 0.549940
0.627739 0.187193 0.549940
0.724022 0.176928 0.568821
0.788002 0.180235 0.574784
0.839389 0.182941 0.578913
0.023473 0.242021 0.494975
0.183790 0.287045 0.559334
0.353072 0.309069 0.585852
0.473842 0.313886 0.579220
0.577691 0.313886 0.579220
0.672267 0.313886 0.579220
0.764324 0.304295 0.592528
0.831941 0.309184 0.598125
0.884958 0.312888 0.602351
0.030316 0.317086 0.460037
0.183790 0.384900 0.559334
0.353072 0.410968 0.585852
0.498595 0.431557 0.605882
0.610468 0.435389 0.601440
0.708039 0.435389 0.601440
0.796662 0.427746 0.555705
0.865903 0.433706 0.560851
0.920156 0.438216 0.564735
0.030316 0.389885 0.460037
0.196122 0.463959 0.537559
0.353072 0.503135 0.533542
0.498595 0.526277 0.551654
0.633935 0.544888 0.566133
0.736908 0.547465 0.563725
0.822620 0.542318 0.568548
0.893146 0.549160 0.573763
0.948376 0.554335 0.577700
0.030316 0.456461 0.460037
0.196122 0.537408 0.489757
0.366228 0.576338 0.519548
0.509099 0.607063 0.542270
0.633935 0.632870 0.566133
0.759746 0.649882 0.578212
0.844345 0.648677 0.579245
0.915933 0.656271 0.584517
0.971970 0.662011 0.588497
0.030316 0.509176 0.460037
0.196122 0.595267 0.489757
0.366228 0.636555 0.519548
0.509099 0.669094 0.542270
0.641017 0.695327 0.560522
0.763069 0.717355 0.575805
0.860475 0.733753 0.587158
0.934019 0.741693 0.591704
0.990323 0.749911 0.595945
0.031948 0.546152 0.456738
0.201123 0.645427 0.517064
0.374927 0.689251 0.539701
0.519632 0.723318 0.557479
0.653059 0.750762 0.572142
0.786839 0.764179 0.583201
0.879405 0.786872 0.598749
0.931543 0.792837 0.593322
0.998500 0.803260 0.590792
0.033206 0.590778 0.470757
0.205466 0.685107 0.525448
0.381543 0.730462 0.547943
0.527630 0.765692 0.565464
0.662193 0.794054 0.579758
0.800198 0.804945 0.592347
0.894641 0.827458 0.609424
0.935101 0.827458 0.606731
0.985936 0.837998 0.598731
0.024601 0.024400 0.641822
0.154135 0.027384 0.622303
0.275994 0.027384 0.622303
0.375769 0.027384 0.622303
0.467014 0.027384 0.622303
0.550899 0.027384 0.622303
0.617557 0.027384 0.522905
0.707982 0.021615 0.556449
0.754833 0.022331 0.560969
0.024601 0.151116 0.539525
0.187691 0.185768 0.606977
0.330908 0.185768 0.606977
0.445240 0.191399 0.596391
0.545539 0.191399 0.596391
0.637105 0.191399 0.596391
0.709521 0.191399 0.596391
0.788002 0.180235 0.617672
0.839389 0.182941 0.621978
0.024601 0.246360 0.539525
0.187691 0.291931 0.606977
0.360155 0.314529 0.634251
0.480162 0.314529 0.634251
0.587937 0.319928 0.626551
0.683457 0.319928 0.626551
0.758832 0.319928 0.626551
0.831941 0.309184 0.642006
0.884958 0.312888 0.646410
0.031948 0.323412 0.501215
0.187691 0.390694 0.606977
0.360155 0.417413 0.634251
0.507251 0.438188 0.655224
0.621048 0.442696 0.649805
0.719572 0.442696 0.591514
0.797195 0.442696 0.591514
0.865903 0.433706 0.601377
0.920156 0.438216 0.605423
0.031948 0.397018 0.501215
0.201123 0.471975 0.582445
0.360155 0.510384 0.577472
0.507251 0.533718 0.596434
0.643888 0.552481 0.611584
0.748712 0.555813 0.608354
0.828114 0.555813 0.608354
0.893146 0.549160 0.614824
0.948376 0.554335 0.618922
0.031948 0.464279 0.501215
0.201123 0.546139 0.530527
0.374927 0.585949 0.561233
0.507251 0.620677 0.596434
0.643888 0.641154 0.611584
0.770804 0.658295 0.624217
0.854072 0.660323 0.622418
0.915933 0.656271 0.626018
0.971970 0.662011 0.630160
0.031948 0.517506 0.501215
0.201123 0.604533 0.530527
0.374927 0.646738 0.561233
0.519632 0.679576 0.584991
0.653059 0.706046 0.604063
0.770804 0.729272 0.624217
0.872586 0.742969 0.633413
0.932604 0.742106 0.634134
0.987814 0.749388 0.638315
0.031948 0.554902 0.456738
0.201123 0.645427 0.530527
0.374927 0.689251 0.561233
0.519632 0.723318 0.584991
0.653059 0.750762 0.604063
0.776394 0.773791 0.620025
0.874969 0.790747 0.631732
0.944226 0.802479 0.639855
1.000000 0.809799 0.644294
0.033206 0.570325 0.486086
0.205466 0.685107 0.559966
0.381543 0.730462 0.583304
0.527630 0.765692 0.601472
0.662193 0.794054 0.616287
0.786495 0.817845 0.629058
0.894641 0.827458 0.637888
0.960105 0.843527 0.649579
0.999044 0.847955 0.645506
0.025468 0.025259 0.682863
0.156916 0.028400 0.661999
0.280176 0.028400 0.661999
0.380773 0.028400 0.661999
0.472693 0.028400 0.661999
0.557151 0.028400 0.661999
0.624239 0.028400 0.556709
0.671487 0.028400 0.556709
0.754833 0.022331 0.592579
0.025468 0.153592 0.574481
0.191169 0.188816 0.643879
0.336026 0.188816 0.643879
0.451848 0.194799 0.632352
0.552975 0.194799 0.632352
0.645245 0.194799 0.632352
0.718186 0.194799 0.632352
0.769400 0.194799 0.632352
0.839389 0.182941 0.655527
0.025468 0.249650 0.574481
0.191169 0.295895 0.643879
0.365531 0.318669 0.672099
0.486517 0.318669 0.672099
0.595705 0.324512 0.663549
0.691936 0.324512 0.663549
0.767843 0.324512 0.663549
0.821064 0.324512 0.663549
0.884958 0.312888 0.680714
0.033206 0.328213 0.533518
0.191169 0.395391 0.643879
0.365531 0.422293 0.672099
0.513812 0.443208 0.693788
0.626682 0.443208 0.693788
0.728308 0.448234 0.625800
0.806468 0.448234 0.625800
0.861213 0.448234 0.625800
0.920156 0.438216 0.637086
0.033206 0.402427 0.533518
0.191169 0.485590 0.643879
0.365531 0.515871 0.611821
0.513812 0.539349 0.631428
0.651426 0.558226 0.647088
0.757653 0.562134 0.643199
0.837595 0.562134 0.643199
0.893546 0.562134 0.643199
0.948376 0.554335 0.650991
0.033206 0.470203 0.533518
0.205466 0.553129 0.562049
0.381543 0.593232 0.593795
0.513812 0.626826 0.631428
0.651426 0.647420 0.647088
0.779174 0.664658 0.660142
0.863725 0.667311 0.657725
0.920674 0.667311 0.657725
0.971970 0.662011 0.662564
0.033206 0.523817 0.486086
0.205466 0.611949 0.562049
0.381543 0.654451 0.593795
0.527630 0.687514 0.618340
0.662193 0.714163 0.638035
0.779174 0.736026 0.660142
0.882858 0.750875 0.668717
0.940641 0.752364 0.667443
0.987814 0.749388 0.669993
0.033206 0.561475 0.486086
0.205466 0.653131 0.562049
0.381543 0.697255 0.593795
0.527630 0.731550 0.618340
0.662193 0.759174 0.638035
0.786495 0.782353 0.654511
0.882858 0.799937 0.668717
0.954982 0.810748 0.675366
0.999832 0.810100 0.675900
0.033206 0.590778 0.486086
0.205466 0.685107 0.562049
0.381543 0.730462 0.593795
0.527630 0.765692 0.618340
0.662193 0.794054 0.638035
0.786495 0.817845 0.654511
0.886972 0.834300 0.665746
0.956773 0.846404 0.674121
1.000000 0.856494 0.681198
