Resources/LUTs/Kodak_Tri-X_400_Orange_Linear.cube
# Kodak Tri-X 400 Black & White Film Emulation
# Generated with spectral sensitivity and characteristic curve data
# 
# Spectral Weights: R=0.18, G=0.52, B=0.3
# Contrast: High (Tri-X signature)
# 
TITLE "Kodak Tri-X 400 + Orange Filter"
LUT_3D_SIZE 5
DOMAIN_MIN 0.0 0.0 0.0
DOMAIN_MAX 1.0 1.0 1.0
0.015000 0.015000 0.015000
0.023197 0.023197 0.023197
0.061061 0.061061 0.061061
0.121156 0.121156 0.121156
0.315316 0.315316 0.315316
0.031109 0.031109 0.031109
0.044099 0.044099 0.044099
0.073931 0.073931 0.073931
0.150153 0.150153 0.150153
0.349157 0.349157 0.349157
0.078788 0.078788 0.078788
0.086532 0.086532 0.086532
0.125883 0.125883 0.125883
0.248374 0.248374 0.248374
0.462064 0.462064 0.462064
0.223640 0.223640 0.223640
0.244653 0.244653 0.244653
0.314362 0.314362 0.314362
0.455263 0.455263 0.455263
0.660621 0.660621 0.660621
0.542222 0.542222 0.542222
0.564236 0.564236 0.564236
0.632516 0.632516 0.632516
0.751675 0.751675 0.751675
0.884760 0.884760 0.884760
0.019946 0.019946 0.019946
0.032734 0.032734 0.032734
0.066398 0.066398 0.066398
0.132728 0.132728 0.132728
0.328837 0.328837 0.328837
0.039462 0.039462 0.039462
0.050516 0.050516 0.050516
0.078787 0.078787 0.078787
0.162037 0.162037 0.162037
0.362989 0.362989 0.362989
0.083503 0.083503 0.083503
0.091050 0.091050 0.091050
0.137507 0.137507 0.137507
0.261257 0.261257 0.261257
0.476120 0.476120 0.476120
0.236279 0.236279 0.236279
0.257499 0.257499 0.257499
0.327874 0.327874 0.327874
0.469379 0.469379 0.469379
0.672788 0.672788 0.672788
0.555548 0.555548 0.555548
0.577354 0.577354 0.577354
0.644968 0.644968 0.644968
0.761333 0.761333 0.761333
0.891935 0.891935 0.891935
0.044531 0.044531 0.044531
0.054823 0.054823 0.054823
0.082201 0.082201 0.082201
0.170688 0.170688 0.170688
0.373045 0.373045 0.373045
0.059526 0.059526 0.059526
0.068356 0.068356 0.068356
0.093491 0.093491 0.093491
0.200996 0.200996 0.200996
0.408196 0.408196 0.408196
0.097858 0.097858 0.097858
0.113155 0.113155 0.113155
0.175632 0.175632 0.175632
0.303418 0.303418 0.303418
0.520352 0.520352 0.520352
0.277658 0.277658 0.277658
0.299543 0.299543 0.299543
0.372054 0.372054 0.372054
0.513804 0.513804 0.513804
0.710966 0.710966 0.710966
0.597438 0.597438 0.597438
0.618579 0.618579 0.618579
0.684058 0.684058 0.684058
0.791352 0.791352 0.791352
0.913638 0.913638 0.913638
0.077890 0.077890 0.077890
0.085674 0.085674 0.085674
0.123721 0.123721 0.123721
0.245977 0.245977 0.245977
0.459419 0.459419 0.459419
0.089442 0.089442 0.089442
0.096768 0.096768 0.096768
0.152788 0.152788 0.152788
0.278172 0.278172 0.278172
0.494184 0.494184 0.494184
0.164702 0.164702 0.164702
0.184718 0.184718 0.184718
0.251231 0.251231 0.251231
0.386649 0.386649 0.386649
0.600457 0.600457 0.600457
0.359409 0.359409 0.359409
0.382554 0.382554 0.382554
0.458416 0.458416 0.458416
0.594274 0.594274 0.594274
0.775503 0.775503 0.775503
0.673116 0.673116 0.673116
0.692998 0.692998 0.692998
0.753837 0.753837 0.753837
0.843896 0.843896 0.843896
0.948577 0.948577 0.948577
0.151931 0.151931 0.151931
0.171724 0.171724 0.171724
0.237523 0.237523 0.237523
0.371591 0.371591 0.371591
0.586622 0.586622 0.586622
0.181749 0.181749 0.181749
0.202059 0.202059 0.202059
0.269513 0.269513 0.269513
0.406709 0.406709 0.406709
0.618465 0.618465 0.618465
0.282603 0.282603 0.282603
0.304566 0.304566 0.304566
0.377328 0.377328 0.377328
0.518938 0.518938 0.518938
0.715365 0.715365 0.715365
0.492201 0.492201 0.492201
0.514978 0.514978 0.514978
0.585703 0.585703 0.585703
0.709748 0.709748 0.709748
0.856852 0.856852 0.856852
0.776830 0.776830 0.776830
0.792136 0.792136 0.792136
0.838434 0.838434 0.838434
0.912967 0.912967 0.912967
0.980000 0.980000 0.980000
