Resources/LUTs/Kodak_Gold_200_v2_linear.cube
TITLE "Kodak Gold 200 v4 CORRECTED (Linear)"
LUT_3D_SIZE 33
DOMAIN_MIN 0 0 0
DOMAIN_MAX 1 1 1
0.025408 0.031166 0.019166
0.056724 0.030049 0.017470
0.089502 0.029655 0.016562
0.123586 0.028133 0.015221
0.159096 0.027991 0.014574
0.195637 0.028502 0.014112
0.232687 0.028194 0.014840
0.270204 0.028365 0.014181
0.309134 0.027908 0.013706
0.346853 0.028258 0.013112
0.386505 0.027871 0.012849
0.425996 0.026864 0.012971
0.465334 0.026557 0.011811
0.506467 0.026211 0.010917
0.546986 0.026564 0.010761
0.588037 0.026226 0.010765
0.629769 0.025380 0.010336
0.671731 0.025081 0.009726
0.714157 0.024788 0.008918
0.756656 0.024764 0.008237
0.799470 0.024196 0.008300
0.843202 0.023690 0.007741
0.886683 0.023960 0.007178
0.925238 0.023698 0.006293
0.956638 0.023357 0.005832
0.970000 0.023223 0.005854
0.970000 0.022172 0.005647
0.970000 0.022782 0.005320
0.970000 0.022322 0.004562
0.970000 0.022184 0.004834
0.970000 0.021239 0.004266
0.970000 0.021196 0.004223
0.970000 0.020957 0.003972
0.022841 0.058872 0.014413
0.053683 0.059026 0.015033
0.088608 0.059321 0.014373
0.123261 0.059587 0.014880
0.159562 0.059602 0.014339
0.195885 0.059083 0.013893
0.232200 0.058848 0.013336
0.269947 0.058782 0.013025
0.307932 0.058732 0.011961
0.347311 0.058197 0.011309
0.386263 0.057677 0.010823
0.425845 0.057380 0.010486
0.465812 0.057073 0.010381
0.506428 0.056663 0.009254
0.547210 0.056155 0.008908
0.588980 0.055752 0.009228
0.630803 0.055786 0.008768
0.673240 0.054833 0.008314
0.715392 0.054820 0.007529
0.759063 0.054410 0.006592
0.802491 0.054666 0.006451
0.846002 0.054422 0.005810
0.889143 0.053572 0.006317
0.928052 0.054021 0.005703
0.958552 0.053756 0.004855
0.970000 0.052900 0.004462
0.970000 0.053232 0.004906
0.970000 0.052367 0.004283
0.970000 0.052391 0.004177
0.970000 0.051746 0.003573
0.970000 0.051289 0.003134
0.970000 0.051756 0.003054
0.970000 0.051711 0.002393
0.022722 0.091769 0.014067
0.053387 0.091614 0.014509
0.085274 0.091326 0.013400
0.123036 0.091261 0.013121
0.157659 0.090962 0.013148
0.194694 0.091154 0.012217
0.231925 0.090564 0.011614
0.269814 0.089805 0.010968
0.308134 0.090105 0.010618
0.346640 0.089815 0.009592
0.386044 0.089006 0.009170
0.425810 0.088922 0.008837
0.466712 0.088319 0.008622
0.507857 0.088316 0.008409
0.549059 0.087702 0.007607
0.590460 0.087883 0.007049
0.632091 0.087134 0.007135
0.675206 0.087156 0.006130
0.717544 0.086796 0.006212
0.760845 0.086993 0.005213
0.804698 0.086213 0.005807
0.848704 0.085839 0.004805
0.892927 0.086188 0.004167
0.930344 0.085868 0.004484
0.960400 0.085606 0.003924
0.970000 0.084815 0.003763
0.970000 0.084924 0.003408
0.970000 0.084776 0.003484
0.970000 0.084500 0.002735
0.970000 0.083956 0.002836
0.970000 0.084099 0.002646
0.970000 0.083694 0.002640
0.970000 0.083588 0.002922
0.021638 0.124150 0.013231
0.051745 0.122960 0.012211
0.083898 0.122574 0.012286
0.117309 0.122706 0.011751
0.156730 0.124452 0.010706
0.193967 0.123876 0.010695
0.231317 0.123198 0.009907
0.268820 0.122760 0.009749
0.307164 0.122797 0.008986
0.347198 0.122751 0.008000
0.386907 0.122176 0.008046
0.426591 0.122089 0.007061
0.467580 0.121700 0.007285
0.508364 0.121883 0.006761
0.549711 0.120961 0.005991
0.592157 0.121165 0.006139
0.634061 0.120419 0.005931
0.676751 0.120062 0.005675
0.720288 0.120227 0.005149
0.763390 0.120040 0.004115
0.807041 0.119676 0.004470
0.851432 0.119889 0.003473
0.895714 0.119487 0.003352
0.933416 0.118662 0.003402
0.962707 0.118496 0.003113
0.970000 0.118701 0.003052
0.970000 0.118492 0.002530
0.970000 0.118227 0.002401
0.970000 0.118317 0.002792
0.970000 0.117942 0.002340
0.970000 0.117751 0.002420
0.970000 0.116841 0.002113
0.970000 0.117053 0.002664
0.019992 0.156332 0.011087
0.050072 0.156097 0.010678
0.082560 0.155678 0.009860
0.116080 0.154899 0.009792
0.150767 0.155104 0.009054
0.193524 0.158131 0.008952
0.230155 0.157829 0.008115
0.268684 0.156815 0.007741
0.307292 0.156668 0.007354
0.346841 0.157020 0.007048
0.386537 0.156205 0.006265
0.427851 0.156320 0.006070
0.468754 0.156025 0.005843
0.510002 0.155341 0.005594
0.551784 0.155467 0.005561
0.593761 0.155324 0.004695
0.636258 0.154596 0.004614
0.679047 0.154380 0.003619
0.722307 0.154498 0.004058
0.765652 0.154739 0.003390
0.810069 0.153903 0.003353
0.854876 0.153970 0.002659
0.898394 0.153891 0.003326
0.935330 0.153326 0.002312
0.964487 0.152982 0.002841
0.970000 0.153241 0.002866
0.970000 0.152964 0.002714
0.970000 0.152449 0.002086
0.970000 0.152059 0.002779
0.970000 0.152398 0.002433
0.970000 0.151892 0.002504
0.970000 0.151575 0.002179
0.970000 0.151056 0.001719
0.018717 0.190005 0.009327
0.049443 0.189889 0.009204
0.081350 0.189133 0.008313
0.114835 0.188590 0.008334
0.149459 0.188872 0.007210
0.184342 0.187852 0.007309
0.230669 0.192698 0.006405
0.268990 0.192172 0.006879
0.307960 0.192114 0.006221
0.347540 0.192169 0.005424
0.387830 0.191603 0.004904
0.427688 0.191533 0.005281
0.469030 0.190567 0.004267
0.510559 0.190493 0.004335
0.552499 0.190510 0.004176
0.595197 0.190820 0.003953
0.638180 0.190140 0.003394
0.680984 0.190471 0.003528
0.724304 0.189461 0.003293
0.768404 0.189671 0.002893
0.812740 0.189246 0.002959
0.857321 0.188884 0.002869
0.901003 0.189172 0.002519
0.937757 0.188810 0.002049
0.965770 0.188588 0.002792
0.970000 0.187905 0.002218
0.970000 0.188312 0.001795
0.970000 0.187508 0.001924
0.970000 0.187779 0.002391
0.970000 0.187285 0.001811
0.970000 0.187470 0.001932
0.970000 0.186614 0.002177
0.970000 0.186336 0.001922
0.017959 0.224434 0.007528
0.048083 0.224119 0.007942
0.080025 0.223560 0.007525
0.113503 0.223145 0.006806
0.147954 0.222525 0.005909
0.183386 0.222638 0.006157
0.218323 0.222430 0.005071
0.268902 0.228054 0.005004
0.307790 0.227178 0.004546
0.348228 0.227126 0.004218
0.387724 0.227724 0.003783
0.429462 0.227438 0.004117
0.470777 0.226992 0.003379
0.512143 0.227100 0.003610
0.554517 0.226317 0.003614
0.596844 0.226171 0.002851
0.639540 0.225883 0.002692
0.682634 0.225467 0.002412
0.727141 0.225652 0.002641
0.770568 0.225389 0.002744
0.815009 0.225477 0.002436
0.859876 0.225009 0.001871
0.903024 0.224430 0.002725
0.939419 0.224193 0.002460
0.967610 0.224849 0.002013
0.970000 0.224230 0.001798
0.970000 0.223577 0.002180
0.970000 0.223504 0.002295
0.970000 0.224062 0.001970
0.970000 0.222932 0.001759
0.970000 0.223332 0.002214
0.970000 0.222565 0.001396
0.970000 0.223095 0.001764
0.016630 0.259206 0.006294
0.046620 0.258739 0.005729
0.078807 0.258289 0.005787
0.112112 0.258410 0.005462
0.146994 0.258016 0.005187
0.181817 0.257469 0.004524
0.217812 0.256439 0.004284
0.253738 0.256123 0.004396
0.308699 0.264127 0.003478
0.348064 0.263630 0.003784
0.389175 0.263442 0.002886
0.430186 0.264036 0.002908
0.471215 0.263222 0.002641
0.512919 0.262827 0.003151
0.556126 0.263537 0.002327
0.598562 0.263226 0.002164
0.641877 0.263101 0.002105
0.684552 0.262843 0.002416
0.729022 0.262276 0.002126
0.773098 0.261589 0.002497
0.816904 0.261485 0.001747
0.862093 0.262144 0.002001
0.904905 0.261689 0.002073
0.941234 0.261222 0.001674
0.968554 0.260788 0.002224
0.970000 0.261319 0.001564
0.970000 0.260697 0.002055
0.970000 0.260225 0.001401
0.970000 0.260009 0.002106
0.970000 0.259567 0.002033
0.970000 0.259415 0.001519
0.970000 0.259227 0.001882
0.970000 0.259483 0.001367
0.015439 0.294156 0.005027
0.045759 0.294166 0.005046
0.077910 0.294036 0.005016
0.110778 0.292823 0.004279
0.145533 0.292486 0.004247
0.181004 0.292344 0.003884
0.216338 0.291827 0.003324
0.252504 0.292277 0.003082
0.289652 0.291394 0.003228
0.348975 0.301384 0.003038
0.389160 0.301064 0.002350
0.430464 0.300844 0.002304
0.471967 0.300123 0.002214
0.514385 0.299980 0.002241
0.556759 0.300098 0.002313
0.599686 0.299540 0.002134
0.643240 0.299564 0.002634
0.686551 0.299505 0.001759
0.730107 0.299878 0.001695
0.774861 0.299174 0.001670
0.819139 0.298756 0.001749
0.863071 0.299107 0.002115
0.906808 0.298649 0.001370
0.942241 0.298212 0.002260
0.969078 0.298484 0.001731
0.970000 0.297914 0.002090
0.970000 0.297994 0.001312
0.970000 0.297185 0.001740
0.970000 0.297414 0.001693
0.970000 0.297627 0.001214
0.970000 0.297002 0.001851
0.970000 0.296659 0.001919
0.970000 0.295937 0.001426
0.014773 0.329856 0.003641
0.045159 0.329286 0.003416
0.076919 0.329540 0.003476
0.110428 0.328924 0.003055
0.144555 0.328388 0.002888
0.179092 0.328297 0.002806
0.214869 0.327882 0.002387
0.251136 0.327926 0.002453
0.288837 0.327048 0.002086
0.325514 0.326825 0.001981
0.390204 0.337980 0.002058
0.431546 0.338441 0.001916
0.472966 0.338015 0.002080
0.515843 0.338240 0.001733
0.557731 0.337555 0.001596
0.600807 0.337413 0.002175
0.643643 0.337410 0.002020
0.687959 0.337353 0.001563
0.731702 0.337446 0.002024
0.775969 0.337088 0.001819
0.819942 0.336892 0.001521
0.864769 0.336065 0.002233
0.907526 0.336353 0.001465
0.942769 0.335812 0.001207
0.969903 0.335825 0.001211
0.970000 0.335206 0.001806
0.970000 0.335636 0.001960
0.970000 0.334952 0.001524
0.970000 0.335363 0.001146
0.970000 0.334557 0.001297
0.970000 0.334025 0.001394
0.970000 0.334173 0.001467
0.970000 0.334230 0.001110
0.014236 0.365985 0.003132
0.043554 0.365814 0.002511
0.075744 0.364836 0.003013
0.109243 0.365288 0.002382
0.143525 0.364439 0.002918
0.178653 0.364353 0.002951
0.214399 0.363695 0.002403
0.250631 0.363420 0.002008
0.287857 0.362615 0.002296
0.324251 0.363116 0.002212
0.362784 0.362509 0.002326
0.432138 0.376680 0.001826
0.474005 0.376274 0.001924
0.516407 0.376099 0.002299
0.558306 0.375804 0.001776
0.601680 0.376070 0.002076
0.645022 0.375186 0.001663
0.688665 0.375874 0.001912
0.732778 0.374741 0.001750
0.776120 0.374521 0.002099
0.820875 0.374891 0.001310
0.865243 0.374139 0.001529
0.908255 0.373906 0.001193
0.943316 0.374266 0.001211
0.969632 0.373422 0.001301
0.970000 0.373465 0.001800
0.970000 0.373142 0.001288
0.970000 0.372593 0.000978
0.970000 0.372856 0.000789
0.970000 0.372212 0.001643
0.970000 0.372470 0.000973
0.970000 0.372269 0.001158
0.970000 0.372048 0.001575
0.013454 0.402181 0.002563
0.043219 0.401805 0.002587
0.075385 0.401258 0.002873
0.107742 0.401455 0.002430
0.142900 0.401313 0.002789
0.177313 0.400263 0.002646
0.212983 0.399874 0.002031
0.249406 0.399763 0.001892
0.286904 0.399280 0.002104
0.323994 0.399000 0.002337
0.360977 0.398371 0.001572
0.432574 0.414788 0.001495
0.474336 0.414873 0.001960
0.516196 0.414852 0.001693
0.558875 0.413926 0.001855
0.602457 0.414011 0.001390
0.645572 0.413791 0.001247
0.688663 0.413433 0.001735
0.732882 0.413622 0.001071
0.776409 0.413204 0.001398
0.820419 0.412822 0.001006
0.864960 0.413199 0.001368
0.907533 0.413067 0.001014
0.942934 0.412425 0.000957
0.969511 0.412374 0.001649
0.970000 0.411543 0.001523
0.970000 0.411977 0.001241
0.970000 0.411406 0.000777
0.970000 0.411278 0.001473
0.970000 0.410608 0.000881
0.970000 0.410073 0.000955
0.970000 0.409870 0.001556
0.970000 0.409433 0.001074
0.012108 0.438824 0.002535
0.042099 0.438814 0.001770
0.074414 0.437785 0.002545
0.107563 0.438273 0.002615
0.141262 0.437135 0.002041
0.176927 0.437060 0.001839
0.212635 0.437068 0.002161
0.249339 0.436924 0.001993
0.285675 0.436606 0.002126
0.322725 0.435439 0.001959
0.360636 0.435311 0.002013
0.398679 0.435446 0.001990
0.474326 0.454067 0.001875
0.516654 0.453807 0.001385
0.559865 0.453027 0.001671
0.602673 0.453213 0.001996
0.644996 0.452599 0.001315
0.688438 0.453048 0.001595
0.732571 0.452381 0.000919
0.776326 0.452252 0.001230
0.820504 0.451722 0.001418
0.864284 0.451295 0.001769
0.906639 0.451070 0.001485
0.941852 0.450671 0.000894
0.968699 0.450769 0.000736
0.970000 0.450376 0.001603
0.970000 0.450157 0.001138
0.970000 0.449794 0.001253
0.970000 0.449621 0.000656
0.970000 0.448939 0.001482
0.970000 0.448362 0.001326
0.970000 0.447568 0.000880
0.970000 0.447274 0.001317
0.011624 0.475634 0.002271
0.041365 0.475759 0.002315
0.072786 0.475587 0.001798
0.106961 0.474724 0.002410
0.141199 0.474693 0.001648
0.175925 0.474093 0.001812
0.211457 0.474152 0.001590
0.248261 0.473922 0.002137
0.284838 0.473584 0.001912
0.322073 0.472672 0.001747
0.360035 0.472774 0.001200
0.397740 0.471927 0.001066
0.436336 0.471904 0.001049
0.516653 0.492484 0.001361
0.559460 0.492140 0.001813
0.601746 0.492332 0.001151
0.644712 0.491684 0.000978
0.688316 0.491038 0.001054
0.731537 0.490718 0.000887
0.775768 0.490889 0.001230
0.818820 0.490637 0.001336
0.862638 0.490553 0.000871
0.905422 0.489644 0.001565
0.940989 0.489654 0.000700
0.967827 0.489405 0.001122
0.970000 0.488321 0.000765
0.970000 0.488304 0.000672
0.970000 0.488369 0.001497
0.970000 0.487320 0.000595
0.970000 0.487164 0.000814
0.970000 0.486789 0.000921
0.970000 0.486524 0.001374
0.970000 0.485318 0.000738
0.010721 0.513449 0.002098
0.040524 0.512435 0.002355
0.072606 0.512858 0.001858
0.105955 0.511882 0.002134
0.140149 0.511900 0.001906
0.175307 0.511336 0.001335
0.211394 0.510858 0.001916
0.247661 0.511246 0.001914
0.284139 0.511118 0.001680
0.321000 0.510029 0.001473
0.358866 0.510198 0.001350
0.397619 0.509776 0.001087
0.435626 0.509623 0.001258
0.474130 0.509536 0.001459
0.558743 0.531805 0.001180
0.601441 0.530920 0.001086
0.644217 0.531328 0.001119
0.687137 0.530428 0.001082
0.730683 0.530303 0.001025
0.773655 0.529523 0.001011
0.817567 0.529501 0.000745
0.860971 0.529492 0.001521
0.903748 0.529141 0.001489
0.938584 0.528184 0.000830
0.966089 0.527710 0.000823
0.970000 0.526866 0.001244
0.970000 0.526543 0.000887
0.970000 0.526491 0.001112
0.970000 0.526144 0.000391
0.970000 0.525004 0.000871
0.970000 0.524672 0.000739
0.970000 0.524899 0.001043
0.970000 0.524046 0.000949
0.010453 0.550638 0.001842
0.039768 0.550802 0.001879
0.071428 0.550011 0.001355
0.104884 0.549431 0.001579
0.139648 0.549823 0.001720
0.174182 0.549654 0.001837
0.209988 0.549387 0.001325
0.246161 0.548461 0.001024
0.283815 0.548339 0.001129
0.320403 0.547715 0.001159
0.358677 0.547601 0.000978
0.396765 0.547193 0.000955
0.434740 0.547591 0.001642
0.473122 0.547256 0.001688
0.512352 0.546919 0.001257
0.600087 0.570110 0.001162
0.642881 0.570425 0.000837
0.685141 0.569344 0.001090
0.728325 0.568870 0.001054
0.771953 0.569210 0.000636
0.814751 0.568238 0.000677
0.858384 0.567788 0.000894
0.901125 0.567922 0.000455
0.936818 0.566565 0.000616
0.964247 0.566746 0.000809
0.970000 0.566352 0.000504
0.970000 0.565060 0.001165
0.970000 0.564404 0.000875
0.970000 0.563980 0.000949
0.970000 0.564187 0.000675
0.970000 0.563217 0.000907
0.970000 0.562873 0.000950
0.970000 0.561822 0.000277
0.010092 0.588911 0.001359
0.039438 0.588428 0.001928
0.071603 0.588029 0.001070
0.104665 0.587925 0.001049
0.138432 0.587279 0.001006
0.174218 0.587496 0.001442
0.209687 0.586705 0.000960
0.245896 0.587041 0.001265
0.283265 0.586226 0.001157
0.320471 0.586460 0.000811
0.357772 0.585484 0.001614
0.396246 0.585752 0.001213
0.434611 0.585328 0.000787
0.472651 0.585420 0.000982
0.511518 0.584856 0.000716
0.551223 0.584752 0.000925
0.640962 0.608968 0.000778
0.683097 0.608236 0.000646
0.725863 0.608386 0.000556
0.768940 0.607829 0.001326
0.811874 0.606814 0.001041
0.855804 0.606896 0.001195
0.897533 0.606285 0.000764
0.934265 0.605605 0.000423
0.962184 0.604772 0.000934
0.970000 0.604786 0.001289
0.970000 0.604361 0.000498
0.970000 0.603595 0.000646
0.970000 0.602963 0.000990
0.970000 0.602649 0.001036
0.970000 0.602022 0.000798
0.970000 0.600664 0.001050
0.970000 0.599971 0.000419
0.008995 0.626410 0.001576
0.039087 0.626891 0.001930
0.070181 0.626740 0.001218
0.103966 0.625718 0.001219
0.138562 0.625800 0.001706
0.173440 0.625773 0.000807
0.208946 0.625693 0.000979
0.244958 0.624487 0.001429
0.282318 0.624786 0.001223
0.319268 0.624239 0.001598
0.357208 0.623740 0.001553
0.395125 0.623955 0.001485
0.433767 0.623528 0.001390
0.471964 0.623215 0.001248
0.510841 0.623090 0.001389
0.550595 0.622621 0.000866
0.590325 0.622381 0.000480
0.681201 0.648239 0.001155
0.723355 0.646939 0.000769
0.765930 0.646233 0.000945
0.809403 0.646457 0.000449
0.851985 0.645853 0.000674
0.894394 0.644415 0.000714
0.930652 0.644508 0.000628
0.959354 0.643654 0.001190
0.970000 0.642736 0.000334
0.970000 0.642256 0.000719
0.970000 0.641794 0.000465
0.970000 0.641548 0.000598
0.970000 0.640488 0.000736
0.970000 0.639508 0.001111
0.970000 0.639624 0.000719
0.970000 0.638249 0.000550
0.008875 0.665092 0.001627
0.038421 0.665387 0.001350
0.070212 0.664828 0.000913
0.103226 0.664534 0.001678
0.137829 0.663922 0.001352
0.172527 0.664307 0.001265
0.208493 0.663557 0.001625
0.244607 0.663532 0.001088
0.281287 0.663634 0.000669
0.318825 0.663416 0.001460
0.356215 0.662923 0.001406
0.394684 0.662613 0.000813
0.433186 0.662463 0.001121
0.472209 0.661996 0.000616
0.510852 0.662375 0.000723
0.549907 0.661532 0.000953
0.589163 0.661738 0.000451
0.629818 0.661047 0.000479
0.720545 0.686242 0.000490
0.762763 0.685362 0.000981
0.805062 0.684450 0.000667
0.847700 0.684027 0.000999
0.890406 0.683644 0.000712
0.927643 0.683387 0.000287
0.957063 0.682098 0.000253
0.970000 0.681796 0.000322
0.970000 0.680446 0.001067
0.970000 0.680577 0.000205
0.970000 0.679712 0.000795
0.970000 0.678651 0.000274
0.970000 0.678584 0.001033
0.970000 0.677563 0.000548
0.970000 0.676910 0.000176
0.008214 0.704085 0.001322
0.037888 0.703753 0.000681
0.069340 0.703914 0.001463
0.102604 0.702778 0.001049
0.137378 0.702730 0.001559
0.171893 0.703028 0.000725
0.207778 0.702786 0.000738
0.244466 0.702103 0.000864
0.281237 0.701661 0.001015
0.317926 0.702186 0.000830
0.356415 0.701546 0.001014
0.393876 0.701188 0.001318
0.432567 0.700874 0.000466
0.470830 0.700594 0.001265
0.510030 0.701058 0.000837
0.549493 0.700273 0.001043
0.589405 0.699960 0.000586
0.628776 0.700378 0.000567
0.668962 0.699714 0.000731
0.758536 0.724491 0.000343
0.801399 0.724006 0.000274
0.843961 0.722602 0.000778
0.885652 0.722581 0.000461
0.923644 0.721840 0.000409
0.953760 0.720587 0.000549
0.970000 0.720062 0.000541
0.970000 0.719276 0.000882
0.970000 0.718712 0.000789
0.970000 0.718306 0.000277
0.970000 0.717318 0.000746
0.970000 0.716501 0.000694
0.970000 0.715471 0.000812
0.970000 0.715127 0.000148
0.007713 0.743365 0.001152
0.037112 0.742367 0.000833
0.069457 0.742067 0.001063
0.101915 0.742029 0.001093
0.136587 0.742093 0.001251
0.171281 0.742206 0.000666
0.207260 0.741870 0.000729
0.243390 0.741216 0.001082
0.280869 0.740664 0.000940
0.317996 0.741005 0.000565
0.355606 0.740206 0.000519
0.394037 0.740768 0.001034
0.432381 0.740713 0.000846
0.470837 0.740507 0.000459
0.509345 0.739317 0.001243
0.549450 0.739976 0.000226
0.588532 0.738937 0.000657
0.628312 0.738753 0.000257
0.668487 0.738937 0.000402
0.708719 0.738450 0.000441
0.796637 0.762576 0.000723
0.839118 0.761378 0.000278
0.881036 0.761059 0.000182
0.919358 0.760187 0.000157
0.950181 0.759613 0.001066
0.970000 0.758056 0.000809
0.970000 0.757191 0.000908
0.970000 0.756882 0.000546
0.970000 0.756186 0.000582
0.970000 0.755527 0.000329
0.970000 0.755060 0.000691
0.970000 0.753554 0.000899
0.970000 0.752724 0.000306
0.007261 0.782192 0.001076
0.036594 0.781643 0.001203
0.068164 0.781475 0.000581
0.101676 0.781049 0.001021
0.136111 0.781516 0.001100
0.171346 0.781166 0.001184
0.207214 0.780828 0.000870
0.242908 0.780932 0.001057
0.280304 0.780653 0.000600
0.317642 0.779973 0.000698
0.355354 0.780383 0.000440
0.393489 0.780120 0.000482
0.431167 0.779144 0.000674
0.470415 0.779630 0.000300
0.509713 0.778771 0.000615
0.548968 0.779125 0.000769
0.587660 0.778924 0.000551
0.628349 0.778695 0.000752
0.667933 0.777958 0.000871
0.708745 0.778354 0.000459
0.748381 0.777634 0.000954
0.833969 0.800054 0.000505
0.875889 0.798788 0.000653
0.915433 0.797995 0.000661
0.946889 0.797538 0.000823
0.970000 0.796567 0.000078
0.970000 0.795580 0.000914
0.970000 0.795514 0.000477
0.970000 0.794879 0.000585
0.970000 0.794006 0.000089
0.970000 0.793396 0.000337
0.970000 0.792548 0.000087
0.970000 0.791812 0.000232
0.007426 0.821561 0.000856
0.036156 0.820944 0.000900
0.068271 0.820804 0.000785
0.101629 0.820801 0.000346
0.135845 0.820908 0.001167
0.170504 0.820886 0.000894
0.206744 0.820537 0.001208
0.242645 0.820435 0.000983
0.280052 0.819499 0.000904
0.316590 0.819623 0.000830
0.354630 0.819357 0.000654
0.392760 0.818777 0.001166
0.431364 0.819479 0.000295
0.469923 0.818598 0.000174
0.509057 0.818473 0.000311
0.547761 0.818815 0.001021
0.587699 0.817849 0.000873
0.627439 0.817886 0.000377
0.668024 0.817486 0.001035
0.707445 0.817775 0.000324
0.748051 0.817871 0.000454
0.788821 0.817720 0.000498
0.871566 0.837779 0.000238
0.911190 0.836524 0.000949
0.943120 0.835765 0.000481
0.968597 0.834898 0.000188
0.970000 0.834114 0.000600
0.970000 0.834030 0.000857
0.970000 0.832769 0.000000
0.970000 0.831984 0.000098
0.970000 0.831089 0.000000
0.970000 0.831093 0.000274
0.970000 0.829125 0.000000
0.006861 0.860774 0.000526
0.035698 0.861073 0.001232
0.067595 0.860674 0.000585
0.100507 0.860776 0.001034
0.135087 0.860682 0.001041
0.170490 0.859783 0.000391
0.206298 0.859475 0.000762
0.242114 0.859598 0.000278
0.279685 0.859259 0.000772
0.316812 0.859575 0.000306
0.354141 0.859516 0.000366
0.392360 0.859341 0.000765
0.430453 0.858311 0.000699
0.469745 0.858975 0.000983
0.508894 0.858686 0.000660
0.547319 0.857745 0.001048
0.587156 0.857592 0.000591
0.626901 0.857533 0.000964
0.667161 0.857197 0.000079
0.707782 0.857987 0.000815
0.747780 0.857247 0.000226
0.788485 0.856939 0.000167
0.829073 0.857079 0.000367
0.906549 0.875229 0.000261
0.939384 0.874230 0.000474
0.965719 0.873704 0.000239
0.970000 0.873472 0.000366
0.970000 0.872419 0.000244
0.970000 0.871136 0.000714
0.970000 0.869150 0.000480
0.970000 0.866975 0.000615
0.970000 0.864527 0.000000
0.970000 0.861828 0.000309
0.006637 0.900941 0.001270
0.035492 0.900693 0.001122
0.067226 0.900926 0.000681
0.100715 0.899864 0.000840
0.134359 0.900516 0.001168
0.169393 0.899617 0.001048
0.205842 0.899752 0.000307
0.241898 0.899050 0.000689
0.278508 0.899460 0.000240
0.315731 0.898723 0.000392
0.353540 0.898973 0.000078
0.391808 0.899188 0.000062
0.429824 0.898720 0.000464
0.468592 0.898423 0.000744
0.507943 0.898449 0.000264
0.547054 0.897877 0.000855
0.586513 0.897792 0.000742
0.626319 0.897768 0.000551
0.666652 0.898069 0.000000
0.707229 0.897725 0.000787
0.747919 0.897352 0.000169
0.788555 0.897176 0.000834
0.829550 0.896688 0.000746
0.870038 0.897071 0.000000
0.936398 0.912674 0.000604
0.962597 0.911873 0.000000
0.970000 0.909042 0.000677
0.970000 0.906316 0.000636
0.970000 0.903802 0.000147
0.970000 0.901714 0.000526
0.970000 0.898652 0.000004
0.970000 0.896477 0.000378
0.970000 0.894305 0.000000
0.006187 0.937303 0.000510
0.035385 0.937503 0.000221
0.066763 0.936834 0.001112
0.100509 0.936891 0.000534
0.133969 0.937174 0.000701
0.169097 0.936462 0.000647
0.205282 0.936446 0.000884
0.241439 0.936800 0.000636
0.278492 0.936070 0.000700
0.315584 0.935734 0.000894
0.353882 0.935817 0.000907
0.391525 0.936176 0.000860
0.430369 0.935586 0.000638
0.468443 0.935165 0.000185
0.508061 0.935257 0.000038
0.546816 0.935447 0.000388
0.587010 0.935506 0.000776
0.626003 0.934910 0.000914
0.666878 0.935063 0.000138
0.706295 0.934611 0.000000
0.746966 0.934987 0.000577
0.788352 0.934797 0.000020
0.828210 0.932986 0.000351
0.867216 0.931413 0.000304
0.906163 0.930057 0.000000
0.956805 0.940457 0.000849
0.970000 0.938465 0.000264
0.970000 0.936112 0.000268
0.970000 0.934170 0.000550
0.970000 0.931593 0.000000
0.970000 0.929791 0.000793
0.970000 0.927034 0.000189
0.970000 0.924901 0.000000
0.006071 0.968039 0.000457
0.035201 0.967600 0.000264
0.066968 0.967742 0.000331
0.100073 0.967601 0.000819
0.134214 0.967636 0.000709
0.169537 0.967513 0.000616
0.205198 0.967065 0.000264
0.240923 0.967359 0.000361
0.278288 0.966700 0.000940
0.315424 0.967182 0.000808
0.353010 0.966425 0.000163
0.391029 0.966322 0.000610
0.429922 0.966336 0.000854
0.468793 0.966614 0.000013
0.507081 0.966525 0.000520
0.547038 0.966066 0.000056
0.586353 0.966423 0.000113
0.625985 0.965675 0.000000
0.666099 0.965492 0.000337
0.705387 0.964625 0.000145
0.744214 0.962624 0.000000
0.784449 0.961500 0.000059
0.823651 0.959907 0.000021
0.862947 0.958453 0.000273
0.901852 0.957344 0.000000
0.933996 0.955151 0.000008
0.970000 0.962823 0.000024
