Resources/LUTs/Kodak_Tri-X_400_Linear.cube
# Kodak Tri-X 400 Black & White Film Emulation
# Generated with spectral sensitivity and characteristic curve data
# 
# Spectral Weights: R=0.18, G=0.52, B=0.3
# Contrast: High (Tri-X signature)
# 
TITLE "Kodak Tri-X 400"
LUT_3D_SIZE 9
DOMAIN_MIN 0.0 0.0 0.0
DOMAIN_MAX 1.0 1.0 1.0
0.015000 0.015000 0.015000
0.016291 0.016291 0.016291
0.019579 0.019579 0.019579
0.026774 0.026774 0.026774
0.042397 0.042397 0.042397
0.057559 0.057559 0.057559
0.074177 0.074177 0.074177
0.092513 0.092513 0.092513
0.134776 0.134776 0.134776
0.018731 0.018731 0.018731
0.020022 0.020022 0.020022
0.023310 0.023310 0.023310
0.034565 0.034565 0.034565
0.047423 0.047423 0.047423
0.061736 0.061736 0.061736
0.077849 0.077849 0.077849
0.095830 0.095830 0.095830
0.143605 0.143605 0.143605
0.032890 0.032890 0.032890
0.035155 0.035155 0.035155
0.040301 0.040301 0.040301
0.048291 0.048291 0.048291
0.058837 0.058837 0.058837
0.071733 0.071733 0.071733
0.086838 0.086838 0.086838
0.110827 0.110827 0.110827
0.166399 0.166399 0.166399
0.056175 0.056175 0.056175
0.057661 0.057661 0.057661
0.061347 0.061347 0.061347
0.067631 0.067631 0.067631
0.076550 0.076550 0.076550
0.088012 0.088012 0.088012
0.105008 0.105008 0.105008
0.150586 0.150586 0.150586
0.208196 0.208196 0.208196
0.082539 0.082539 0.082539
0.083756 0.083756 0.083756
0.086815 0.086815 0.086815
0.092151 0.092151 0.092151
0.099926 0.099926 0.099926
0.127768 0.127768 0.127768
0.165066 0.165066 0.165066
0.213185 0.213185 0.213185
0.273862 0.273862 0.273862
0.136221 0.136221 0.136221
0.139273 0.139273 0.139273
0.147080 0.147080 0.147080
0.161141 0.161141 0.161141
0.182632 0.182632 0.182632
0.212761 0.212761 0.212761
0.252863 0.252863 0.252863
0.304467 0.304467 0.304467
0.369351 0.369351 0.369351
0.248231 0.248231 0.248231
0.251583 0.251583 0.251583
0.260152 0.260152 0.260152
0.275570 0.275570 0.275570
0.299105 0.299105 0.299105
0.332037 0.332037 0.332037
0.375767 0.375767 0.375767
0.431853 0.431853 0.431853
0.498787 0.498787 0.498787
0.402091 0.402091 0.402091
0.405814 0.405814 0.405814
0.415329 0.415329 0.415329
0.432403 0.432403 0.432403
0.457850 0.457850 0.457850
0.492110 0.492110 0.492110
0.535330 0.535330 0.535330
0.587310 0.587310 0.587310
0.647476 0.647476 0.647476
0.590984 0.590984 0.590984
0.594354 0.594354 0.594354
0.602894 0.602894 0.602894
0.617986 0.617986 0.617986
0.640366 0.640366 0.640366
0.670418 0.670418 0.670418
0.708194 0.708194 0.708194
0.752943 0.752943 0.752943
0.797481 0.797481 0.797481
0.017152 0.017152 0.017152
0.018444 0.018444 0.018444
0.021731 0.021731 0.021731
0.031696 0.031696 0.031696
0.045348 0.045348 0.045348
0.059989 0.059989 0.059989
0.076306 0.076306 0.076306
0.094433 0.094433 0.094433
0.139861 0.139861 0.139861
0.020883 0.020883 0.020883
0.022175 0.022175 0.022175
0.026837 0.026837 0.026837
0.038067 0.038067 0.038067
0.050155 0.050155 0.050155
0.064075 0.064075 0.064075
0.079929 0.079929 0.079929
0.097721 0.097721 0.097721
0.148731 0.148731 0.148731
0.036574 0.036574 0.036574
0.038601 0.038601 0.038601
0.043367 0.043367 0.043367
0.050991 0.050991 0.050991
0.061238 0.061238 0.061238
0.073897 0.073897 0.073897
0.088815 0.088815 0.088815
0.115799 0.115799 0.115799
0.171630 0.171630 0.171630
0.058639 0.058639 0.058639
0.060089 0.060089 0.060089
0.063693 0.063693 0.063693
0.069861 0.069861 0.069861
0.078647 0.078647 0.078647
0.089976 0.089976 0.089976
0.109952 0.109952 0.109952
0.155745 0.155745 0.155745
0.213614 0.213614 0.213614
0.084562 0.084562 0.084562
0.085765 0.085765 0.085765
0.088792 0.088792 0.088792
0.094075 0.094075 0.094075
0.104723 0.104723 0.104723
0.132819 0.132819 0.132819
0.170291 0.170291 0.170291
0.218624 0.218624 0.218624
0.279560 0.279560 0.279560
0.141312 0.141312 0.141312
0.144379 0.144379 0.144379
0.152222 0.152222 0.152222
0.166348 0.166348 0.166348
0.187936 0.187936 0.187936
0.218198 0.218198 0.218198
0.258473 0.258473 0.258473
0.310291 0.310291 0.310291
0.375435 0.375435 0.375435
0.253822 0.253822 0.253822
0.257187 0.257187 0.257187
0.265792 0.265792 0.265792
0.281276 0.281276 0.281276
0.304907 0.304907 0.304907
0.337973 0.337973 0.337973
0.381876 0.381876 0.381876
0.438100 0.438100 0.438100
0.504775 0.504775 0.504775
0.408301 0.408301 0.408301
0.412038 0.412038 0.412038
0.421590 0.421590 0.421590
0.438649 0.438649 0.438649
0.463999 0.463999 0.463999
0.498125 0.498125 0.498125
0.541173 0.541173 0.541173
0.592937 0.592937 0.592937
0.652844 0.652844 0.652844
0.596596 0.596596 0.596596
0.599952 0.599952 0.599952
0.608456 0.608456 0.608456
0.623483 0.623483 0.623483
0.645766 0.645766 0.645766
0.675685 0.675685 0.675685
0.713288 0.713288 0.713288
0.757155 0.757155 0.757155
0.801396 0.801396 0.801396
0.022631 0.022631 0.022631
0.023923 0.023923 0.023923
0.030939 0.030939 0.030939
0.040691 0.040691 0.040691
0.052302 0.052302 0.052302
0.065940 0.065940 0.065940
0.081598 0.081598 0.081598
0.099244 0.099244 0.099244
0.152911 0.152911 0.152911
0.029131 0.029131 0.029131
0.031812 0.031812 0.031812
0.037468 0.037468 0.037468
0.045864 0.045864 0.045864
0.056709 0.056709 0.056709
0.069830 0.069830 0.069830
0.085109 0.085109 0.085109
0.106538 0.106538 0.106538
0.161885 0.161885 0.161885
0.044599 0.044599 0.044599
0.046322 0.046322 0.046322
0.050516 0.050516 0.050516
0.057484 0.057484 0.057484
0.067126 0.067126 0.067126
0.079269 0.079269 0.079269
0.093755 0.093755 0.093755
0.128561 0.128561 0.128561
0.185051 0.185051 0.185051
0.064661 0.064661 0.064661
0.066035 0.066035 0.066035
0.069466 0.069466 0.069466
0.075378 0.075378 0.075378
0.083865 0.083865 0.083865
0.094889 0.094889 0.094889
0.122642 0.122642 0.122642
0.168981 0.168981 0.168981
0.227510 0.227510 0.227510
0.089612 0.089612 0.089612
0.090783 0.090783 0.090783
0.093733 0.093733 0.093733
0.098893 0.098893 0.098893
0.117350 0.117350 0.117350
0.145786 0.145786 0.145786
0.183696 0.183696 0.183696
0.232576 0.232576 0.232576
0.294171 0.294171 0.294171
0.154380 0.154380 0.154380
0.157482 0.157482 0.157482
0.165418 0.165418 0.165418
0.179708 0.179708 0.179708
0.201543 0.201543 0.201543
0.232145 0.232145 0.232145
0.272859 0.272859 0.272859
0.325224 0.325224 0.325224
0.391026 0.391026 0.391026
0.268158 0.268158 0.268158
0.271560 0.271560 0.271560
0.280257 0.280257 0.280257
0.295905 0.295905 0.295905
0.319784 0.319784 0.319784
0.353189 0.353189 0.353189
0.397531 0.397531 0.397531
0.453895 0.453895 0.453895
0.519911 0.519911 0.519911
0.424215 0.424215 0.424215
0.427983 0.427983 0.427983
0.437537 0.437537 0.437537
0.454439 0.454439 0.454439
0.479541 0.479541 0.479541
0.513328 0.513328 0.513328
0.555936 0.555936 0.555936
0.607155 0.607155 0.607155
0.666402 0.666402 0.666402
0.610774 0.610774 0.610774
0.614094 0.614094 0.614094
0.622505 0.622505 0.622505
0.637369 0.637369 0.637369
0.659404 0.659404 0.659404
0.688983 0.688983 0.688983
0.726147 0.726147 0.726147
0.767757 0.767757 0.767757
0.811231 0.811231 0.811231
0.039703 0.039703 0.039703
0.041588 0.041588 0.041588
0.046099 0.046099 0.046099
0.053444 0.053444 0.053444
0.063446 0.063446 0.063446
0.075902 0.075902 0.075902
0.090652 0.090652 0.090652
0.120491 0.120491 0.120491
0.176565 0.176565 0.176565
0.044969 0.044969 0.044969
0.046682 0.046682 0.046682
0.050856 0.050856 0.050856
0.057797 0.057797 0.057797
0.067413 0.067413 0.067413
0.079533 0.079533 0.079533
0.094000 0.094000 0.094000
0.129203 0.129203 0.129203
0.185727 0.185727 0.185727
0.056714 0.056714 0.056714
0.058192 0.058192 0.058192
0.061859 0.061859 0.061859
0.068117 0.068117 0.068117
0.077006 0.077006 0.077006
0.088439 0.088439 0.088439
0.106076 0.106076 0.106076
0.151701 0.151701 0.151701
0.209367 0.209367 0.209367
0.074714 0.074714 0.074714
0.075990 0.075990 0.075990
0.079193 0.079193 0.079193
0.084753 0.084753 0.084753
0.092813 0.092813 0.092813
0.109006 0.109006 0.109006
0.145656 0.145656 0.145656
0.192969 0.192969 0.192969
0.252673 0.252673 0.252673
0.098309 0.098309 0.098309
0.099432 0.099432 0.099432
0.106019 0.106019 0.106019
0.119552 0.119552 0.119552
0.140250 0.140250 0.140250
0.169291 0.169291 0.169291
0.207985 0.207985 0.207985
0.257839 0.257839 0.257839
0.320610 0.320610 0.320610
0.178065 0.178065 0.178065
0.181232 0.181232 0.181232
0.189332 0.189332 0.189332
0.203915 0.203915 0.203915
0.226192 0.226192 0.226192
0.257400 0.257400 0.257400
0.298897 0.298897 0.298897
0.352236 0.352236 0.352236
0.419214 0.419214 0.419214
0.294107 0.294107 0.294107
0.297573 0.297573 0.297573
0.306435 0.306435 0.306435
0.322376 0.322376 0.322376
0.346696 0.346696 0.346696
0.380707 0.380707 0.380707
0.425832 0.425832 0.425832
0.481683 0.481683 0.481683
0.546523 0.546523 0.546523
0.452515 0.452515 0.452515
0.456219 0.456219 0.456219
0.465609 0.465609 0.465609
0.482217 0.482217 0.482217
0.506878 0.506878 0.506878
0.540059 0.540059 0.540059
0.581884 0.581884 0.581884
0.632129 0.632129 0.632129
0.690200 0.690200 0.690200
0.635678 0.635678 0.635678
0.638933 0.638933 0.638933
0.647180 0.647180 0.647180
0.661750 0.661750 0.661750
0.683344 0.683344 0.683344
0.712317 0.712317 0.712317
0.748698 0.748698 0.748698
0.786232 0.786232 0.786232
0.828304 0.828304 0.828304
0.058401 0.058401 0.058401
0.059854 0.059854 0.059854
0.063466 0.063466 0.063466
0.069644 0.069644 0.069644
0.078443 0.078443 0.078443
0.089785 0.089785 0.089785
0.109467 0.109467 0.109467
0.155239 0.155239 0.155239
0.213083 0.213083 0.213083
0.062546 0.062546 0.062546
0.063945 0.063945 0.063945
0.067433 0.067433 0.067433
0.073430 0.073430 0.073430
0.082018 0.082018 0.082018
0.093146 0.093146 0.093146
0.118088 0.118088 0.118088
0.164232 0.164232 0.164232
0.222525 0.222525 0.222525
0.072481 0.072481 0.072481
0.073777 0.073777 0.073777
0.077025 0.077025 0.077025
0.082657 0.082657 0.082657
0.090805 0.090805 0.090805
0.103883 0.103883 0.103883
0.140354 0.140354 0.140354
0.187445 0.187445 0.187445
0.246880 0.246880 0.246880
0.088690 0.088690 0.088690
0.089866 0.089866 0.089866
0.092830 0.092830 0.092830
0.098011 0.098011 0.098011
0.115007 0.115007 0.115007
0.143380 0.143380 0.143380
0.181209 0.181209 0.181209
0.229988 0.229988 0.229988
0.291461 0.291461 0.291461
0.129502 0.129502 0.129502
0.132535 0.132535 0.132535
0.140295 0.140295 0.140295
0.154270 0.154270 0.154270
0.175632 0.175632 0.175632
0.205584 0.205584 0.205584
0.245457 0.245457 0.245457
0.296776 0.296776 0.296776
0.361317 0.361317 0.361317
0.214628 0.214628 0.214628
0.217893 0.217893 0.217893
0.226240 0.226240 0.226240
0.241265 0.241265 0.241265
0.264206 0.264206 0.264206
0.296324 0.296324 0.296324
0.339001 0.339001 0.339001
0.393805 0.393805 0.393805
0.461725 0.461725 0.461725
0.334076 0.334076 0.334076
0.337640 0.337640 0.337640
0.346749 0.346749 0.346749
0.363131 0.363131 0.363131
0.388116 0.388116 0.388116
0.423038 0.423038 0.423038
0.468192 0.468192 0.468192
0.522577 0.522577 0.522577
0.585648 0.585648 0.585648
0.494181 0.494181 0.494181
0.497788 0.497788 0.497788
0.506930 0.506930 0.506930
0.523097 0.523097 0.523097
0.547094 0.547094 0.547094
0.579364 0.579364 0.579364
0.620010 0.620010 0.620010
0.668789 0.668789 0.668789
0.725091 0.725091 0.725091
0.672232 0.672232 0.672232
0.675390 0.675390 0.675390
0.683389 0.683389 0.683389
0.697518 0.697518 0.697518
0.718448 0.718448 0.718448
0.746510 0.746510 0.746510
0.777292 0.777292 0.777292
0.812954 0.812954 0.812954
0.852823 0.852823 0.852823
0.079319 0.079319 0.079319
0.080559 0.080559 0.080559
0.083674 0.083674 0.083674
0.089098 0.089098 0.089098
0.096986 0.096986 0.096986
0.119896 0.119896 0.119896
0.156924 0.156924 0.156924
0.204706 0.204706 0.204706
0.264977 0.264977 0.264977
0.082876 0.082876 0.082876
0.084090 0.084090 0.084090
0.087144 0.087144 0.087144
0.092471 0.092471 0.092471
0.100619 0.100619 0.100619
0.128603 0.128603 0.128603
0.165930 0.165930 0.165930
0.214085 0.214085 0.214085
0.274805 0.274805 0.274805
0.091623 0.091623 0.091623
0.092782 0.092782 0.092782
0.095703 0.095703 0.095703
0.102159 0.102159 0.102159
0.122515 0.122515 0.122515
0.151089 0.151089 0.151089
0.189177 0.189177 0.189177
0.238278 0.238278 0.238278
0.300141 0.300141 0.300141
0.117107 0.117107 0.117107
0.120105 0.120105 0.120105
0.127774 0.127774 0.127774
0.141590 0.141590 0.141590
0.162712 0.162712 0.162712
0.192334 0.192334 0.192334
0.231781 0.231781 0.231781
0.282570 0.282570 0.282570
0.346471 0.346471 0.346471
0.177850 0.177850 0.177850
0.181016 0.181016 0.181016
0.189115 0.189115 0.189115
0.203696 0.203696 0.203696
0.225968 0.225968 0.225968
0.257170 0.257170 0.257170
0.298661 0.298661 0.298661
0.351991 0.351991 0.351991
0.418958 0.418958 0.418958
0.266586 0.266586 0.266586
0.269984 0.269984 0.269984
0.278671 0.278671 0.278671
0.294301 0.294301 0.294301
0.318153 0.318153 0.318153
0.351522 0.351522 0.351522
0.395815 0.395815 0.395815
0.452179 0.452179 0.452179
0.518267 0.518267 0.518267
0.390706 0.390706 0.390706
0.394403 0.394403 0.394403
0.403852 0.403852 0.403852
0.420840 0.420840 0.420840
0.446456 0.446456 0.446456
0.480961 0.480961 0.480961
0.524500 0.524500 0.524500
0.576875 0.576875 0.576875
0.637518 0.637518 0.637518
0.549537 0.549537 0.549537
0.553011 0.553011 0.553011
0.561813 0.561813 0.561813
0.577375 0.577375 0.577375
0.600460 0.600460 0.600460
0.631481 0.631481 0.631481
0.670509 0.670509 0.670509
0.717278 0.717278 0.717278
0.768235 0.768235 0.768235
0.720576 0.720576 0.720576
0.723601 0.723601 0.723601
0.731260 0.731260 0.731260
0.744784 0.744784 0.744784
0.762772 0.762772 0.762772
0.785755 0.785755 0.785755
0.814196 0.814196 0.814196
0.847391 0.847391 0.847391
0.884023 0.884023 0.884023
0.107732 0.107732 0.107732
0.110703 0.110703 0.110703
0.118304 0.118304 0.118304
0.131998 0.131998 0.131998
0.152936 0.152936 0.152936
0.182307 0.182307 0.182307
0.221428 0.221428 0.221428
0.271812 0.271812 0.271812
0.335224 0.335224 0.335224
0.116338 0.116338 0.116338
0.119334 0.119334 0.119334
0.126998 0.126998 0.126998
0.140804 0.140804 0.140804
0.161911 0.161911 0.161911
0.191513 0.191513 0.191513
0.230933 0.230933 0.230933
0.281689 0.281689 0.281689
0.345550 0.345550 0.345550
0.138568 0.138568 0.138568
0.141626 0.141626 0.141626
0.149450 0.149450 0.149450
0.163541 0.163541 0.163541
0.185077 0.185077 0.185077
0.215267 0.215267 0.215267
0.255449 0.255449 0.255449
0.307152 0.307152 0.307152
0.372156 0.372156 0.372156
0.179357 0.179357 0.179357
0.182528 0.182528 0.182528
0.190637 0.190637 0.190637
0.205236 0.205236 0.205236
0.227536 0.227536 0.227536
0.258777 0.258777 0.258777
0.300316 0.300316 0.300316
0.353707 0.353707 0.353707
0.420749 0.420749 0.420749
0.243506 0.243506 0.243506
0.246845 0.246845 0.246845
0.255383 0.255383 0.255383
0.270747 0.270747 0.270747
0.294199 0.294199 0.294199
0.327019 0.327019 0.327019
0.370602 0.370602 0.370602
0.426532 0.426532 0.426532
0.493686 0.493686 0.493686
0.336915 0.336915 0.336915
0.340485 0.340485 0.340485
0.349612 0.349612 0.349612
0.366025 0.366025 0.366025
0.391057 0.391057 0.391057
0.426042 0.426042 0.426042
0.471115 0.471115 0.471115
0.525398 0.525398 0.525398
0.588345 0.588345 0.588345
0.466044 0.466044 0.466044
0.469717 0.469717 0.469717
0.479027 0.479027 0.479027
0.495493 0.495493 0.495493
0.519940 0.519940 0.519940
0.552828 0.552828 0.552828
0.594274 0.594274 0.594274
0.644047 0.644047 0.644047
0.701549 0.701549 0.701549
0.618079 0.618079 0.618079
0.621380 0.621380 0.621380
0.629744 0.629744 0.629744
0.644522 0.644522 0.644522
0.666428 0.666428 0.666428
0.695831 0.695831 0.695831
0.732767 0.732767 0.732767
0.773197 0.773197 0.773197
0.816267 0.816267 0.816267
0.775864 0.775864 0.775864
0.778305 0.778305 0.778305
0.784477 0.784477 0.784477
0.795323 0.795323 0.795323
0.811250 0.811250 0.811250
0.832305 0.832305 0.832305
0.858124 0.858124 0.858124
0.887824 0.887824 0.887824
0.919780 0.919780 0.919780
0.184971 0.184971 0.184971
0.188157 0.188157 0.188157
0.196304 0.196304 0.196304
0.210972 0.210972 0.210972
0.233376 0.233376 0.233376
0.264757 0.264757 0.264757
0.306480 0.306480 0.306480
0.360099 0.360099 0.360099
0.427412 0.427412 0.427412
0.194197 0.194197 0.194197
0.197408 0.197408 0.197408
0.205618 0.205618 0.205618
0.220398 0.220398 0.220398
0.242970 0.242970 0.242970
0.274583 0.274583 0.274583
0.316605 0.316605 0.316605
0.370596 0.370596 0.370596
0.438255 0.438255 0.438255
0.218004 0.218004 0.218004
0.221278 0.221278 0.221278
0.229648 0.229648 0.229648
0.244713 0.244713 0.244713
0.267714 0.267714 0.267714
0.299915 0.299915 0.299915
0.342699 0.342699 0.342699
0.397636 0.397636 0.397636
0.465533 0.465533 0.465533
0.261608 0.261608 0.261608
0.264993 0.264993 0.264993
0.273648 0.273648 0.273648
0.289221 0.289221 0.289221
0.312987 0.312987 0.312987
0.346238 0.346238 0.346238
0.390380 0.390380 0.390380
0.446718 0.446718 0.446718
0.513035 0.513035 0.513035
0.329991 0.329991 0.329991
0.333545 0.333545 0.333545
0.342629 0.342629 0.342629
0.358967 0.358967 0.358967
0.383885 0.383885 0.383885
0.418714 0.418714 0.418714
0.463966 0.463966 0.463966
0.518499 0.518499 0.518499
0.581748 0.581748 0.581748
0.429198 0.429198 0.429198
0.432955 0.432955 0.432955
0.442480 0.442480 0.442480
0.459331 0.459331 0.459331
0.484356 0.484356 0.484356
0.518036 0.518036 0.518036
0.560508 0.560508 0.560508
0.611556 0.611556 0.611556
0.670598 0.670598 0.670598
0.555734 0.555734 0.555734
0.559192 0.559192 0.559192
0.567956 0.567956 0.567956
0.583448 0.583448 0.583448
0.606429 0.606429 0.606429
0.637307 0.637307 0.637307
0.676151 0.676151 0.676151
0.722689 0.722689 0.722689
0.772642 0.772642 0.772642
0.698425 0.698425 0.698425
0.701511 0.701511 0.701511
0.709328 0.709328 0.709328
0.723132 0.723132 0.723132
0.743573 0.743573 0.743573
0.768074 0.768074 0.768074
0.797396 0.797396 0.797396
0.831757 0.831757 0.831757
0.869923 0.869923 0.869923
0.834142 0.834142 0.834142
0.836324 0.836324 0.836324
0.841828 0.841828 0.841828
0.851465 0.851465 0.851465
0.865521 0.865521 0.865521
0.883899 0.883899 0.883899
0.906030 0.906030 0.906030
0.930701 0.930701 0.930701
0.955641 0.955641 0.955641
0.285400 0.285400 0.285400
0.288845 0.288845 0.288845
0.297652 0.297652 0.297652
0.313495 0.313495 0.313495
0.337669 0.337669 0.337669
0.371477 0.371477 0.371477
0.416341 0.416341 0.416341
0.472472 0.472472 0.472472
0.537704 0.537704 0.537704
0.295375 0.295375 0.295375
0.298844 0.298844 0.298844
0.307714 0.307714 0.307714
0.323670 0.323670 0.323670
0.348011 0.348011 0.348011
0.382051 0.382051 0.382051
0.427212 0.427212 0.427212
0.483015 0.483015 0.483015
0.547799 0.547799 0.547799
0.321087 0.321087 0.321087
0.324619 0.324619 0.324619
0.333649 0.333649 0.333649
0.349889 0.349889 0.349889
0.374660 0.374660 0.374660
0.409288 0.409288 0.409288
0.454675 0.454675 0.454675
0.509532 0.509532 0.509532
0.573172 0.573172 0.573172
0.368087 0.368087 0.368087
0.371731 0.371731 0.371731
0.381046 0.381046 0.381046
0.397794 0.397794 0.397794
0.423330 0.423330 0.423330
0.458328 0.458328 0.458328
0.502505 0.502505 0.502505
0.555674 0.555674 0.555674
0.617277 0.617277 0.617277
0.441418 0.441418 0.441418
0.445148 0.445148 0.445148
0.454602 0.454602 0.454602
0.471326 0.471326 0.471326
0.496161 0.496161 0.496161
0.529581 0.529581 0.529581
0.571715 0.571715 0.571715
0.622343 0.622343 0.622343
0.680878 0.680878 0.680878
0.539366 0.539366 0.539366
0.542865 0.542865 0.542865
0.551731 0.551731 0.551731
0.567405 0.567405 0.567405
0.590661 0.590661 0.590661
0.621914 0.621914 0.621914
0.661245 0.661245 0.661245
0.708388 0.708388 0.708388
0.760976 0.760976 0.760976
0.656828 0.656828 0.656828
0.660027 0.660027 0.660027
0.668132 0.668132 0.668132
0.682448 0.682448 0.682448
0.703660 0.703660 0.703660
0.732110 0.732110 0.732110
0.765364 0.765364 0.765364
0.801757 0.801757 0.801757
0.842576 0.842576 0.842576
0.782873 0.782873 0.782873
0.785287 0.785287 0.785287
0.791385 0.791385 0.791385
0.802099 0.802099 0.802099
0.817823 0.817823 0.817823
0.838589 0.838589 0.838589
0.864012 0.864012 0.864012
0.893180 0.893180 0.893180
0.924412 0.924412 0.924412
0.895173 0.895173 0.895173
0.896992 0.896992 0.896992
0.901563 0.901563 0.901563
0.909498 0.909498 0.909498
0.920894 0.920894 0.920894
0.935394 0.935394 0.935394
0.952012 0.952012 0.952012
0.968679 0.968679 0.968679
0.980000 0.980000 0.980000
