Resources/LUTs/Kodak_Portra_400_Linear.cube
# Kodak Portra 400 Linear Simulation v2
# Linear Input/Output - Use with sRGB<->Linear conversion
# Characteristics: Low contrast, warm tones, lifted blacks,
#                  golden highlights, beautiful skin tones
TITLE "Kodak Portra 400 Linear v2"
LUT_3D_SIZE 9
DOMAIN_MIN 0.0 0.0 0.0
DOMAIN_MAX 1.0 1.0 1.0
0.055008 0.051473 0.044675
0.176132 0.049889 0.043711
0.292441 0.048432 0.042672
0.407141 0.047075 0.041516
0.520892 0.045815 0.040232
0.634007 0.044650 0.038814
0.746665 0.043581 0.037263
0.856787 0.042631 0.035607
0.960840 0.041837 0.033890
0.049572 0.167619 0.040921
0.171399 0.166309 0.039507
0.290853 0.165703 0.036215
0.406830 0.164765 0.034193
0.521903 0.163941 0.032021
0.636308 0.163206 0.029745
0.750031 0.162478 0.027479
0.860921 0.161757 0.025300
0.965376 0.161059 0.023300
0.046757 0.279909 0.035775
0.169332 0.278907 0.033905
0.291331 0.279013 0.028817
0.407739 0.278252 0.026539
0.522875 0.277475 0.024355
0.636972 0.276660 0.022317
0.750138 0.275784 0.020481
0.860240 0.274855 0.018910
0.963708 0.273896 0.017671
0.045818 0.391217 0.029611
0.168369 0.390222 0.027780
0.285783 0.389242 0.026099
0.407647 0.389740 0.019802
0.521917 0.388735 0.018286
0.634967 0.387643 0.017056
0.746965 0.386459 0.016120
0.855849 0.385208 0.015488
0.958127 0.383935 0.015168
0.044080 0.501181 0.024169
0.166059 0.500024 0.022791
0.282804 0.498854 0.021639
0.397504 0.497639 0.020683
0.517126 0.497851 0.015242
0.629015 0.496452 0.014908
0.739979 0.494995 0.014770
0.848014 0.493520 0.014793
0.950090 0.492266 0.014608
0.040132 0.609685 0.020528
0.161377 0.608320 0.019730
0.277438 0.606956 0.019119
0.391544 0.605573 0.018633
0.504429 0.604190 0.018201
0.621148 0.604047 0.014254
0.732870 0.602970 0.013482
0.842122 0.602035 0.012506
0.943006 0.600713 0.013119
0.034010 0.716912 0.018648
0.155063 0.715527 0.017996
0.271705 0.714459 0.016902
0.386827 0.713536 0.015581
0.501036 0.712728 0.014066
0.614625 0.712021 0.012366
0.727768 0.711409 0.010484
0.838381 0.710907 0.008447
0.942927 0.710547 0.006298
0.029845 0.822429 0.015311
0.152137 0.821574 0.013647
0.269656 0.820861 0.011840
0.385586 0.820253 0.009865
0.500573 0.819737 0.007722
0.614909 0.819306 0.005419
0.728760 0.818952 0.002966
0.840033 0.818689 0.000398
0.945182 0.818549 0.000000
0.029107 0.923214 0.009569
0.152166 0.922646 0.007285
0.270419 0.922202 0.004887
0.387041 0.921845 0.002355
0.502667 0.921562 0.000000
0.617586 0.921343 0.000000
0.731960 0.921182 0.000000
0.843587 0.921046 0.000000
0.946675 0.919985 0.000000
0.054357 0.050927 0.161281
0.175546 0.049368 0.160277
0.291925 0.047939 0.159192
0.406698 0.046610 0.157990
0.520524 0.045379 0.156657
0.633715 0.044244 0.155191
0.746447 0.043206 0.153595
0.856646 0.042288 0.151894
0.960735 0.041510 0.150156
0.049156 0.167164 0.157377
0.173149 0.166374 0.154369
0.290765 0.165350 0.152445
0.406832 0.164446 0.150366
0.521992 0.163659 0.148143
0.636407 0.162927 0.145861
0.750111 0.162194 0.143609
0.860958 0.161462 0.141463
0.965345 0.160746 0.139516
0.046594 0.279557 0.152075
0.169226 0.278580 0.150172
0.291426 0.278733 0.144935
0.407806 0.277965 0.142679
0.522890 0.277174 0.140535
0.636909 0.276338 0.138558
0.749975 0.275437 0.136798
0.859961 0.274477 0.135317
0.963304 0.273485 0.134174
0.045684 0.390882 0.145901
0.168197 0.389877 0.144100
0.285558 0.388881 0.142460
0.407444 0.389382 0.136151
0.521594 0.388344 0.134727
0.634518 0.387219 0.133595
0.746391 0.386002 0.132755
0.855160 0.384721 0.132212
0.957340 0.383422 0.131967
0.043765 0.500795 0.140602
0.165670 0.499617 0.139283
0.282337 0.498425 0.138192
0.396962 0.497188 0.137295
0.516399 0.497354 0.131995
0.628197 0.495931 0.131731
0.739093 0.494456 0.131645
0.847110 0.492981 0.131681
0.949431 0.491836 0.131295
0.039565 0.609227 0.137160
0.160747 0.607844 0.136413
0.276757 0.606466 0.135842
0.390828 0.605073 0.135383
0.503871 0.603762 0.134821
0.620530 0.603635 0.130907
0.732350 0.602598 0.130056
0.841699 0.601699 0.129003
0.942849 0.600452 0.129413
0.033284 0.716410 0.135405
0.154572 0.715129 0.134562
0.271327 0.714109 0.133375
0.386537 0.713223 0.131983
0.500828 0.712447 0.130401
0.614497 0.711771 0.128636
0.727717 0.711187 0.126692
0.838405 0.710713 0.124595
0.943021 0.710378 0.122390
0.029585 0.822128 0.131688
0.151958 0.821305 0.129958
0.269556 0.820622 0.128087
0.385563 0.820041 0.126050
0.500622 0.819552 0.123849
0.615027 0.819145 0.121492
0.728939 0.818814 0.118989
0.840268 0.818572 0.116376
0.945467 0.818450 0.113701
0.029111 0.923013 0.125733
0.152241 0.922470 0.123392
0.270560 0.922050 0.120941
0.387241 0.921715 0.118360
0.502921 0.921451 0.115659
0.617887 0.921250 0.112849
0.732304 0.921105 0.109940
0.843136 0.920621 0.107738
0.946233 0.919563 0.106787
0.053745 0.050406 0.273078
0.175001 0.048874 0.272031
0.291451 0.047472 0.270901
0.406297 0.046172 0.269651
0.520200 0.044971 0.268270
0.633466 0.043866 0.266757
0.746273 0.042859 0.265116
0.856549 0.041975 0.263371
0.960648 0.041201 0.261627
0.048783 0.166737 0.269021
0.170763 0.165487 0.267511
0.287954 0.164376 0.265911
0.403545 0.163375 0.264196
0.518178 0.162477 0.262373
0.631992 0.161604 0.260536
0.745092 0.160729 0.258732
0.855359 0.159859 0.257017
0.959220 0.159017 0.255461
0.046475 0.279234 0.263563
0.169139 0.278271 0.261643
0.291532 0.278468 0.256263
0.407876 0.277691 0.254035
0.522898 0.276884 0.251939
0.636832 0.276025 0.250028
0.749793 0.275096 0.248349
0.859659 0.274104 0.246960
0.962875 0.273079 0.245915
0.045556 0.390562 0.257403
0.168026 0.389544 0.255637
0.285331 0.388532 0.254042
0.407218 0.389030 0.247735
0.521246 0.387960 0.246405
0.634043 0.386801 0.245371
0.745793 0.385552 0.244626
0.854452 0.384242 0.244168
0.956541 0.382919 0.243993
0.043443 0.500419 0.252259
0.165271 0.499219 0.251000
0.281861 0.498006 0.249970
0.396414 0.496749 0.249130
0.515656 0.496865 0.243978
0.627371 0.495420 0.243779
0.738207 0.493930 0.243738
0.846363 0.492520 0.243659
0.948828 0.491440 0.243155
0.038993 0.608781 0.249015
0.160116 0.607381 0.248314
0.276080 0.605990 0.247779
0.390121 0.604588 0.247344
0.503394 0.603380 0.246594
0.619964 0.603254 0.242737
0.731880 0.602256 0.241807
0.838789 0.600799 0.242555
0.942736 0.600218 0.240889
0.032621 0.715945 0.247331
0.154142 0.714768 0.246295
0.270997 0.713791 0.245027
0.386292 0.712939 0.243565
0.500664 0.712195 0.241918
0.614413 0.711548 0.240089
0.727709 0.710993 0.238083
0.838470 0.710544 0.235928
0.943153 0.710234 0.233668
0.029370 0.821855 0.243247
0.151824 0.821063 0.241452
0.269501 0.820409 0.239518
0.385583 0.819856 0.237420
0.500713 0.819393 0.235161
0.615183 0.819010 0.232751
0.729155 0.818700 0.230200
0.840538 0.818478 0.227544
0.945785 0.818374 0.224831
0.029156 0.922837 0.237081
0.152356 0.922320 0.234685
0.270739 0.921923 0.232182
0.387478 0.921609 0.229555
0.503209 0.921364 0.226813
0.618221 0.921181 0.223965
0.732678 0.921051 0.221023
0.842705 0.920214 0.219480
0.945810 0.919159 0.218523
0.053162 0.049900 0.383120
0.174486 0.048395 0.382029
0.291008 0.047021 0.380853
0.405929 0.045750 0.379555
0.519907 0.044579 0.378126
0.633249 0.043505 0.376566
0.746130 0.042528 0.374880
0.856467 0.041672 0.373101
0.960565 0.040897 0.371358
0.048443 0.166326 0.378907
0.170498 0.165106 0.377349
0.287763 0.164026 0.375703
0.403430 0.163057 0.373944
0.518098 0.162174 0.372102
0.631904 0.161299 0.370270
0.744983 0.160418 0.368483
0.855213 0.159538 0.366797
0.959023 0.158681 0.365283
0.046389 0.278929 0.373297
0.169058 0.277968 0.371372
0.286697 0.277051 0.369513
0.402451 0.276134 0.367723
0.516928 0.275198 0.366031
0.630393 0.274226 0.364470
0.742989 0.273208 0.363065
0.852615 0.272157 0.361857
0.955734 0.271105 0.360889
0.045422 0.390244 0.367175
0.167844 0.389212 0.365446
0.285088 0.388183 0.363899
0.406959 0.388673 0.357608
0.520861 0.387571 0.356376
0.633531 0.386378 0.355439
0.745163 0.385098 0.354785
0.853718 0.383760 0.354408
0.955722 0.382415 0.354298
0.043101 0.500042 0.362194
0.164852 0.498821 0.360997
0.281367 0.497586 0.360027
0.395850 0.496309 0.359242
0.514888 0.496374 0.354244
0.626528 0.494910 0.354102
0.737314 0.493406 0.354101
0.845686 0.492095 0.353844
0.948266 0.491064 0.353245
0.038406 0.608334 0.359145
0.159474 0.606919 0.358487
0.275398 0.605517 0.357985
0.389454 0.604125 0.357536
0.502968 0.603023 0.356588
0.619437 0.602893 0.352799
0.731449 0.601933 0.351792
0.838630 0.600552 0.352332
0.942656 0.600001 0.350602
0.032097 0.715545 0.357406
0.153756 0.714429 0.356257
0.270703 0.713490 0.354914
0.386082 0.712672 0.353384
0.500534 0.711958 0.351672
0.614361 0.711341 0.349780
0.727733 0.710813 0.347713
0.838565 0.710391 0.345500
0.943315 0.710104 0.343188
0.029189 0.821600 0.353042
0.151723 0.820838 0.351182
0.269477 0.820212 0.349186
0.385633 0.819686 0.347028
0.500833 0.819248 0.344714
0.615366 0.818888 0.342252
0.729397 0.818599 0.339655
0.840831 0.818397 0.336957
0.946124 0.818310 0.334206
0.029233 0.922677 0.346669
0.152500 0.922184 0.344218
0.270944 0.921810 0.341666
0.387739 0.921515 0.338994
0.503519 0.921289 0.336211
0.618576 0.921122 0.333328
0.732913 0.920939 0.330485
0.842284 0.919815 0.329479
0.945396 0.918761 0.328516
0.052605 0.049408 0.492031
0.173998 0.047929 0.490896
0.290594 0.046584 0.489673
0.405591 0.045342 0.488326
0.519645 0.044201 0.486849
0.633061 0.043157 0.485244
0.746018 0.042214 0.483514
0.856390 0.041373 0.481715
0.960482 0.040596 0.479977
0.048132 0.165929 0.487661
0.170262 0.164739 0.486056
0.287602 0.163690 0.484365
0.403347 0.162756 0.482562
0.518020 0.161875 0.480716
0.631816 0.160997 0.478893
0.744868 0.160108 0.477127
0.855055 0.159216 0.475475
0.958808 0.158343 0.474005
0.046311 0.278630 0.481911
0.168978 0.277668 0.479988
0.286600 0.276746 0.478142
0.402322 0.275820 0.476378
0.516752 0.274870 0.474724
0.630156 0.273882 0.473211
0.742680 0.272843 0.471862
0.852231 0.271770 0.470714
0.955272 0.270697 0.469807
0.045277 0.389925 0.475842
0.167646 0.388879 0.474155
0.284825 0.387832 0.472660
0.399976 0.386744 0.471347
0.513737 0.385604 0.470223
0.626413 0.384410 0.469286
0.738196 0.383161 0.468523
0.847039 0.381888 0.467936
0.949450 0.380636 0.467528
0.042738 0.499662 0.471035
0.164411 0.498418 0.469899
0.280852 0.497162 0.468987
0.395268 0.495867 0.468255
0.514096 0.495880 0.463415
0.625668 0.494398 0.463325
0.736444 0.492897 0.463331
0.845057 0.491693 0.462876
0.947740 0.490707 0.462193
0.037802 0.607886 0.468175
0.158820 0.606457 0.467557
0.274709 0.605044 0.467082
0.388928 0.603727 0.466500
0.502584 0.602687 0.465437
0.618947 0.602550 0.461718
0.731055 0.601625 0.460634
0.838502 0.600319 0.460972
0.942607 0.599797 0.459179
0.031636 0.715176 0.466316
0.153408 0.714108 0.465076
0.270442 0.713205 0.463662
0.385903 0.712419 0.462065
0.500436 0.711736 0.460288
0.614340 0.711147 0.458334
0.727786 0.710647 0.456207
0.838687 0.710249 0.453938
0.943501 0.709986 0.451574
0.029040 0.821358 0.461699
0.151653 0.820626 0.459776
0.269483 0.820029 0.457718
0.385712 0.819529 0.455502
0.500979 0.819115 0.453133
0.615574 0.818778 0.450621
0.729660 0.818510 0.447979
0.841144 0.818325 0.445241
0.946482 0.818255 0.442455
0.029336 0.922529 0.455122
0.152669 0.922060 0.452619
0.271173 0.921707 0.450018
0.388021 0.921433 0.447303
0.503849 0.921224 0.444482
0.618948 0.921073 0.441565
0.732490 0.920542 0.439372
0.841869 0.919420 0.438360
0.944988 0.918368 0.437392
0.052074 0.048927 0.600106
0.173539 0.047476 0.598925
0.290209 0.046159 0.597654
0.405281 0.044948 0.596259
0.519411 0.043836 0.594735
0.632901 0.042824 0.593085
0.745936 0.041914 0.591311
0.856316 0.041077 0.589506
0.960397 0.040297 0.587777
0.047850 0.165545 0.595577
0.170055 0.164386 0.593925
0.287470 0.163368 0.592190
0.403272 0.162459 0.590354
0.517944 0.161578 0.588509
0.631723 0.160695 0.586699
0.744743 0.159797 0.584959
0.854883 0.158891 0.583344
0.958575 0.158002 0.581922
0.046237 0.278334 0.589702
0.168898 0.277370 0.587785
0.286497 0.276442 0.585956
0.402181 0.275505 0.584222
0.516558 0.274540 0.582610
0.629898 0.273533 0.581148
0.742350 0.272474 0.579857
0.851823 0.271380 0.578770
0.954788 0.270284 0.577923
0.045119 0.389605 0.583700
0.167431 0.388542 0.582059
0.284541 0.387476 0.580617
0.399617 0.386367 0.579364
0.513301 0.385206 0.578301
0.625903 0.383990 0.577422
0.737619 0.382723 0.576713
0.846406 0.381434 0.576169
0.948776 0.380169 0.575794
0.042351 0.499277 0.579074
0.163948 0.498012 0.577998
0.280316 0.496735 0.577144
0.394669 0.495422 0.576462
0.507695 0.494074 0.575920
0.619742 0.492701 0.575480
0.731243 0.491404 0.574936
0.840596 0.490404 0.573921
0.943970 0.489597 0.572721
0.037183 0.607435 0.576398
0.158156 0.605993 0.575816
0.274014 0.604572 0.575365
0.388468 0.603359 0.574591
0.502236 0.602368 0.573435
0.618492 0.602222 0.569789
0.728170 0.600741 0.570498
0.838404 0.600099 0.568768
0.942587 0.599606 0.566912
0.031223 0.714829 0.574368
0.153093 0.713803 0.573047
0.270212 0.712935 0.571564
0.385754 0.712180 0.569902
0.500366 0.711527 0.568061
0.614347 0.710966 0.566045
0.727866 0.710492 0.563859
0.838835 0.710119 0.561536
0.943710 0.709878 0.559122
0.028920 0.821130 0.569512
0.151612 0.820427 0.567526
0.269517 0.819858 0.565407
0.385817 0.819384 0.563134
0.501150 0.818993 0.560712
0.615805 0.818678 0.558152
0.729945 0.818429 0.555467
0.841477 0.818263 0.552690
0.946856 0.818209 0.549870
0.029466 0.922392 0.562734
0.152863 0.921946 0.560180
0.271424 0.921614 0.557533
0.388323 0.921359 0.554776
0.504197 0.921168 0.551918
0.619336 0.921032 0.548968
0.732073 0.920148 0.547435
0.841460 0.919029 0.546416
0.944585 0.917979 0.545444
0.051570 0.048457 0.707514
0.173107 0.047035 0.706287
0.289851 0.045747 0.704968
0.404999 0.044566 0.703525
0.519204 0.043485 0.701955
0.632769 0.042503 0.700260
0.745863 0.041620 0.698452
0.856242 0.040782 0.696649
0.960307 0.039998 0.694932
0.047596 0.165174 0.702826
0.169876 0.164045 0.701128
0.287366 0.163060 0.699349
0.403201 0.162165 0.697495
0.517866 0.161282 0.695655
0.631623 0.160394 0.693862
0.744605 0.159485 0.692152
0.854694 0.158564 0.690578
0.958322 0.157657 0.689207
0.046165 0.278040 0.696843
0.168814 0.277072 0.694936
0.286385 0.276137 0.693129
0.402026 0.275188 0.691428
0.516347 0.274207 0.689861
0.629618 0.273181 0.688453
0.741995 0.272100 0.687221
0.851391 0.270984 0.686196
0.954282 0.269867 0.685408
0.044945 0.389282 0.690922
0.167196 0.388202 0.689329
0.284235 0.387116 0.687944
0.399235 0.385985 0.686750
0.512842 0.384802 0.685748
0.625371 0.383566 0.684927
0.737024 0.382280 0.684268
0.845760 0.380977 0.683765
0.948093 0.379703 0.683418
0.041940 0.498887 0.686483
0.163461 0.497601 0.685467
0.279760 0.496304 0.684668
0.394054 0.494974 0.684033
0.507034 0.493613 0.683527
0.619051 0.492232 0.683111
0.730781 0.491037 0.682379
0.840248 0.490086 0.681271
0.943710 0.489315 0.679999
0.036550 0.606982 0.683983
0.157482 0.605529 0.683433
0.273364 0.604122 0.682962
0.388053 0.603013 0.681995
0.501921 0.602064 0.680758
0.615190 0.601233 0.679317
0.728022 0.600503 0.677686
0.838335 0.599891 0.675891
0.942595 0.599426 0.673974
0.030848 0.714499 0.681740
0.152810 0.713512 0.680344
0.270013 0.712678 0.678793
0.385636 0.711954 0.677066
0.500326 0.711329 0.675162
0.614382 0.710796 0.673085
0.727972 0.710348 0.670842
0.839007 0.709999 0.668466
0.943942 0.709780 0.666004
0.028830 0.820915 0.676653
0.151599 0.820240 0.674604
0.269578 0.819697 0.672425
0.385947 0.819248 0.670097
0.501344 0.818881 0.667624
0.616057 0.818587 0.665017
0.730248 0.818358 0.662290
0.841826 0.818208 0.659476
0.947246 0.818170 0.656623
0.029620 0.922266 0.669678
0.153078 0.921842 0.667074
0.271695 0.921531 0.664382
0.388644 0.921294 0.661586
0.504562 0.921119 0.658692
0.619536 0.920909 0.655878
0.731661 0.919758 0.654845
0.841056 0.918641 0.653821
0.944185 0.917592 0.652844
0.051099 0.048007 0.812271
0.172709 0.046613 0.810997
0.289529 0.045355 0.809630
0.404753 0.044203 0.808139
0.519033 0.043153 0.806522
0.632673 0.042204 0.804784
0.745801 0.041336 0.802957
0.856174 0.040496 0.801158
0.960217 0.039706 0.799458
0.047377 0.164823 0.807422
0.169731 0.163725 0.805680
0.287299 0.162774 0.803857
0.403138 0.161881 0.802000
0.517792 0.160994 0.800169
0.631522 0.160098 0.798398
0.744461 0.159177 0.796721
0.854493 0.158241 0.795192
0.958054 0.157314 0.793875
0.046101 0.277755 0.801350
0.168732 0.276782 0.799456
0.286271 0.275837 0.797675
0.401863 0.274875 0.796013
0.516123 0.273876 0.794494
0.629324 0.272830 0.793142
0.741624 0.271728 0.791970
0.850943 0.270590 0.791006
0.953761 0.269453 0.790275
0.044762 0.388964 0.795523
0.166947 0.387865 0.793981
0.283913 0.386758 0.792654
0.398835 0.385605 0.791522
0.512366 0.384401 0.790580
0.624826 0.383144 0.789814
0.736419 0.381842 0.789202
0.845110 0.380526 0.788735
0.947412 0.379243 0.788412
0.041513 0.498499 0.791277
0.162960 0.497192 0.790320
0.279192 0.495877 0.789573
0.393431 0.494531 0.788981
0.506371 0.493158 0.788507
0.618400 0.491786 0.788080
0.730373 0.490699 0.787149
0.839941 0.489791 0.785959
0.943488 0.489055 0.784618
0.035910 0.606534 0.788944
0.156807 0.605071 0.788422
0.272858 0.603740 0.787813
0.387686 0.602692 0.786732
0.501646 0.601783 0.785420
0.614998 0.600984 0.783911
0.727911 0.600286 0.782215
0.838302 0.599702 0.780357
0.942637 0.599265 0.778379
0.030516 0.714194 0.786448
0.152565 0.713243 0.784981
0.269850 0.712440 0.783364
0.385553 0.711747 0.781572
0.500321 0.711151 0.779605
0.614451 0.710645 0.777468
0.728110 0.710222 0.775170
0.839209 0.709896 0.772742
0.944202 0.709698 0.770234
0.028776 0.820718 0.781136
0.151621 0.820072 0.779025
0.269673 0.819555 0.776788
0.386110 0.819131 0.774405
0.501568 0.818786 0.771883
0.616337 0.818512 0.769231
0.730578 0.818301 0.766464
0.842199 0.818169 0.763615
0.947514 0.818082 0.760848
0.029806 0.922156 0.773968
0.153323 0.921754 0.771316
0.271994 0.921463 0.768581
0.388990 0.921244 0.765746
0.504950 0.921085 0.762819
0.619128 0.920527 0.760656
0.731262 0.919378 0.759616
0.840663 0.918263 0.758587
0.943796 0.917215 0.757607
0.050674 0.047588 0.910999
0.172359 0.046222 0.909677
0.289255 0.044994 0.908262
0.404554 0.043872 0.906724
0.518908 0.042853 0.905062
0.632626 0.041938 0.903280
0.745761 0.041073 0.901448
0.856123 0.040230 0.899659
0.960139 0.039432 0.897980
0.047205 0.164503 0.905991
0.169634 0.163437 0.904204
0.287258 0.162511 0.902349
0.403095 0.161617 0.900493
0.517732 0.160726 0.898676
0.631430 0.159820 0.896931
0.744322 0.158886 0.895291
0.854293 0.157932 0.893811
0.957782 0.156985 0.892549
0.046053 0.277490 0.899847
0.168662 0.276511 0.897971
0.286163 0.275555 0.896220
0.401703 0.274578 0.894599
0.515898 0.273561 0.893132
0.629025 0.272494 0.891838
0.741248 0.271370 0.890727
0.850492 0.270211 0.889823
0.953240 0.269054 0.889147
0.044579 0.388660 0.894127
0.166696 0.387542 0.892640
0.283587 0.386414 0.891372
0.398432 0.385239 0.890301
0.511888 0.384014 0.889418
0.624281 0.382739 0.888705
0.735820 0.381421 0.888136
0.844469 0.380093 0.887702
0.946775 0.378815 0.887375
0.041082 0.498126 0.890078
0.162456 0.496798 0.889178
0.278625 0.495465 0.888481
0.392814 0.494104 0.887929
0.505719 0.492722 0.887483
0.617910 0.491424 0.886923
0.730025 0.490399 0.885876
0.839685 0.489530 0.884610
0.943316 0.488827 0.883201
0.035279 0.606104 0.887904
0.156146 0.604632 0.887405
0.272433 0.603407 0.886602
0.387373 0.602407 0.885430
0.501421 0.601534 0.884046
0.614856 0.600768 0.882470
0.727848 0.600099 0.880709
0.838317 0.599545 0.878789
0.942726 0.599135 0.876751
0.030236 0.713923 0.885118
0.152371 0.713006 0.883582
0.269737 0.712235 0.881899
0.385519 0.711571 0.880043
0.500363 0.711004 0.878015
0.614566 0.710524 0.875820
0.728293 0.710125 0.873467
0.839453 0.709822 0.870990
0.944502 0.709644 0.868436
0.028770 0.820553 0.879584
0.151691 0.819934 0.877413
0.269813 0.819443 0.875120
0.386315 0.819043 0.872684
0.501833 0.818720 0.870113
0.616656 0.818466 0.867418
0.730944 0.818272 0.864613
0.842608 0.818156 0.861729
0.947127 0.817721 0.859614
0.030034 0.922076 0.872228
0.153609 0.921695 0.869530
0.272331 0.921423 0.866753
0.389373 0.921221 0.863882
0.505373 0.921077 0.860922
0.618744 0.920167 0.859419
0.730886 0.919020 0.858373
0.840293 0.917907 0.857339
0.943431 0.916860 0.856356
