Resources/LUTs/Kodak_ColorPlus_200_Linear.cube
# Kodak ColorPlus 200 V4 - Minimal Color-Only
# Gamma ~1.0, no contrast baking
# Skin tone saturation REDUCED to prevent burnt orange
TITLE "Kodak ColorPlus 200 V4"
LUT_3D_SIZE 9
DOMAIN_MIN 0.0 0.0 0.0
DOMAIN_MAX 1.0 1.0 1.0
0.000000 0.000000 0.000000
0.127605 0.015400 0.014981
0.254890 0.030800 0.030020
0.381854 0.046200 0.045116
0.508498 0.061600 0.060270
0.634822 0.077000 0.075482
0.760826 0.092400 0.090751
0.886510 0.107800 0.106078
1.000000 0.121760 0.120000
0.012986 0.125625 0.003966
0.127671 0.125875 0.000000
0.254644 0.141395 0.030177
0.381296 0.156795 0.045329
0.507629 0.172195 0.060539
0.633641 0.187595 0.075807
0.759375 0.202995 0.091125
0.885875 0.218395 0.106305
1.000000 0.232310 0.120000
0.025908 0.251250 0.007961
0.127735 0.251500 0.000000
0.254396 0.251750 0.000000
0.380736 0.252000 0.000000
0.506757 0.282790 0.060809
0.633250 0.298190 0.075990
0.759750 0.313590 0.091170
0.886250 0.328990 0.106350
1.000000 0.342860 0.120000
0.038767 0.376875 0.011987
0.161666 0.377125 0.011291
0.254146 0.377375 0.000000
0.380625 0.377625 0.000000
0.507125 0.377875 0.000000
0.633625 0.408785 0.076035
0.760125 0.424185 0.091215
0.886625 0.439585 0.106395
1.000000 0.453410 0.120000
0.051562 0.502500 0.016041
0.174355 0.502750 0.015082
0.254500 0.503000 0.000000
0.381000 0.503250 0.000000
0.507500 0.503500 0.000000
0.634000 0.503750 0.000000
0.760500 0.504000 0.000000
0.887000 0.550180 0.106440
1.000000 0.563960 0.120000
0.064443 0.628125 0.020056
0.187243 0.628375 0.019094
0.309991 0.628625 0.018859
0.381375 0.628875 0.000000
0.507875 0.629125 0.000000
0.634375 0.629375 0.000000
0.760875 0.629625 0.000000
0.887375 0.629875 0.000000
1.000000 0.630125 0.000000
0.077332 0.753750 0.024068
0.200132 0.754000 0.023105
0.322897 0.754250 0.022628
0.381750 0.754500 0.000000
0.508250 0.754750 0.000000
0.634750 0.755000 0.000000
0.761250 0.755250 0.000000
0.887750 0.755500 0.000000
1.000000 0.755750 0.000000
0.090221 0.879375 0.028079
0.213021 0.879625 0.027116
0.335803 0.879875 0.026396
0.458533 0.880125 0.026404
0.508625 0.880375 0.000000
0.635125 0.880625 0.000000
0.761625 0.880875 0.000000
0.888125 0.881125 0.000000
1.000000 0.881375 0.000000
0.102610 1.000000 0.031940
0.225385 1.000000 0.030970
0.348160 1.000000 0.030000
0.470865 1.000000 0.030000
0.509000 1.000000 0.000000
0.635500 1.000000 0.000000
0.762000 1.000000 0.000000
0.888500 1.000000 0.000000
1.000000 1.000000 0.000000
0.007420 0.012877 0.120748
0.126918 0.000000 0.119990
0.254147 0.030505 0.134889
0.381057 0.045905 0.149324
0.507648 0.061305 0.163812
0.633920 0.076705 0.178355
0.759872 0.092105 0.192952
0.885505 0.107505 0.207603
1.000000 0.121540 0.220760
0.000000 0.125375 0.121446
0.126985 0.125625 0.120687
0.253902 0.141100 0.135656
0.380500 0.156500 0.150144
0.506779 0.171900 0.164686
0.632739 0.187300 0.179282
0.758750 0.202700 0.193790
0.885250 0.218100 0.208090
1.000000 0.232090 0.220980
0.007687 0.251000 0.108561
0.139859 0.251250 0.125243
0.253656 0.251500 0.120620
0.379942 0.267095 0.150966
0.506125 0.282495 0.165455
0.632625 0.297895 0.179755
0.759125 0.313295 0.194055
0.885625 0.328695 0.208355
1.000000 0.342640 0.221200
0.011809 0.376625 0.104244
0.152416 0.376875 0.129714
0.253500 0.377125 0.121250
0.380000 0.377375 0.120250
0.506500 0.377625 0.119250
0.633000 0.408490 0.180020
0.759500 0.423890 0.194320
0.886000 0.439290 0.208620
1.000000 0.453190 0.221420
0.015916 0.502250 0.099846
0.165168 0.502500 0.133900
0.287968 0.502750 0.132938
0.380375 0.503000 0.120500
0.506875 0.503250 0.119500
0.633375 0.503500 0.118500
0.759875 0.503750 0.117500
0.886375 0.549885 0.208885
1.000000 0.563740 0.221640
0.020049 0.627875 0.095110
0.178057 0.628125 0.137911
0.300856 0.628375 0.136949
0.380750 0.628625 0.120750
0.507250 0.628875 0.119750
0.633750 0.629125 0.118750
0.760250 0.629375 0.117750
0.886750 0.629625 0.116750
1.000000 0.674290 0.221860
0.024181 0.753500 0.090374
0.190945 0.753750 0.141923
0.313745 0.754000 0.140960
0.436545 0.754250 0.139997
0.507625 0.754500 0.120000
0.634125 0.754750 0.119000
0.760625 0.755000 0.118000
0.887125 0.755250 0.117000
1.000000 0.755500 0.116000
0.028314 0.879125 0.085638
0.203834 0.879375 0.145934
0.326634 0.879625 0.144971
0.449434 0.879875 0.144009
0.508000 0.880125 0.120250
0.634500 0.880375 0.119250
0.761000 0.880625 0.118250
0.887500 0.880875 0.117250
1.000000 0.881125 0.116250
0.032304 1.000000 0.081091
0.216224 1.000000 0.149795
0.338998 1.000000 0.148825
0.461773 1.000000 0.147855
0.584548 1.000000 0.146885
0.634875 1.000000 0.119500
0.761375 1.000000 0.118500
0.887875 1.000000 0.117500
1.000000 1.000000 0.116500
0.014833 0.025754 0.241667
0.126230 0.000000 0.241136
0.253403 0.000000 0.240606
0.380257 0.000250 0.240074
0.506791 0.061010 0.270996
0.633006 0.076410 0.285753
0.758902 0.091810 0.300563
0.884478 0.107210 0.315428
1.000000 0.121320 0.328560
0.014812 0.143398 0.242815
0.133219 0.137636 0.242284
0.253160 0.125625 0.241752
0.379701 0.156205 0.257512
0.505924 0.171605 0.272268
0.631827 0.187005 0.287078
0.758125 0.202405 0.301515
0.884625 0.217805 0.315815
1.000000 0.231870 0.328780
0.000000 0.250750 0.243968
0.126366 0.251000 0.243435
0.252915 0.251250 0.242900
0.379144 0.266800 0.258732
0.505500 0.282200 0.273180
0.632000 0.297600 0.287480
0.758500 0.313000 0.301780
0.885000 0.328400 0.316080
1.000000 0.342420 0.329000
0.000000 0.376375 0.245123
0.133942 0.376625 0.231076
0.265892 0.376875 0.247744
0.379375 0.377125 0.242750
0.505875 0.392795 0.273445
0.632375 0.408195 0.287745
0.758875 0.423595 0.302045
0.885375 0.438995 0.316345
1.000000 0.452970 0.329220
0.015302 0.502000 0.218638
0.138015 0.502250 0.226493
0.278781 0.502500 0.251755
0.379750 0.502750 0.243000
0.506250 0.503000 0.242000
0.632750 0.503250 0.241000
0.759250 0.534190 0.302310
0.885750 0.549590 0.316610
1.000000 0.563520 0.329440
0.019435 0.627625 0.213902
0.142147 0.627875 0.221756
0.291670 0.628125 0.255766
0.414470 0.628375 0.254804
0.506625 0.628625 0.242250
0.633125 0.628875 0.241250
0.759625 0.629125 0.240250
0.886125 0.629375 0.239250
1.000000 0.674070 0.329660
0.023567 0.753250 0.209165
0.146280 0.753500 0.217020
0.304559 0.753750 0.259777
0.427358 0.754000 0.258815
0.507000 0.754250 0.242500
0.633500 0.754500 0.241500
0.760000 0.754750 0.240500
0.886500 0.755000 0.239500
1.000000 0.755250 0.238500
0.027700 0.878875 0.204429
0.150412 0.879125 0.212284
0.317447 0.879375 0.263789
0.440247 0.879625 0.262826
0.563047 0.879875 0.261864
0.633875 0.880125 0.241750
0.760375 0.880375 0.240750
0.886875 0.880625 0.239750
1.000000 0.880875 0.238750
0.031698 1.000000 0.199872
0.154402 1.000000 0.207737
0.329837 1.000000 0.267650
0.452612 1.000000 0.266680
0.575386 1.000000 0.265710
0.634250 1.000000 0.242000
0.760750 1.000000 0.241000
0.887250 1.000000 0.240000
1.000000 1.000000 0.239000
0.022240 0.038632 0.362757
0.125543 0.000000 0.362451
0.252659 0.000000 0.362151
0.379457 0.000000 0.361848
0.505934 0.000250 0.361543
0.632093 0.000500 0.361234
0.757932 0.091515 0.408321
0.883625 0.106915 0.423275
1.000000 0.121100 0.436360
0.022201 0.156040 0.364352
0.140190 0.150530 0.364048
0.252418 0.125375 0.363747
0.378903 0.125625 0.363443
0.505068 0.125875 0.363135
0.631000 0.186710 0.394940
0.757500 0.202110 0.409240
0.884000 0.217510 0.423540
1.000000 0.231650 0.436580
0.022162 0.274154 0.365958
0.140215 0.268627 0.365652
0.258206 0.262266 0.365348
0.378375 0.251250 0.365000
0.504875 0.281905 0.380905
0.631375 0.297305 0.395205
0.757875 0.312705 0.409505
0.884375 0.328105 0.423805
1.000000 0.342200 0.436800
0.000000 0.376125 0.367564
0.125750 0.376375 0.367250
0.252250 0.376625 0.366250
0.378750 0.376875 0.365250
0.505250 0.392500 0.381170
0.631750 0.407900 0.395470
0.758250 0.423300 0.409770
0.884750 0.438700 0.424070
1.000000 0.452750 0.437020
0.000000 0.501750 0.368500
0.126125 0.502000 0.367500
0.260114 0.502250 0.353139
0.392394 0.502500 0.369610
0.505625 0.502750 0.364500
0.632125 0.518495 0.395735
0.758625 0.533895 0.410035
0.885125 0.549295 0.424335
1.000000 0.563300 0.437240
0.000000 0.627375 0.368750
0.141534 0.627625 0.340548
0.264246 0.627875 0.348402
0.405283 0.628125 0.373621
0.506000 0.628375 0.364750
0.632500 0.628625 0.363750
0.759000 0.628875 0.362750
0.885500 0.659890 0.424600
1.000000 0.673850 0.437460
0.022954 0.753000 0.327957
0.145666 0.753250 0.335811
0.268379 0.753500 0.343666
0.418172 0.753750 0.377632
0.540972 0.754000 0.376670
0.632875 0.754250 0.364000
0.759375 0.754500 0.363000
0.885875 0.754750 0.362000
1.000000 0.755000 0.361000
0.027086 0.878625 0.323220
0.149799 0.878875 0.331075
0.272511 0.879125 0.338930
0.431060 0.879375 0.381644
0.553860 0.879625 0.380681
0.633250 0.879875 0.364250
0.759750 0.880125 0.363250
0.886250 0.880375 0.362250
1.000000 0.880625 0.361250
0.031091 1.000000 0.318654
0.153796 1.000000 0.326518
0.276501 1.000000 0.334383
0.443450 1.000000 0.385505
0.566225 1.000000 0.384535
0.689000 1.000000 0.383565
0.760125 1.000000 0.363500
0.886625 1.000000 0.362500
1.000000 1.000000 0.361500
0.029639 0.051509 0.484019
0.124692 0.029340 0.483934
0.251915 0.000000 0.483865
0.378656 0.000000 0.483792
0.505078 0.000000 0.483715
0.631180 0.000250 0.483637
0.756962 0.000500 0.483556
0.883000 0.000750 0.483000
1.000000 0.001000 0.482000
0.029583 0.168683 0.486059
0.146920 0.163201 0.485978
0.251677 0.125125 0.485909
0.378105 0.125375 0.485836
0.504214 0.125625 0.485760
0.630375 0.125875 0.485250
0.756875 0.126125 0.484250
0.883375 0.217215 0.531265
1.000000 0.231430 0.544380
0.029525 0.286796 0.488117
0.146928 0.281298 0.488035
0.265209 0.275272 0.487963
0.377750 0.251000 0.487500
0.504250 0.251250 0.486500
0.630750 0.251500 0.485500
0.757250 0.312410 0.517230
0.883750 0.327810 0.531530
1.000000 0.341980 0.544600
0.000000 0.375875 0.490175
0.147003 0.399394 0.489750
0.265853 0.393817 0.488750
0.383292 0.386896 0.487750
0.504625 0.376875 0.486750
0.631125 0.407605 0.503195
0.757625 0.423005 0.517495
0.884125 0.438405 0.531795
1.000000 0.452530 0.544820
0.000000 0.501500 0.491000
0.125500 0.501750 0.490000
0.252000 0.502000 0.489000
0.378500 0.502250 0.488000
0.505000 0.502500 0.487000
0.631500 0.518200 0.503460
0.758000 0.533600 0.517760
0.884500 0.549000 0.532060
1.000000 0.563080 0.545040
0.000000 0.627125 0.491250
0.125875 0.627375 0.490250
0.252375 0.627625 0.489250
0.386345 0.627875 0.475049
0.518896 0.628125 0.491476
0.631875 0.628375 0.486250
0.758375 0.644195 0.518025
0.884875 0.659595 0.532325
1.000000 0.673630 0.545260
0.000000 0.752750 0.491500
0.126250 0.753000 0.490500
0.267765 0.753250 0.462458
0.390478 0.753500 0.470312
0.531785 0.753750 0.495488
0.632250 0.754000 0.486500
0.758750 0.754250 0.485500
0.885250 0.754500 0.484500
1.000000 0.784180 0.545480
0.000125 0.878375 0.491750
0.149185 0.878625 0.449867
0.271897 0.878875 0.457721
0.394610 0.879125 0.465576
0.544674 0.879375 0.499499
0.667473 0.879625 0.498536
0.759125 0.879875 0.485750
0.885625 0.880125 0.484750
1.000000 0.880375 0.483750
0.030485 1.000000 0.437435
0.153190 1.000000 0.445300
0.275895 1.000000 0.453164
0.398600 1.000000 0.461029
0.557063 1.000000 0.503360
0.679838 1.000000 0.502390
0.759500 1.000000 0.486000
0.886000 1.000000 0.485000
1.000000 1.000000 0.484000
0.037032 0.064386 0.605451
0.125878 0.036690 0.605587
0.251172 0.000000 0.605748
0.377855 0.000000 0.605905
0.504221 0.000000 0.606058
0.630268 0.000000 0.606207
0.755994 0.000250 0.606357
0.882375 0.000500 0.605500
1.000000 0.000750 0.604500
0.036958 0.181325 0.607936
0.153643 0.175871 0.608076
0.250643 0.154028 0.608238
0.377307 0.125125 0.608397
0.503360 0.125375 0.608551
0.629750 0.125625 0.607750
0.756250 0.125875 0.606750
0.882750 0.126125 0.605750
1.000000 0.126375 0.604750
0.036882 0.299439 0.610445
0.153634 0.293968 0.610586
0.272206 0.288278 0.610744
0.377125 0.250750 0.610000
0.503625 0.251000 0.609000
0.630125 0.251250 0.608000
0.756625 0.251500 0.607000
0.883125 0.251750 0.606000
1.000000 0.341760 0.652400
0.036807 0.417552 0.612956
0.153765 0.412065 0.612250
0.272615 0.406487 0.611250
0.390408 0.399902 0.610250
0.504000 0.376625 0.609250
0.630500 0.376875 0.608250
0.757000 0.377125 0.607250
0.883500 0.438110 0.639520
1.000000 0.452310 0.652620
0.000000 0.501250 0.613500
0.124875 0.501500 0.612500
0.272983 0.524584 0.611500
0.391833 0.519006 0.610500
0.508685 0.511527 0.609500
0.630875 0.502500 0.608500
0.757375 0.533305 0.625485
0.883875 0.548705 0.639785
1.000000 0.562860 0.652840
0.000000 0.626875 0.613750
0.125250 0.627125 0.612750
0.251750 0.627375 0.611750
0.378250 0.627625 0.610750
0.504750 0.627875 0.609750
0.631250 0.628125 0.608750
0.757750 0.628375 0.607750
0.884250 0.659300 0.640050
1.000000 0.673410 0.653060
0.000000 0.752500 0.614000
0.125625 0.752750 0.613000
0.252125 0.753000 0.612000
0.378625 0.753250 0.611000
0.512576 0.753500 0.596959
0.645398 0.753750 0.613343
0.758125 0.754000 0.608000
0.884625 0.769895 0.640315
1.000000 0.783960 0.653280
0.000000 0.878125 0.614250
0.126000 0.878375 0.613250
0.252500 0.878625 0.612250
0.393996 0.878875 0.584367
0.516709 0.879125 0.592222
0.658287 0.879375 0.617354
0.758500 0.879625 0.608250
0.885000 0.879875 0.607250
1.000000 0.880125 0.606250
0.000000 1.000000 0.614500
0.126375 1.000000 0.613500
0.275289 1.000000 0.571946
0.397994 1.000000 0.579811
0.520699 1.000000 0.587675
0.670676 1.000000 0.621215
0.793451 1.000000 0.620245
0.885375 1.000000 0.607500
1.000000 1.000000 0.606500
0.044418 0.077263 0.727054
0.127063 0.044040 0.727408
0.250429 0.000000 0.727799
0.377055 0.000000 0.728186
0.503363 0.000000 0.728570
0.629353 0.000000 0.728949
0.755250 0.000000 0.729000
0.881750 0.000250 0.728000
1.000000 0.000500 0.727000
0.044326 0.193967 0.729981
0.160360 0.188541 0.730341
0.251756 0.161142 0.730734
0.376511 0.124875 0.731124
0.502625 0.125125 0.731250
0.629125 0.125375 0.730250
0.755625 0.125625 0.729250
0.882125 0.125875 0.728250
1.000000 0.126125 0.727250
0.044232 0.312081 0.732942
0.160334 0.306638 0.733303
0.279010 0.301061 0.733500
0.376112 0.279420 0.732500
0.503000 0.250750 0.731500
0.629500 0.251000 0.730500
0.756000 0.251250 0.729500
0.882500 0.251500 0.728500
1.000000 0.251750 0.727500
0.044145 0.430195 0.735750
0.160527 0.424735 0.734750
0.279377 0.419157 0.733750
0.397523 0.412908 0.732750
0.503375 0.376375 0.731750
0.629875 0.376625 0.730750
0.756375 0.376875 0.729750
0.882875 0.377125 0.728750
1.000000 0.377375 0.727750
0.044160 0.548308 0.736000
0.160895 0.542832 0.735000
0.279745 0.537254 0.734000
0.398595 0.531676 0.733000
0.515800 0.524533 0.732000
0.630250 0.502250 0.731000
0.756750 0.502500 0.730000
0.883250 0.502750 0.729000
1.000000 0.562640 0.760640
0.000000 0.626625 0.736250
0.124625 0.626875 0.735250
0.251125 0.627125 0.734250
0.377625 0.627375 0.733250
0.517812 0.644195 0.732250
0.634077 0.636157 0.731250
0.757125 0.628125 0.730250
0.883625 0.659005 0.747775
1.000000 0.673190 0.760860
0.000000 0.752250 0.736500
0.125000 0.752500 0.735500
0.251500 0.752750 0.734500
0.378000 0.753000 0.733500
0.504500 0.753250 0.732500
0.631000 0.753500 0.731500
0.757500 0.753750 0.730500
0.884000 0.754000 0.729500
1.000000 0.783740 0.761080
0.000000 0.877875 0.736750
0.125375 0.878125 0.735750
0.251875 0.878375 0.734750
0.378375 0.878625 0.733750
0.504875 0.878875 0.732750
0.638807 0.879125 0.718868
0.771900 0.879375 0.735209
0.884375 0.879625 0.729750
1.000000 0.894290 0.761300
0.000000 1.000000 0.737000
0.125750 1.000000 0.736000
0.252250 1.000000 0.735000
0.378750 1.000000 0.734000
0.520092 1.000000 0.706457
0.642798 1.000000 0.714321
0.784289 1.000000 0.739070
0.884750 1.000000 0.730000
1.000000 1.000000 0.729000
0.051797 0.090140 0.848829
0.128247 0.051390 0.849398
0.247490 0.051330 0.850019
0.376256 0.000000 0.850637
0.502506 0.000000 0.851250
0.628439 0.000000 0.851860
0.754625 0.000000 0.851500
0.881125 0.000000 0.850500
1.000000 0.000250 0.849500
0.051687 0.206609 0.852196
0.167070 0.201212 0.852773
0.252868 0.168258 0.853397
0.375714 0.124625 0.854018
0.502000 0.124875 0.853750
0.628500 0.125125 0.852750
0.755000 0.125375 0.851750
0.881500 0.125625 0.850750
1.000000 0.125875 0.849750
0.051576 0.324723 0.855609
0.167028 0.319309 0.856188
0.285773 0.313731 0.856000
0.377336 0.286535 0.855000
0.502375 0.250500 0.854000
0.628875 0.250750 0.853000
0.755375 0.251000 0.852000
0.881875 0.251250 0.851000
1.000000 0.251500 0.850000
0.051495 0.442837 0.858250
0.167290 0.437406 0.857250
0.286140 0.431828 0.856250
0.404637 0.425914 0.855250
0.502267 0.404813 0.854250
0.629250 0.376375 0.853250
0.755750 0.376625 0.852250
0.882250 0.376875 0.851250
1.000000 0.377125 0.850250
0.051510 0.560951 0.858500
0.167657 0.555502 0.857500
0.286507 0.549925 0.856500
0.405358 0.544347 0.855500
0.522915 0.537539 0.854500
0.629625 0.502000 0.853500
0.756125 0.502250 0.852500
0.882625 0.502500 0.851500
1.000000 0.502750 0.850500
0.000000 0.626375 0.858750
0.168025 0.673599 0.857750
0.286875 0.668022 0.856750
0.405725 0.662444 0.855750
0.524575 0.656866 0.854750
0.641192 0.649163 0.853750
0.756500 0.627875 0.852750
0.883000 0.628125 0.851750
1.000000 0.628375 0.850750
0.000000 0.752000 0.859000
0.124375 0.752250 0.858000
0.250875 0.752500 0.857000
0.377375 0.752750 0.856000
0.503875 0.753000 0.855000
0.643793 0.769385 0.854000
0.759470 0.760787 0.853000
0.883375 0.753750 0.852000
1.000000 0.783520 0.868880
0.000000 0.877625 0.859250
0.124750 0.877875 0.858250
0.251250 0.878125 0.857250
0.377750 0.878375 0.856250
0.504250 0.878625 0.855250
0.630750 0.878875 0.854250
0.757250 0.879125 0.853250
0.883750 0.879375 0.852250
1.000000 0.879625 0.851250
0.000000 1.000000 0.859500
0.125125 1.000000 0.858500
0.251625 1.000000 0.857500
0.378125 1.000000 0.856500
0.504625 1.000000 0.855500
0.631125 1.000000 0.854500
0.764896 1.000000 0.840968
0.897903 1.000000 0.856925
1.000000 1.000000 0.851500
0.059169 0.103018 0.970774
0.129430 0.058740 0.971556
0.248617 0.058680 0.972408
0.375457 0.000000 0.973256
0.501650 0.000000 0.974100
0.627526 0.000000 0.974940
0.754000 0.000000 0.974000
0.880500 0.000000 0.973000
1.000000 0.000000 0.972000
0.059042 0.219251 0.974580
0.173775 0.213882 0.975372
0.253979 0.175372 0.976227
0.372579 0.175547 0.977079
0.501375 0.124625 0.976250
0.627875 0.124875 0.975250
0.754375 0.125125 0.974250
0.880875 0.125375 0.973250
1.000000 0.125625 0.972250
0.058912 0.337365 0.978445
0.173716 0.331979 0.979239
0.292535 0.326401 0.978500
0.378560 0.293650 0.977500
0.501750 0.250250 0.976500
0.628250 0.250500 0.975500
0.754750 0.250750 0.974500
0.881250 0.251000 0.973500
1.000000 0.251250 0.972500
0.058845 0.455479 0.980750
0.174053 0.450076 0.979750
0.292902 0.444498 0.978750
0.411752 0.438920 0.977750
0.503491 0.411927 0.976750
0.628625 0.376125 0.975750
0.755125 0.376375 0.974750
0.881625 0.376625 0.973750
1.000000 0.376875 0.972750
0.058860 0.573593 0.981000
0.174420 0.568173 0.980000
0.293270 0.562595 0.979000
0.412120 0.557017 0.978000
0.530030 0.550545 0.977000
0.628422 0.530205 0.976000
0.755500 0.502000 0.975000
0.882000 0.502250 0.974000
1.000000 0.502500 0.973000
0.058875 0.691706 0.981250
0.174788 0.686270 0.980250
0.293638 0.680692 0.979250
0.412488 0.675114 0.978250
0.531337 0.669536 0.977250
0.648308 0.662169 0.976250
0.755875 0.627625 0.975250
0.882375 0.627875 0.974250
1.000000 0.628125 0.973250
0.000000 0.751750 0.981500
0.123750 0.752000 0.980500
0.294005 0.798789 0.979500
0.412855 0.793211 0.978500
0.531705 0.787633 0.977500
0.650555 0.782055 0.976500
0.766585 0.773793 0.975500
0.882750 0.753500 0.974500
1.000000 0.753750 0.973500
0.000000 0.877375 0.981750
0.124125 0.877625 0.980750
0.250625 0.877875 0.979750
0.377125 0.878125 0.978750
0.503625 0.878375 0.977750
0.630125 0.878625 0.976750
0.769773 0.894574 0.975750
0.884862 0.885417 0.974750
1.000000 0.879375 0.973750
0.000000 1.000000 0.982000
0.124500 1.000000 0.981000
0.251000 1.000000 0.980000
0.377500 1.000000 0.979000
0.504000 1.000000 0.978000
0.630500 1.000000 0.977000
0.757000 1.000000 0.976000
0.883500 1.000000 0.975000
1.000000 1.000000 0.974000
