Resources/LUTs/Kodak_Gold_200_v2_linear.cube
TITLE "Kodak Gold 200 v4 CORRECTED (Linear)"
LUT_3D_SIZE 5
DOMAIN_MIN 0 0 0
DOMAIN_MAX 1 1 1
0.025408 0.031166 0.019166
0.309134 0.027908 0.013706
0.629769 0.025380 0.010336
0.956638 0.023357 0.005832
0.970000 0.020957 0.003972
0.015439 0.294156 0.005027
0.289652 0.291394 0.003228
0.643240 0.299564 0.002634
0.969078 0.298484 0.001731
0.970000 0.295937 0.001426
0.010092 0.588911 0.001359
0.283265 0.586226 0.001157
0.640962 0.608968 0.000778
0.962184 0.604772 0.000934
0.970000 0.599971 0.000419
0.006637 0.900941 0.001270
0.278508 0.899460 0.000240
0.586513 0.897792 0.000742
0.936398 0.912674 0.000604
0.970000 0.894305 0.000000
0.004216 0.980000 0.000134
0.272110 0.980000 0.000337
0.569341 0.980000 0.000640
0.874210 0.980000 0.000000
0.970000 0.980000 0.000000
0.026302 0.031166 0.220507
0.308668 0.027107 0.218409
0.630448 0.025107 0.217008
0.957978 0.022152 0.217456
0.970000 0.020255 0.217594
0.015118 0.293703 0.216952
0.288959 0.290539 0.217973
0.643590 0.298907 0.220153
0.969485 0.297182 0.222718
0.970000 0.295795 0.224364
0.009222 0.588284 0.223465
0.282343 0.585260 0.224585
0.639178 0.607442 0.226574
0.960243 0.603057 0.228854
0.970000 0.598690 0.230396
0.006551 0.900168 0.229314
0.278703 0.898818 0.230937
0.586507 0.897373 0.232021
0.931446 0.907462 0.233516
0.970000 0.887522 0.232758
0.004257 0.980000 0.233150
0.271221 0.980000 0.232567
0.566320 0.980000 0.231713
0.870638 0.980000 0.231381
0.970000 0.980000 0.230524
0.023738 0.028507 0.448611
0.297703 0.025578 0.451818
0.631668 0.023628 0.454532
0.959523 0.021669 0.459350
0.970000 0.019347 0.463626
0.014232 0.292167 0.460501
0.287456 0.289116 0.465622
0.644338 0.298559 0.470431
0.969764 0.296601 0.474979
0.970000 0.294690 0.479974
0.009196 0.587524 0.477023
0.281798 0.585490 0.482185
0.636620 0.606324 0.486336
0.957788 0.602048 0.489945
0.970000 0.596683 0.493941
0.005880 0.899833 0.491137
0.278092 0.898363 0.494519
0.586211 0.897017 0.497925
0.925336 0.900925 0.498826
0.970000 0.881402 0.498177
0.004233 0.980000 0.498263
0.269247 0.980000 0.497263
0.563921 0.980000 0.495953
0.866280 0.980000 0.494843
0.970000 0.980000 0.492927
0.022244 0.027735 0.692230
0.296683 0.025235 0.699994
0.603129 0.022250 0.707834
0.961462 0.021372 0.716216
0.970000 0.018665 0.724596
0.013108 0.291307 0.718694
0.286872 0.289094 0.728065
0.594212 0.286017 0.735620
0.969952 0.296342 0.743919
0.970000 0.294253 0.750876
0.008863 0.586232 0.746114
0.281161 0.584702 0.753628
0.589807 0.582951 0.760351
0.955704 0.600602 0.766206
0.970000 0.595028 0.772011
0.005521 0.899618 0.768915
0.277864 0.897782 0.774017
0.586566 0.897193 0.779598
0.919649 0.893570 0.778457
0.970000 0.875418 0.776696
0.004409 0.980000 0.778052
0.268013 0.980000 0.776045
0.561024 0.980000 0.773725
0.862924 0.980000 0.771015
0.970000 0.980000 0.768429
0.021100 0.026880 0.947556
0.295260 0.024216 0.960570
0.601804 0.021892 0.972621
0.920939 0.019380 0.983507
0.970000 0.017656 0.995239
0.012722 0.290219 0.988445
0.285966 0.287608 0.998844
0.593754 0.285221 1.000000
0.914580 0.283372 1.000000
0.970000 0.292830 1.000000
0.008250 0.585592 1.000000
0.281209 0.583566 1.000000
0.588960 0.581986 1.000000
0.911335 0.580654 1.000000
0.970000 0.593661 1.000000
0.005659 0.898662 1.000000
0.277782 0.897094 1.000000
0.583900 0.892053 1.000000
0.896195 0.877120 1.000000
0.970000 0.869328 1.000000
0.004232 0.980000 1.000000
0.267226 0.980000 1.000000
0.559229 0.980000 1.000000
0.859157 0.980000 1.000000
0.970000 0.980000 1.000000
