Resources/LUTs/Kodak_ColorPlus_200_Linear.cube
# Kodak ColorPlus 200 V4 - Minimal Color-Only
# Gamma ~1.0, no contrast baking
# Skin tone saturation REDUCED to prevent burnt orange
TITLE "Kodak ColorPlus 200 V4"
LUT_3D_SIZE 33
DOMAIN_MIN 0.0 0.0 0.0
DOMAIN_MAX 1.0 1.0 1.0
0.000000 0.000000 0.000000
0.031931 0.003850 0.003740
0.063842 0.007700 0.007483
0.095734 0.011550 0.011230
0.127605 0.015400 0.014981
0.159456 0.019250 0.018735
0.191287 0.023100 0.022493
0.223098 0.026950 0.026255
0.254890 0.030800 0.030020
0.286661 0.034650 0.033789
0.318412 0.038500 0.037561
0.350143 0.042350 0.041337
0.381854 0.046200 0.045116
0.413545 0.050050 0.048899
0.445216 0.053900 0.052686
0.476867 0.057750 0.056476
0.508498 0.061600 0.060270
0.540109 0.065450 0.064068
0.571700 0.069300 0.067869
0.603271 0.073150 0.071674
0.634822 0.077000 0.075482
0.666353 0.080850 0.079294
0.697864 0.084700 0.083109
0.729355 0.088550 0.086929
0.760826 0.092400 0.090751
0.792277 0.096250 0.094578
0.823708 0.100100 0.098408
0.855119 0.103950 0.102241
0.886510 0.107800 0.106078
0.917881 0.111650 0.109919
0.949231 0.115500 0.113763
0.980562 0.119350 0.117611
1.000000 0.121760 0.120000
0.003252 0.031406 0.000989
0.032006 0.031469 0.000000
0.063898 0.035349 0.007501
0.095770 0.039199 0.011252
0.127622 0.043049 0.015006
0.159453 0.046899 0.018764
0.191265 0.050749 0.022525
0.223057 0.054599 0.026290
0.254828 0.058449 0.030059
0.286580 0.062299 0.033831
0.318312 0.066149 0.037607
0.350023 0.069999 0.041386
0.381715 0.073849 0.045169
0.413386 0.077699 0.048956
0.445038 0.081549 0.052746
0.476669 0.085399 0.056540
0.508281 0.089249 0.060338
0.539873 0.093099 0.064139
0.571444 0.096949 0.067943
0.602996 0.100799 0.071751
0.634527 0.104649 0.075563
0.666039 0.108499 0.079379
0.697530 0.112349 0.083198
0.729001 0.116199 0.087020
0.760453 0.120049 0.090847
0.791884 0.123899 0.094676
0.823296 0.127749 0.098510
0.854687 0.131599 0.102347
0.886059 0.135449 0.106188
0.917410 0.139299 0.110032
0.948844 0.143149 0.113861
0.980469 0.146999 0.117656
1.000000 0.149398 0.120000
0.006501 0.062812 0.001979
0.032081 0.062875 0.000000
0.063954 0.062937 0.000000
0.095806 0.063000 0.000000
0.127638 0.070698 0.015031
0.159450 0.074547 0.018793
0.191242 0.078397 0.022558
0.223015 0.082248 0.026326
0.254767 0.086098 0.030098
0.286499 0.089947 0.033874
0.318211 0.093797 0.037653
0.349903 0.097648 0.041436
0.381575 0.101498 0.045223
0.413227 0.105347 0.049013
0.444860 0.109197 0.052807
0.476472 0.113048 0.056604
0.508064 0.116898 0.060405
0.539636 0.120747 0.064209
0.571188 0.124597 0.068017
0.602720 0.128448 0.071829
0.634232 0.132298 0.075645
0.665724 0.136147 0.079463
0.697196 0.139997 0.083286
0.728648 0.143847 0.087112
0.760080 0.147697 0.090942
0.791492 0.151548 0.094775
0.822883 0.155398 0.098612
0.854255 0.159248 0.102453
0.885687 0.163098 0.106283
0.917313 0.166947 0.110078
0.948937 0.170797 0.113872
0.980563 0.174647 0.117668
1.000000 0.177035 0.120000
0.009745 0.094219 0.002972
0.040678 0.094281 0.002795
0.064009 0.094344 0.000000
0.095842 0.094406 0.000000
0.127655 0.094469 0.000000
0.159447 0.102196 0.018821
0.191220 0.106046 0.022590
0.222973 0.109896 0.026362
0.254705 0.113746 0.030137
0.286418 0.117596 0.033917
0.318111 0.121446 0.037699
0.349783 0.125296 0.041486
0.381436 0.129146 0.045276
0.413068 0.132996 0.049070
0.444681 0.136846 0.052867
0.476274 0.140696 0.056668
0.507846 0.144546 0.060472
0.539399 0.148396 0.064280
0.570931 0.152246 0.068092
0.602444 0.156096 0.071907
0.633936 0.159946 0.075726
0.665409 0.163796 0.079548
0.696861 0.167646 0.083374
0.728294 0.171496 0.087204
0.759706 0.175346 0.091037
0.791099 0.179196 0.094874
0.822531 0.183046 0.098704
0.854156 0.186896 0.102499
0.885781 0.190746 0.106294
0.917406 0.194596 0.110089
0.949031 0.198446 0.113884
0.980656 0.202296 0.117679
1.000000 0.204673 0.120000
0.012986 0.125625 0.003966
0.043903 0.125687 0.003730
0.064064 0.125750 0.000000
0.095878 0.125813 0.000000
0.127671 0.125875 0.000000
0.159444 0.125938 0.000000
0.191197 0.126000 0.000000
0.222930 0.137545 0.026398
0.254644 0.141395 0.030177
0.286337 0.145245 0.033959
0.318010 0.149095 0.037746
0.349663 0.152945 0.041536
0.381296 0.156795 0.045329
0.412909 0.160645 0.049126
0.444502 0.164495 0.052927
0.476075 0.168345 0.056731
0.507629 0.172195 0.060539
0.539162 0.176045 0.064351
0.570675 0.179895 0.068166
0.602168 0.183745 0.071985
0.633641 0.187595 0.075807
0.665094 0.191445 0.079633
0.696527 0.195295 0.083463
0.727940 0.199145 0.087296
0.759375 0.202995 0.091125
0.791000 0.206845 0.094920
0.822625 0.210695 0.098715
0.854250 0.214545 0.102510
0.885875 0.218395 0.106305
0.917500 0.222245 0.110100
0.949125 0.226095 0.113895
0.980750 0.229945 0.117690
1.000000 0.232310 0.120000
0.016222 0.157031 0.004962
0.047120 0.157094 0.004726
0.077985 0.157156 0.004670
0.095913 0.157219 0.000000
0.127687 0.157281 0.000000
0.159441 0.157344 0.000000
0.191174 0.157406 0.000000
0.222888 0.157469 0.000000
0.254582 0.157531 0.000000
0.286256 0.172894 0.034002
0.317909 0.176744 0.037792
0.349543 0.180594 0.041585
0.381156 0.184444 0.045382
0.412750 0.188294 0.049183
0.444324 0.192144 0.052987
0.475877 0.195994 0.056795
0.507411 0.199844 0.060607
0.538924 0.203694 0.064422
0.570418 0.207544 0.068240
0.601891 0.211394 0.072063
0.633345 0.215244 0.075889
0.664778 0.219094 0.079718
0.696219 0.222944 0.083546
0.727844 0.226794 0.087341
0.759469 0.230644 0.091136
0.791094 0.234494 0.094931
0.822719 0.238344 0.098726
0.854344 0.242194 0.102521
0.885969 0.246044 0.106316
0.917594 0.249894 0.110111
0.949219 0.253744 0.113906
0.980844 0.257594 0.117701
1.000000 0.259948 0.120000
0.019455 0.188438 0.005960
0.050333 0.188500 0.005724
0.081182 0.188562 0.005609
0.095949 0.188625 0.000000
0.127703 0.188688 0.000000
0.159437 0.188750 0.000000
0.191152 0.188812 0.000000
0.222846 0.188875 0.000000
0.254520 0.188938 0.000000
0.286174 0.189000 0.000000
0.317808 0.204392 0.037838
0.349422 0.208243 0.041635
0.381017 0.212093 0.045436
0.412591 0.215943 0.049240
0.444145 0.219793 0.053048
0.475679 0.223642 0.056859
0.507193 0.227492 0.060674
0.538687 0.231342 0.064493
0.570161 0.235192 0.068315
0.601615 0.239043 0.072141
0.633062 0.242893 0.075967
0.664688 0.246743 0.079763
0.696312 0.250592 0.083558
0.727938 0.254443 0.087352
0.759562 0.258292 0.091147
0.791188 0.262143 0.094943
0.822812 0.265992 0.098738
0.854437 0.269843 0.102532
0.886063 0.273692 0.106327
0.917687 0.277543 0.110123
0.949313 0.281393 0.113917
0.980937 0.285242 0.117712
1.000000 0.287585 0.120000
0.022684 0.219844 0.006960
0.053541 0.219906 0.006724
0.084375 0.219969 0.006549
0.115177 0.220031 0.006554
0.127719 0.220094 0.000000
0.159434 0.220156 0.000000
0.191129 0.220219 0.000000
0.222803 0.220281 0.000000
0.254458 0.220344 0.000000
0.286093 0.220406 0.000000
0.317707 0.220469 0.000000
0.349302 0.220531 0.000000
0.380877 0.239741 0.045489
0.412431 0.243591 0.049297
0.443966 0.247441 0.053108
0.475480 0.251291 0.056923
0.506975 0.255141 0.060741
0.538450 0.258991 0.064563
0.569906 0.262841 0.068389
0.601531 0.266691 0.072184
0.633156 0.270541 0.075979
0.664781 0.274391 0.079774
0.696406 0.278241 0.083569
0.728031 0.282091 0.087364
0.759656 0.285941 0.091159
0.791281 0.289791 0.094954
0.822906 0.293641 0.098749
0.854531 0.297491 0.102544
0.886156 0.301341 0.106339
0.917781 0.305191 0.110134
0.949406 0.309041 0.113929
0.981031 0.312891 0.117724
1.000000 0.315223 0.120000
0.025908 0.251250 0.007961
0.056746 0.251312 0.007726
0.087565 0.251375 0.007491
0.118346 0.251437 0.007496
0.127735 0.251500 0.000000
0.159430 0.251563 0.000000
0.191105 0.251625 0.000000
0.222761 0.251687 0.000000
0.254396 0.251750 0.000000
0.286011 0.251812 0.000000
0.317606 0.251875 0.000000
0.349181 0.251938 0.000000
0.380736 0.252000 0.000000
0.412272 0.252062 0.000000
0.443787 0.275090 0.053168
0.475282 0.278940 0.056987
0.506757 0.282790 0.060809
0.538375 0.286640 0.064605
0.570000 0.290490 0.068400
0.601625 0.294340 0.072195
0.633250 0.298190 0.075990
0.664875 0.302040 0.079785
0.696500 0.305890 0.083580
0.728125 0.309740 0.087375
0.759750 0.313590 0.091170
0.791375 0.317440 0.094965
0.823000 0.321290 0.098760
0.854625 0.325140 0.102555
0.886250 0.328990 0.106350
0.917875 0.332840 0.110145
0.949500 0.336690 0.113940
0.981125 0.340540 0.117735
1.000000 0.342860 0.120000
0.029129 0.282656 0.008965
0.059947 0.282719 0.008730
0.090745 0.282781 0.008495
0.121512 0.282844 0.008441
0.152254 0.282906 0.008447
0.159426 0.282969 0.000000
0.191082 0.283031 0.000000
0.222718 0.283094 0.000000
0.254334 0.283156 0.000000
0.285929 0.283219 0.000000
0.317505 0.283281 0.000000
0.349061 0.283344 0.000000
0.380596 0.283406 0.000000
0.412112 0.283469 0.000000
0.443608 0.283531 0.000000
0.475219 0.306589 0.057026
0.506844 0.310439 0.060821
0.538469 0.314289 0.064616
0.570094 0.318139 0.068411
0.601719 0.321989 0.072206
0.633344 0.325839 0.076001
0.664969 0.329689 0.079796
0.696594 0.333539 0.083591
0.728219 0.337389 0.087386
0.759844 0.341239 0.091181
0.791469 0.345089 0.094976
0.823094 0.348939 0.098771
0.854719 0.352789 0.102566
0.886344 0.356639 0.106361
0.917969 0.360489 0.110156
0.949594 0.364339 0.113951
0.981219 0.368189 0.117746
1.000000 0.370497 0.120000
0.032346 0.314063 0.009970
0.063144 0.314125 0.009736
0.093922 0.314187 0.009501
0.124673 0.314250 0.009387
0.155395 0.314312 0.009393
0.159423 0.314375 0.000000
0.191059 0.314438 0.000000
0.222675 0.314500 0.000000
0.254271 0.314562 0.000000
0.285847 0.314625 0.000000
0.317404 0.314687 0.000000
0.348940 0.314750 0.000000
0.380456 0.314813 0.000000
0.412062 0.314875 0.000000
0.443687 0.314938 0.000000
0.475313 0.315000 0.000000
0.506938 0.315062 0.000000
0.538562 0.341938 0.064627
0.570188 0.345787 0.068422
0.601812 0.349638 0.072218
0.633438 0.353487 0.076012
0.665062 0.357338 0.079807
0.696688 0.361187 0.083603
0.728312 0.365038 0.087398
0.759938 0.368888 0.091192
0.791562 0.372737 0.094987
0.823187 0.376588 0.098783
0.854813 0.380437 0.102578
0.886437 0.384288 0.106372
0.918063 0.388137 0.110168
0.949687 0.391988 0.113963
0.981313 0.395837 0.117757
1.000000 0.398135 0.120000
0.035558 0.345469 0.010978
0.066336 0.345531 0.010743
0.097095 0.345594 0.010509
0.127830 0.345656 0.010334
0.158533 0.345719 0.010341
0.189216 0.345781 0.010348
0.191035 0.345844 0.000000
0.222632 0.345906 0.000000
0.254209 0.345969 0.000000
0.285765 0.346031 0.000000
0.317302 0.346094 0.000000
0.348906 0.346156 0.000000
0.380531 0.346219 0.000000
0.412156 0.346281 0.000000
0.443781 0.346344 0.000000
0.475406 0.346406 0.000000
0.507031 0.346469 0.000000
0.538656 0.346531 0.000000
0.570281 0.346594 0.000000
0.601906 0.377286 0.072229
0.633531 0.381136 0.076024
0.665156 0.384986 0.079819
0.696781 0.388836 0.083614
0.728406 0.392686 0.087409
0.760031 0.396536 0.091204
0.791656 0.400386 0.094999
0.823281 0.404236 0.098794
0.854906 0.408086 0.102589
0.886531 0.411936 0.106384
0.918156 0.415786 0.110179
0.949781 0.419636 0.113974
0.981406 0.423486 0.117769
1.000000 0.425772 0.120000
0.038767 0.376875 0.011987
0.069525 0.376938 0.011753
0.100264 0.377000 0.011518
0.130984 0.377062 0.011284
0.161666 0.377125 0.011291
0.192329 0.377187 0.011298
0.191012 0.377250 0.000000
0.222589 0.377313 0.000000
0.254146 0.377375 0.000000
0.285750 0.377438 0.000000
0.317375 0.377500 0.000000
0.349000 0.377562 0.000000
0.380625 0.377625 0.000000
0.412250 0.377688 0.000000
0.443875 0.377750 0.000000
0.475500 0.377813 0.000000
0.507125 0.377875 0.000000
0.538750 0.377937 0.000000
0.570375 0.378000 0.000000
0.602000 0.378062 0.000000
0.633625 0.408785 0.076035
0.665250 0.412635 0.079830
0.696875 0.416485 0.083625
0.728500 0.420335 0.087420
0.760125 0.424185 0.091215
0.791750 0.428035 0.095010
0.823375 0.431885 0.098805
0.855000 0.435735 0.102600
0.886625 0.439585 0.106395
0.918250 0.443435 0.110190
0.949875 0.447285 0.113985
0.981500 0.451135 0.117780
1.000000 0.453410 0.120000
0.041972 0.408281 0.012998
0.072710 0.408344 0.012764
0.103429 0.408406 0.012530
0.134129 0.408469 0.012295
0.164796 0.408531 0.012242
0.195439 0.408594 0.012250
0.226063 0.408656 0.012258
0.222594 0.408719 0.000000
0.254219 0.408781 0.000000
0.285844 0.408844 0.000000
0.317469 0.408906 0.000000
0.349094 0.408969 0.000000
0.380719 0.409031 0.000000
0.412344 0.409094 0.000000
0.443969 0.409156 0.000000
0.475594 0.409219 0.000000
0.507219 0.409281 0.000000
0.538844 0.409344 0.000000
0.570469 0.409406 0.000000
0.602094 0.409469 0.000000
0.633719 0.409531 0.000000
0.665344 0.409594 0.000000
0.696969 0.444134 0.083636
0.728594 0.447984 0.087431
0.760219 0.451834 0.091226
0.791844 0.455684 0.095021
0.823469 0.459534 0.098816
0.855094 0.463384 0.102611
0.886719 0.467234 0.106406
0.918344 0.471084 0.110201
0.949969 0.474934 0.113996
0.981594 0.478784 0.117791
1.000000 0.481048 0.120000
0.045173 0.439687 0.014010
0.075891 0.439750 0.013777
0.106590 0.439813 0.013543
0.137270 0.439875 0.013309
0.167921 0.439938 0.013196
0.198584 0.440000 0.013200
0.229266 0.440062 0.013202
0.222687 0.440125 0.000000
0.254312 0.440188 0.000000
0.285937 0.440250 0.000000
0.317562 0.440313 0.000000
0.349187 0.440375 0.000000
0.380812 0.440437 0.000000
0.412437 0.440500 0.000000
0.444063 0.440562 0.000000
0.475688 0.440625 0.000000
0.507312 0.440688 0.000000
0.538938 0.440750 0.000000
0.570562 0.440812 0.000000
0.602188 0.440875 0.000000
0.633812 0.440937 0.000000
0.665438 0.441000 0.000000
0.697062 0.441063 0.000000
0.728688 0.441125 0.000000
0.760312 0.479483 0.091238
0.791937 0.483333 0.095032
0.823563 0.487182 0.098828
0.855187 0.491033 0.102623
0.886813 0.494882 0.106417
0.918437 0.498733 0.110212
0.950063 0.502582 0.114008
0.981687 0.506432 0.117803
1.000000 0.508685 0.120000
0.048370 0.471094 0.015025
0.079068 0.471156 0.014792
0.109747 0.471219 0.014558
0.140432 0.471281 0.014320
0.171128 0.471344 0.014140
0.201811 0.471406 0.014142
0.232493 0.471469 0.014144
0.263175 0.471531 0.014146
0.254406 0.471594 0.000000
0.286031 0.471656 0.000000
0.317656 0.471719 0.000000
0.349281 0.471781 0.000000
0.380906 0.471844 0.000000
0.412531 0.471906 0.000000
0.444156 0.471969 0.000000
0.475781 0.472031 0.000000
0.507406 0.472094 0.000000
0.539031 0.472156 0.000000
0.570656 0.472219 0.000000
0.602281 0.472281 0.000000
0.633906 0.472344 0.000000
0.665531 0.472406 0.000000
0.697156 0.472469 0.000000
0.728781 0.472531 0.000000
0.760406 0.472594 0.000000
0.792031 0.510981 0.095044
0.823656 0.514831 0.098839
0.855281 0.518681 0.102634
0.886906 0.522531 0.106429
0.918531 0.526381 0.110224
0.950156 0.530231 0.114019
0.981781 0.534081 0.117814
1.000000 0.536322 0.120000
0.051562 0.502500 0.016041
0.082255 0.502563 0.015804
0.112955 0.502625 0.015564
0.143655 0.502688 0.015323
0.174355 0.502750 0.015082
0.205037 0.502813 0.015084
0.235720 0.502875 0.015086
0.266402 0.502937 0.015088
0.254500 0.503000 0.000000
0.286125 0.503062 0.000000
0.317750 0.503125 0.000000
0.349375 0.503187 0.000000
0.381000 0.503250 0.000000
0.412625 0.503313 0.000000
0.444250 0.503375 0.000000
0.475875 0.503438 0.000000
0.507500 0.503500 0.000000
0.539125 0.503563 0.000000
0.570750 0.503625 0.000000
0.602375 0.503688 0.000000
0.634000 0.503750 0.000000
0.665625 0.503812 0.000000
0.697250 0.503875 0.000000
0.728875 0.503937 0.000000
0.760500 0.504000 0.000000
0.792125 0.504062 0.000000
0.823750 0.504125 0.000000
0.855375 0.546330 0.102645
0.887000 0.550180 0.106440
0.918625 0.554030 0.110235
0.950250 0.557880 0.114030
0.981875 0.561730 0.117825
1.000000 0.563960 0.120000
0.054777 0.533906 0.017048
0.085477 0.533969 0.016807
0.116177 0.534031 0.016567
0.146877 0.534094 0.016326
0.177577 0.534156 0.016085
0.208264 0.534219 0.016027
0.238946 0.534281 0.016028
0.269629 0.534344 0.016030
0.300311 0.534406 0.016032
0.286219 0.534469 0.000000
0.317844 0.534531 0.000000
0.349469 0.534594 0.000000
0.381094 0.534656 0.000000
0.412719 0.534719 0.000000
0.444344 0.534781 0.000000
0.475969 0.534844 0.000000
0.507594 0.534906 0.000000
0.539219 0.534969 0.000000
0.570844 0.535031 0.000000
0.602469 0.535094 0.000000
0.634094 0.535156 0.000000
0.665719 0.535219 0.000000
0.697344 0.535281 0.000000
0.728969 0.535344 0.000000
0.760594 0.535406 0.000000
0.792219 0.535469 0.000000
0.823844 0.535531 0.000000
0.855469 0.535594 0.000000
0.887094 0.535656 0.000000
0.918719 0.581679 0.110246
0.950344 0.585529 0.114041
0.981969 0.589379 0.117836
1.000000 0.591597 0.120000
0.057999 0.565313 0.018051
0.088699 0.565375 0.017810
0.119399 0.565437 0.017569
0.150099 0.565500 0.017329
0.180799 0.565562 0.017088
0.211490 0.565625 0.016969
0.242173 0.565687 0.016971
0.272855 0.565750 0.016973
0.303538 0.565813 0.016974
0.286312 0.565875 0.000000
0.317937 0.565938 0.000000
0.349562 0.566000 0.000000
0.381187 0.566063 0.000000
0.412813 0.566125 0.000000
0.444438 0.566188 0.000000
0.476063 0.566250 0.000000
0.507688 0.566312 0.000000
0.539312 0.566375 0.000000
0.570938 0.566437 0.000000
0.602562 0.566500 0.000000
0.634188 0.566562 0.000000
0.665812 0.566625 0.000000
0.697438 0.566688 0.000000
0.729062 0.566750 0.000000
0.760687 0.566813 0.000000
0.792313 0.566875 0.000000
0.823937 0.566938 0.000000
0.855563 0.567000 0.000000
0.887187 0.567062 0.000000
0.918813 0.567125 0.000000
0.950437 0.613177 0.114052
0.982063 0.617028 0.117848
1.000000 0.619235 0.120000
0.061221 0.596719 0.019053
0.091921 0.596781 0.018813
0.122621 0.596844 0.018572
0.153321 0.596906 0.018332
0.184021 0.596969 0.018091
0.214717 0.597031 0.017911
0.245399 0.597094 0.017913
0.276082 0.597156 0.017915
0.306764 0.597219 0.017917
0.337447 0.597281 0.017918
0.318031 0.597344 0.000000
0.349656 0.597406 0.000000
0.381281 0.597469 0.000000
0.412906 0.597531 0.000000
0.444531 0.597594 0.000000
0.476156 0.597656 0.000000
0.507781 0.597719 0.000000
0.539406 0.597781 0.000000
0.571031 0.597844 0.000000
0.602656 0.597906 0.000000
0.634281 0.597969 0.000000
0.665906 0.598031 0.000000
0.697531 0.598094 0.000000
0.729156 0.598156 0.000000
0.760781 0.598219 0.000000
0.792406 0.598281 0.000000
0.824031 0.598344 0.000000
0.855656 0.598406 0.000000
0.887281 0.598469 0.000000
0.918906 0.598531 0.000000
0.950531 0.598594 0.000000
0.982156 0.598656 0.000000
1.000000 0.646873 0.120000
0.064443 0.628125 0.020056
0.095143 0.628187 0.019816
0.125843 0.628250 0.019575
0.156543 0.628313 0.019334
0.187243 0.628375 0.019094
0.217943 0.628438 0.018853
0.248626 0.628500 0.018855
0.279308 0.628563 0.018857
0.309991 0.628625 0.018859
0.340673 0.628688 0.018861
0.318125 0.628750 0.000000
0.349750 0.628812 0.000000
0.381375 0.628875 0.000000
0.413000 0.628937 0.000000
0.444625 0.629000 0.000000
0.476250 0.629062 0.000000
0.507875 0.629125 0.000000
0.539500 0.629188 0.000000
0.571125 0.629250 0.000000
0.602750 0.629313 0.000000
0.634375 0.629375 0.000000
0.666000 0.629438 0.000000
0.697625 0.629500 0.000000
0.729250 0.629562 0.000000
0.760875 0.629625 0.000000
0.792500 0.629687 0.000000
0.824125 0.629750 0.000000
0.855750 0.629812 0.000000
0.887375 0.629875 0.000000
0.919000 0.629938 0.000000
0.950625 0.630000 0.000000
0.982250 0.630063 0.000000
1.000000 0.630125 0.000000
0.067666 0.659531 0.021059
0.098366 0.659594 0.020818
0.129066 0.659656 0.020578
0.159765 0.659719 0.020337
0.190465 0.659781 0.020097
0.221165 0.659844 0.019856
0.251852 0.659906 0.019797
0.282535 0.659969 0.019799
0.313217 0.660031 0.019801
0.343900 0.660094 0.019803
0.374582 0.660156 0.019805
0.349844 0.660219 0.000000
0.381469 0.660281 0.000000
0.413094 0.660344 0.000000
0.444719 0.660406 0.000000
0.476344 0.660469 0.000000
0.507969 0.660531 0.000000
0.539594 0.660594 0.000000
0.571219 0.660656 0.000000
0.602844 0.660719 0.000000
0.634469 0.660781 0.000000
0.666094 0.660844 0.000000
0.697719 0.660906 0.000000
0.729344 0.660969 0.000000
0.760969 0.661031 0.000000
0.792594 0.661094 0.000000
0.824219 0.661156 0.000000
0.855844 0.661219 0.000000
0.887469 0.661281 0.000000
0.919094 0.661344 0.000000
0.950719 0.661406 0.000000
0.982344 0.661469 0.000000
1.000000 0.661531 0.000000
0.070888 0.690938 0.022062
0.101588 0.691000 0.021821
0.132288 0.691063 0.021581
0.162988 0.691125 0.021340
0.193688 0.691188 0.021099
0.224388 0.691250 0.020859
0.255079 0.691312 0.020739
0.285761 0.691375 0.020741
0.316444 0.691437 0.020743
0.347126 0.691500 0.020745
0.377809 0.691562 0.020747
0.349937 0.691625 0.000000
0.381563 0.691688 0.000000
0.413188 0.691750 0.000000
0.444813 0.691813 0.000000
0.476438 0.691875 0.000000
0.508062 0.691938 0.000000
0.539688 0.692000 0.000000
0.571312 0.692062 0.000000
0.602938 0.692125 0.000000
0.634562 0.692187 0.000000
0.666188 0.692250 0.000000
0.697812 0.692312 0.000000
0.729437 0.692375 0.000000
0.761063 0.692438 0.000000
0.792687 0.692500 0.000000
0.824313 0.692563 0.000000
0.855937 0.692625 0.000000
0.887563 0.692688 0.000000
0.919187 0.692750 0.000000
0.950813 0.692813 0.000000
0.982437 0.692875 0.000000
1.000000 0.692937 0.000000
0.074110 0.722344 0.023065
0.104810 0.722406 0.022824
0.135510 0.722469 0.022583
0.166210 0.722531 0.022343
0.196910 0.722594 0.022102
0.227610 0.722656 0.021862
0.258305 0.722719 0.021682
0.288988 0.722781 0.021683
0.319670 0.722844 0.021685
0.350353 0.722906 0.021687
0.381035 0.722969 0.021689
0.411718 0.723031 0.021691
0.381656 0.723094 0.000000
0.413281 0.723156 0.000000
0.444906 0.723219 0.000000
0.476531 0.723281 0.000000
0.508156 0.723344 0.000000
0.539781 0.723406 0.000000
0.571406 0.723469 0.000000
0.603031 0.723531 0.000000
0.634656 0.723594 0.000000
0.666281 0.723656 0.000000
0.697906 0.723719 0.000000
0.729531 0.723781 0.000000
0.761156 0.723844 0.000000
0.792781 0.723906 0.000000
0.824406 0.723969 0.000000
0.856031 0.724031 0.000000
0.887656 0.724094 0.000000
0.919281 0.724156 0.000000
0.950906 0.724219 0.000000
0.982531 0.724281 0.000000
1.000000 0.724344 0.000000
0.077332 0.753750 0.024068
0.108032 0.753812 0.023827
0.138732 0.753875 0.023586
0.169432 0.753937 0.023346
0.200132 0.754000 0.023105
0.230832 0.754062 0.022864
0.261532 0.754125 0.022624
0.292214 0.754188 0.022626
0.322897 0.754250 0.022628
0.353579 0.754313 0.022629
0.384262 0.754375 0.022631
0.414944 0.754438 0.022633
0.381750 0.754500 0.000000
0.413375 0.754562 0.000000
0.445000 0.754625 0.000000
0.476625 0.754687 0.000000
0.508250 0.754750 0.000000
0.539875 0.754812 0.000000
0.571500 0.754875 0.000000
0.603125 0.754938 0.000000
0.634750 0.755000 0.000000
0.666375 0.755063 0.000000
0.698000 0.755125 0.000000
0.729625 0.755188 0.000000
0.761250 0.755250 0.000000
0.792875 0.755313 0.000000
0.824500 0.755375 0.000000
0.856125 0.755437 0.000000
0.887750 0.755500 0.000000
0.919375 0.755562 0.000000
0.951000 0.755625 0.000000
0.982625 0.755687 0.000000
1.000000 0.755750 0.000000
0.080554 0.785156 0.025070
0.111254 0.785219 0.024830
0.141954 0.785281 0.024589
0.172654 0.785344 0.024348
0.203354 0.785406 0.024108
0.234054 0.785469 0.023867
0.264754 0.785531 0.023627
0.295441 0.785594 0.023568
0.326123 0.785656 0.023570
0.356806 0.785719 0.023572
0.387488 0.785781 0.023573
0.418171 0.785844 0.023575
0.448853 0.785906 0.023577
0.413469 0.785969 0.000000
0.445094 0.786031 0.000000
0.476719 0.786094 0.000000
0.508344 0.786156 0.000000
0.539969 0.786219 0.000000
0.571594 0.786281 0.000000
0.603219 0.786344 0.000000
0.634844 0.786406 0.000000
0.666469 0.786469 0.000000
0.698094 0.786531 0.000000
0.729719 0.786594 0.000000
0.761344 0.786656 0.000000
0.792969 0.786719 0.000000
0.824594 0.786781 0.000000
0.856219 0.786844 0.000000
0.887844 0.786906 0.000000
0.919469 0.786969 0.000000
0.951094 0.787031 0.000000
0.982719 0.787094 0.000000
1.000000 0.787156 0.000000
0.083776 0.816562 0.026073
0.114476 0.816625 0.025833
0.145176 0.816688 0.025592
0.175876 0.816750 0.025351
0.206576 0.816813 0.025111
0.237276 0.816875 0.024870
0.267976 0.816938 0.024629
0.298667 0.817000 0.024510
0.329350 0.817062 0.024512
0.360032 0.817125 0.024514
0.390715 0.817187 0.024516
0.421397 0.817250 0.024518
0.452080 0.817312 0.024519
0.413563 0.817375 0.000000
0.445188 0.817438 0.000000
0.476813 0.817500 0.000000
0.508438 0.817563 0.000000
0.540062 0.817625 0.000000
0.571688 0.817688 0.000000
0.603312 0.817750 0.000000
0.634938 0.817813 0.000000
0.666562 0.817875 0.000000
