Resources/LUTs/Kodak_Tri-X_400_Orange_Linear.cube
# Kodak Tri-X 400 Black & White Film Emulation
# Generated with spectral sensitivity and characteristic curve data
# 
# Spectral Weights: R=0.18, G=0.52, B=0.3
# Contrast: High (Tri-X signature)
# 
TITLE "Kodak Tri-X 400 + Orange Filter"
LUT_3D_SIZE 33
DOMAIN_MIN 0.0 0.0 0.0
DOMAIN_MAX 1.0 1.0 1.0
0.015000 0.015000 0.015000
0.015390 0.015390 0.015390
0.015831 0.015831 0.015831
0.016463 0.016463 0.016463
0.017312 0.017312 0.017312
0.018395 0.018395 0.018395
0.019727 0.019727 0.019727
0.021324 0.021324 0.021324
0.023197 0.023197 0.023197
0.026519 0.026519 0.026519
0.032132 0.032132 0.032132
0.036920 0.036920 0.036920
0.041584 0.041584 0.041584
0.046280 0.046280 0.046280
0.051072 0.051072 0.051072
0.055993 0.055993 0.055993
0.061061 0.061061 0.061061
0.066291 0.066291 0.066291
0.071689 0.071689 0.071689
0.077260 0.077260 0.077260
0.083009 0.083009 0.083009
0.088938 0.088938 0.088938
0.095048 0.095048 0.095048
0.103547 0.103547 0.103547
0.121156 0.121156 0.121156
0.140072 0.140072 0.140072
0.160363 0.160363 0.160363
0.182103 0.182103 0.182103
0.205367 0.205367 0.205367
0.230234 0.230234 0.230234
0.256788 0.256788 0.256788
0.285118 0.285118 0.285118
0.315316 0.315316 0.315316
0.015585 0.015585 0.015585
0.015974 0.015974 0.015974
0.016415 0.016415 0.016415
0.017047 0.017047 0.017047
0.017896 0.017896 0.017896
0.018979 0.018979 0.018979
0.020312 0.020312 0.020312
0.021908 0.021908 0.021908
0.023781 0.023781 0.023781
0.028136 0.028136 0.028136
0.033214 0.033214 0.033214
0.037842 0.037842 0.037842
0.042414 0.042414 0.042414
0.047046 0.047046 0.047046
0.051788 0.051788 0.051788
0.056669 0.056669 0.056669
0.061705 0.061705 0.061705
0.066907 0.066907 0.066907
0.072280 0.072280 0.072280
0.077830 0.077830 0.077830
0.083559 0.083559 0.083559
0.089470 0.089470 0.089470
0.095564 0.095564 0.095564
0.104885 0.104885 0.104885
0.122517 0.122517 0.122517
0.141457 0.141457 0.141457
0.161774 0.161774 0.161774
0.183540 0.183540 0.183540
0.206832 0.206832 0.206832
0.231728 0.231728 0.231728
0.258314 0.258314 0.258314
0.286676 0.286676 0.286676
0.316907 0.316907 0.316907
0.016246 0.016246 0.016246
0.016636 0.016636 0.016636
0.017077 0.017077 0.017077
0.017709 0.017709 0.017709
0.018558 0.018558 0.018558
0.019641 0.019641 0.019641
0.020973 0.020973 0.020973
0.022570 0.022570 0.022570
0.024443 0.024443 0.024443
0.029671 0.029671 0.029671
0.034383 0.034383 0.034383
0.038859 0.038859 0.038859
0.043337 0.043337 0.043337
0.047901 0.047901 0.047901
0.052591 0.052591 0.052591
0.057429 0.057429 0.057429
0.062429 0.062429 0.062429
0.067600 0.067600 0.067600
0.072946 0.072946 0.072946
0.078472 0.078472 0.078472
0.084180 0.084180 0.084180
0.090072 0.090072 0.090072
0.096148 0.096148 0.096148
0.106401 0.106401 0.106401
0.124059 0.124059 0.124059
0.143026 0.143026 0.143026
0.163372 0.163372 0.163372
0.185169 0.185169 0.185169
0.208492 0.208492 0.208492
0.233422 0.233422 0.233422
0.260042 0.260042 0.260042
0.288441 0.288441 0.288441
0.318710 0.318710 0.318710
0.017194 0.017194 0.017194
0.017584 0.017584 0.017584
0.018025 0.018025 0.018025
0.018657 0.018657 0.018657
0.019506 0.019506 0.019506
0.020589 0.020589 0.020589
0.021922 0.021922 0.021922
0.023518 0.023518 0.023518
0.026620 0.026620 0.026620
0.031617 0.031617 0.031617
0.035981 0.035981 0.035981
0.040277 0.040277 0.040277
0.044635 0.044635 0.044635
0.049109 0.049109 0.049109
0.053729 0.053729 0.053729
0.058509 0.058509 0.058509
0.063459 0.063459 0.063459
0.068587 0.068587 0.068587
0.073896 0.073896 0.073896
0.079388 0.079388 0.079388
0.085066 0.085066 0.085066
0.090930 0.090930 0.090930
0.096981 0.096981 0.096981
0.108580 0.108580 0.108580
0.126274 0.126274 0.126274
0.145281 0.145281 0.145281
0.165668 0.165668 0.165668
0.187508 0.187508 0.187508
0.210877 0.210877 0.210877
0.235854 0.235854 0.235854
0.262524 0.262524 0.262524
0.290975 0.290975 0.290975
0.321299 0.321299 0.321299
0.018468 0.018468 0.018468
0.018858 0.018858 0.018858
0.019299 0.019299 0.019299
0.019931 0.019931 0.019931
0.020780 0.020780 0.020780
0.021863 0.021863 0.021863
0.023195 0.023195 0.023195
0.024792 0.024792 0.024792
0.029801 0.029801 0.029801
0.033964 0.033964 0.033964
0.038012 0.038012 0.038012
0.042114 0.042114 0.042114
0.046333 0.046333 0.046333
0.050701 0.050701 0.050701
0.055233 0.055233 0.055233
0.059940 0.059940 0.059940
0.064828 0.064828 0.064828
0.069901 0.069901 0.069901
0.075161 0.075161 0.075161
0.080610 0.080610 0.080610
0.086249 0.086249 0.086249
0.092077 0.092077 0.092077
0.098096 0.098096 0.098096
0.111512 0.111512 0.111512
0.129256 0.129256 0.129256
0.148315 0.148315 0.148315
0.168758 0.168758 0.168758
0.190656 0.190656 0.190656
0.214086 0.214086 0.214086
0.239128 0.239128 0.239128
0.265865 0.265865 0.265865
0.294386 0.294386 0.294386
0.324783 0.324783 0.324783
0.020092 0.020092 0.020092
0.020482 0.020482 0.020482
0.020923 0.020923 0.020923
0.021555 0.021555 0.021555
0.022404 0.022404 0.022404
0.023487 0.023487 0.023487
0.024820 0.024820 0.024820
0.029253 0.029253 0.029253
0.033002 0.033002 0.033002
0.036688 0.036688 0.036688
0.040459 0.040459 0.040459
0.044366 0.044366 0.044366
0.048437 0.048437 0.048437
0.052685 0.052685 0.052685
0.057117 0.057117 0.057117
0.061738 0.061738 0.061738
0.066552 0.066552 0.066552
0.071559 0.071559 0.071559
0.076760 0.076760 0.076760
0.082156 0.082156 0.082156
0.087747 0.087747 0.087747
0.093531 0.093531 0.093531
0.099509 0.099509 0.099509
0.115264 0.115264 0.115264
0.133072 0.133072 0.133072
0.152198 0.152198 0.152198
0.172711 0.172711 0.172711
0.194684 0.194684 0.194684
0.218192 0.218192 0.218192
0.243315 0.243315 0.243315
0.270138 0.270138 0.270138
0.298748 0.298748 0.298748
0.329238 0.329238 0.329238
0.022091 0.022091 0.022091
0.022481 0.022481 0.022481
0.022922 0.022922 0.022922
0.023554 0.023554 0.023554
0.024403 0.024403 0.024403
0.026907 0.026907 0.026907
0.030131 0.030131 0.030131
0.033230 0.033230 0.033230
0.036425 0.036425 0.036425
0.039774 0.039774 0.039774
0.043303 0.043303 0.043303
0.047024 0.047024 0.047024
0.050942 0.050942 0.050942
0.055063 0.055063 0.055063
0.059385 0.059385 0.059385
0.063911 0.063911 0.063911
0.068641 0.068641 0.068641
0.073572 0.073572 0.073572
0.078706 0.078706 0.078706
0.084040 0.084040 0.084040
0.089574 0.089574 0.089574
0.095306 0.095306 0.095306
0.103271 0.103271 0.103271
0.119900 0.119900 0.119900
0.137786 0.137786 0.137786
0.156994 0.156994 0.156994
0.177594 0.177594 0.177594
0.199658 0.199658 0.199658
0.223262 0.223262 0.223262
0.248486 0.248486 0.248486
0.275414 0.275414 0.275414
0.304134 0.304134 0.304134
0.334739 0.334739 0.334739
0.024486 0.024486 0.024486
0.024875 0.024875 0.024875
0.026381 0.026381 0.026381
0.028149 0.028149 0.028149
0.030086 0.030086 0.030086
0.032244 0.032244 0.032244
0.034634 0.034634 0.034634
0.037259 0.037259 0.037259
0.040118 0.040118 0.040118
0.043208 0.043208 0.043208
0.046527 0.046527 0.046527
0.050073 0.050073 0.050073
0.053842 0.053842 0.053842
0.057831 0.057831 0.057831
0.062039 0.062039 0.062039
0.066463 0.066463 0.066463
0.071100 0.071100 0.071100
0.075948 0.075948 0.075948
0.081005 0.081005 0.081005
0.086270 0.086270 0.086270
0.091740 0.091740 0.091740
0.097413 0.097413 0.097413
0.108762 0.108762 0.108762
0.125479 0.125479 0.125479
0.143459 0.143459 0.143459
0.162766 0.162766 0.162766
0.183470 0.183470 0.183470
0.205644 0.205644 0.205644
0.229363 0.229363 0.229363
0.254707 0.254707 0.254707
0.281761 0.281761 0.281761
0.310613 0.310613 0.310613
0.341355 0.341355 0.341355
0.031109 0.031109 0.031109
0.031872 0.031872 0.031872
0.032702 0.032702 0.032702
0.033843 0.033843 0.033843
0.035302 0.035302 0.035302
0.037070 0.037070 0.037070
0.039133 0.039133 0.039133
0.041480 0.041480 0.041480
0.044099 0.044099 0.044099
0.046981 0.046981 0.046981
0.050117 0.050117 0.050117
0.053500 0.053500 0.053500
0.057124 0.057124 0.057124
0.060984 0.060984 0.060984
0.065074 0.065074 0.065074
0.069391 0.069391 0.069391
0.073931 0.073931 0.073931
0.078689 0.078689 0.078689
0.083664 0.083664 0.083664
0.088853 0.088853 0.088853
0.094252 0.094252 0.094252
0.099859 0.099859 0.099859
0.115243 0.115243 0.115243
0.132064 0.132064 0.132064
0.150153 0.150153 0.150153
0.169577 0.169577 0.169577
0.190403 0.190403 0.190403
0.212705 0.212705 0.212705
0.236558 0.236558 0.236558
0.262044 0.262044 0.262044
0.289246 0.289246 0.289246
0.318253 0.318253 0.318253
0.349157 0.349157 0.349157
0.036828 0.036828 0.036828
0.037447 0.037447 0.037447
0.038135 0.038135 0.038135
0.039101 0.039101 0.039101
0.040365 0.040365 0.040365
0.041929 0.041929 0.041929
0.043790 0.043790 0.043790
0.045941 0.045941 0.045941
0.048375 0.048375 0.048375
0.051083 0.051083 0.051083
0.054059 0.054059 0.054059
0.057293 0.057293 0.057293
0.060780 0.060780 0.060780
0.064512 0.064512 0.064512
0.068485 0.068485 0.068485
0.072693 0.072693 0.072693
0.077132 0.077132 0.077132
0.081797 0.081797 0.081797
0.086685 0.086685 0.086685
0.091792 0.091792 0.091792
0.097114 0.097114 0.097114
0.107048 0.107048 0.107048
0.122775 0.122775 0.122775
0.139715 0.139715 0.139715
0.157931 0.157931 0.157931
0.177488 0.177488 0.177488
0.198456 0.198456 0.198456
0.220906 0.220906 0.220906
0.244915 0.244915 0.244915
0.270564 0.270564 0.270564
0.297937 0.297937 0.297937
0.327122 0.327122 0.327122
0.358212 0.358212 0.358212
0.042352 0.042352 0.042352
0.042899 0.042899 0.042899
0.043510 0.043510 0.043510
0.044376 0.044376 0.044376
0.045519 0.045519 0.045519
0.046946 0.046946 0.046946
0.048661 0.048661 0.048661
0.050662 0.050662 0.050662
0.052947 0.052947 0.052947
0.055508 0.055508 0.055508
0.058342 0.058342 0.058342
0.061440 0.061440 0.061440
0.064797 0.064797 0.064797
0.068408 0.068408 0.068408
0.072265 0.072265 0.072265
0.076365 0.076365 0.076365
0.080701 0.080701 0.080701
0.085269 0.085269 0.085269
0.090066 0.090066 0.090066
0.095087 0.095087 0.095087
0.100869 0.100869 0.100869
0.115563 0.115563 0.115563
0.131419 0.131419 0.131419
0.148496 0.148496 0.148496
0.166856 0.166856 0.166856
0.186566 0.186566 0.186566
0.207693 0.207693 0.207693
0.230312 0.230312 0.230312
0.254499 0.254499 0.254499
0.280334 0.280334 0.280334
0.307901 0.307901 0.307901
0.337289 0.337289 0.337289
0.368592 0.368592 0.368592
0.047937 0.047937 0.047937
0.048436 0.048436 0.048436
0.048996 0.048996 0.048996
0.049792 0.049792 0.049792
0.050847 0.050847 0.050847
0.052173 0.052173 0.052173
0.053775 0.053775 0.053775
0.055655 0.055655 0.055655
0.057815 0.057815 0.057815
0.060250 0.060250 0.060250
0.062957 0.062957 0.062957
0.065931 0.065931 0.065931
0.069167 0.069167 0.069167
0.072661 0.072661 0.072661
0.076406 0.076406 0.076406
0.080398 0.080398 0.080398
0.084632 0.084632 0.084632
0.089103 0.089103 0.089103
0.093806 0.093806 0.093806
0.098739 0.098739 0.098739
0.110409 0.110409 0.110409
0.125239 0.125239 0.125239
0.141240 0.141240 0.141240
0.158470 0.158470 0.158470
0.176993 0.176993 0.176993
0.196874 0.196874 0.196874
0.218183 0.218183 0.218183
0.240992 0.240992 0.240992
0.265379 0.265379 0.265379
0.291423 0.291423 0.291423
0.319209 0.319209 0.319209
0.348826 0.348826 0.348826
0.380368 0.380368 0.380368
0.053675 0.053675 0.053675
0.054138 0.054138 0.054138
0.054660 0.054660 0.054660
0.055402 0.055402 0.055402
0.056390 0.056390 0.056390
0.057634 0.057634 0.057634
0.059145 0.059145 0.059145
0.060925 0.060925 0.060925
0.062977 0.062977 0.062977
0.065301 0.065301 0.065301
0.067895 0.067895 0.067895
0.070756 0.070756 0.070756
0.073880 0.073880 0.073880
0.077263 0.077263 0.077263
0.080900 0.080900 0.080900
0.084787 0.084787 0.084787
0.088919 0.088919 0.088919
0.093292 0.093292 0.093292
0.097902 0.097902 0.097902
0.107302 0.107302 0.107302
0.121160 0.121160 0.121160
0.136142 0.136142 0.136142
0.152305 0.152305 0.152305
0.169707 0.169707 0.169707
0.188411 0.188411 0.188411
0.208484 0.208484 0.208484
0.229994 0.229994 0.229994
0.253016 0.253016 0.253016
0.277625 0.277625 0.277625
0.303903 0.303903 0.303903
0.331934 0.331934 0.331934
0.361807 0.361807 0.361807
0.393615 0.393615 0.393615
0.059609 0.059609 0.059609
0.060045 0.060045 0.060045
0.060535 0.060535 0.060535
0.061235 0.061235 0.061235
0.062167 0.062167 0.062167
0.063345 0.063345 0.063345
0.064779 0.064779 0.064779
0.066473 0.066473 0.066473
0.068433 0.068433 0.068433
0.070659 0.070659 0.070659
0.073151 0.073151 0.073151
0.075908 0.075908 0.075908
0.078927 0.078927 0.078927
0.082205 0.082205 0.082205
0.085739 0.085739 0.085739
0.089524 0.089524 0.089524
0.093557 0.093557 0.093557
0.097833 0.097833 0.097833
0.106240 0.106240 0.106240
0.119176 0.119176 0.119176
0.133192 0.133192 0.133192
0.148343 0.148343 0.148343
0.164684 0.164684 0.164684
0.182276 0.182276 0.182276
0.201181 0.201181 0.201181
0.221466 0.221466 0.221466
0.243200 0.243200 0.243200
0.266456 0.266456 0.266456
0.291313 0.291313 0.291313
0.317849 0.317849 0.317849
0.346150 0.346150 0.346150
0.376306 0.376306 0.376306
0.408409 0.408409 0.408409
0.065764 0.065764 0.065764
0.066177 0.066177 0.066177
0.066642 0.066642 0.066642
0.067306 0.067306 0.067306
0.068192 0.068192 0.068192
0.069314 0.069314 0.069314
0.070681 0.070681 0.070681
0.072301 0.072301 0.072301
0.074179 0.074179 0.074179
0.076317 0.076317 0.076317
0.078717 0.078717 0.078717
0.081378 0.081378 0.081378
0.084300 0.084300 0.084300
0.087480 0.087480 0.087480
0.090915 0.090915 0.090915
0.094602 0.094602 0.094602
0.098538 0.098538 0.098538
0.107233 0.107233 0.107233
0.119290 0.119290 0.119290
0.132388 0.132388 0.132388
0.146578 0.146578 0.146578
0.161913 0.161913 0.161913
0.178451 0.178451 0.178451
0.196252 0.196252 0.196252
0.215378 0.215378 0.215378
0.235896 0.235896 0.235896
0.257876 0.257876 0.257876
0.281391 0.281391 0.281391
0.306518 0.306518 0.306518
0.333339 0.333339 0.333339
0.361938 0.361938 0.361938
0.392405 0.392405 0.392405
0.424833 0.424833 0.424833
0.072154 0.072154 0.072154
0.072547 0.072547 0.072547
0.072991 0.072991 0.072991
0.073624 0.073624 0.073624
0.074471 0.074471 0.074471
0.075544 0.075544 0.075544
0.076853 0.076853 0.076853
0.078408 0.078408 0.078408
0.080213 0.080213 0.080213
0.082272 0.082272 0.082272
0.084588 0.084588 0.084588
0.087162 0.087162 0.087162
0.089993 0.089993 0.089993
0.093080 0.093080 0.093080
0.096421 0.096421 0.096421
0.100038 0.100038 0.100038
0.110299 0.110299 0.110299
0.121517 0.121517 0.121517
0.133740 0.133740 0.133740
0.147015 0.147015 0.147015
0.161394 0.161394 0.161394
0.176932 0.176932 0.176932
0.193685 0.193685 0.193685
0.211713 0.211713 0.211713
0.231081 0.231081 0.231081
0.251854 0.251854 0.251854
0.274102 0.274102 0.274102
0.297900 0.297900 0.297900
0.323324 0.323324 0.323324
0.350455 0.350455 0.350455
0.379380 0.379380 0.379380
0.410187 0.410187 0.410187
0.442778 0.442778 0.442778
0.078788 0.078788 0.078788
0.079164 0.079164 0.079164
0.079589 0.079589 0.079589
0.080196 0.080196 0.080196
0.081008 0.081008 0.081008
0.082038 0.082038 0.082038
0.083297 0.083297 0.083297
0.084793 0.084793 0.084793
0.086532 0.086532 0.086532
0.088520 0.088520 0.088520
0.090760 0.090760 0.090760
0.093252 0.093252 0.093252
0.095999 0.095999 0.095999
0.098999 0.098999 0.098999
0.105978 0.105978 0.105978
0.115468 0.115468 0.115468
0.125883 0.125883 0.125883
0.137268 0.137268 0.137268
0.149670 0.149670 0.149670
0.163137 0.163137 0.163137
0.177723 0.177723 0.177723
0.193480 0.193480 0.193480
0.210467 0.210467 0.210467
0.228744 0.228744 0.228744
0.248374 0.248374 0.248374
0.269424 0.269424 0.269424
0.291965 0.291965 0.291965
0.316069 0.316069 0.316069
0.341815 0.341815 0.341815
0.369285 0.369285 0.369285
0.398563 0.398563 0.398563
0.429726 0.429726 0.429726
0.462064 0.462064 0.462064
0.085672 0.085672 0.085672
0.086033 0.086033 0.086033
0.086441 0.086441 0.086441
0.087025 0.087025 0.087025
0.087806 0.087806 0.087806
0.088798 0.088798 0.088798
0.090011 0.090011 0.090011
0.091455 0.091455 0.091455
0.093135 0.093135 0.093135
0.095058 0.095058 0.095058
0.097227 0.097227 0.097227
0.099645 0.099645 0.099645
0.106142 0.106142 0.106142
0.114034 0.114034 0.114034
0.122781 0.122781 0.122781
0.132424 0.132424 0.132424
0.143005 0.143005 0.143005
0.154571 0.154571 0.154571
0.167167 0.167167 0.167167
0.180843 0.180843 0.180843
0.195652 0.195652 0.195652
0.211647 0.211647 0.211647
0.228887 0.228887 0.228887
0.247432 0.247432 0.247432
0.267346 0.267346 0.267346
0.288696 0.288696 0.288696
0.311552 0.311552 0.311552
0.335989 0.335989 0.335989
0.362084 0.362084 0.362084
0.389919 0.389919 0.389919
0.419580 0.419580 0.419580
0.450752 0.450752 0.450752
0.482673 0.482673 0.482673
0.092808 0.092808 0.092808
0.093157 0.093157 0.093157
0.093550 0.093550 0.093550
0.094113 0.094113 0.094113
0.094867 0.094867 0.094867
0.095824 0.095824 0.095824
0.096996 0.096996 0.096996
0.098392 0.098392 0.098392
0.100050 0.100050 0.100050
0.104991 0.104991 0.104991
0.110649 0.110649 0.110649
0.117060 0.117060 0.117060
0.124261 0.124261 0.124261
0.132290 0.132290 0.132290
0.141189 0.141189 0.141189
0.150996 0.150996 0.150996
0.161758 0.161758 0.161758
0.173517 0.173517 0.173517
0.186323 0.186323 0.186323
0.200224 0.200224 0.200224
0.215272 0.215272 0.215272
0.231524 0.231524 0.231524
0.249037 0.249037 0.249037
0.267871 0.267871 0.267871
0.288091 0.288091 0.288091
0.309764 0.309764 0.309764
0.332961 0.332961 0.332961
0.357755 0.357755 0.357755
0.384226 0.384226 0.384226
0.412456 0.412456 0.412456
0.442346 0.442346 0.442346
0.473105 0.473105 0.473105
0.504576 0.504576 0.504576
0.100527 0.100527 0.100527
0.101416 0.101416 0.101416
0.102423 0.102423 0.102423
0.103869 0.103869 0.103869
0.105814 0.105814 0.105814
0.108301 0.108301 0.108301
0.111368 0.111368 0.111368
0.115055 0.115055 0.115055
0.119397 0.119397 0.119397
0.124432 0.124432 0.124432
0.130196 0.130196 0.130196
0.136726 0.136726 0.136726
0.144060 0.144060 0.144060
0.152237 0.152237 0.152237
0.161297 0.161297 0.161297
0.171282 0.171282 0.171282
0.182236 0.182236 0.182236
0.194204 0.194204 0.194204
0.207234 0.207234 0.207234
0.221377 0.221377 0.221377
0.236683 0.236683 0.236683
0.253210 0.253210 0.253210
0.271016 0.271016 0.271016
0.290160 0.290160 0.290160
0.310708 0.310708 0.310708
0.332728 0.332728 0.332728
0.356290 0.356290 0.356290
0.381469 0.381469 0.381469
0.408344 0.408344 0.408344
0.436910 0.436910 0.436910
0.466453 0.466453 0.466453
0.496750 0.496750 0.496750
0.527738 0.527738 0.527738
0.121247 0.121247 0.121247
0.122154 0.122154 0.122154
0.123182 0.123182 0.123182
0.124657 0.124657 0.124657
0.126641 0.126641 0.126641
0.129177 0.129177 0.129177
0.132306 0.132306 0.132306
0.136066 0.136066 0.136066
0.140494 0.140494 0.140494
0.145629 0.145629 0.145629
0.151506 0.151506 0.151506
0.158164 0.158164 0.158164
0.165641 0.165641 0.165641
0.173975 0.173975 0.173975
0.183209 0.183209 0.183209
0.193384 0.193384 0.193384
0.204544 0.204544 0.204544
0.216735 0.216735 0.216735
0.230006 0.230006 0.230006
0.244406 0.244406 0.244406
0.259989 0.259989 0.259989
0.276810 0.276810 0.276810
0.294928 0.294928 0.294928
0.314405 0.314405 0.314405
0.335305 0.335305 0.335305
0.357695 0.357695 0.357695
0.381648 0.381648 0.381648
0.407238 0.407238 0.407238
0.434490 0.434490 0.434490
0.462772 0.462772 0.462772
0.491842 0.491842 0.491842
0.521643 0.521643 0.521643
0.552115 0.552115 0.552115
0.143800 0.143800 0.143800
0.144727 0.144727 0.144727
0.145776 0.145776 0.145776
0.147282 0.147282 0.147282
0.149308 0.149308 0.149308
0.151897 0.151897 0.151897
0.155092 0.155092 0.155092
0.158930 0.158930 0.158930
0.163450 0.163450 0.163450
0.168691 0.168691 0.168691
0.174689 0.174689 0.174689
0.181483 0.181483 0.181483
0.189112 0.189112 0.189112
0.197615 0.197615 0.197615
0.207034 0.207034 0.207034
0.217411 0.217411 0.217411
0.228791 0.228791 0.228791
0.241220 0.241220 0.241220
0.254747 0.254747 0.254747
0.269422 0.269422 0.269422
0.285299 0.285299 0.285299
0.302434 0.302434 0.302434
0.320886 0.320886 0.320886
0.340717 0.340717 0.340717
0.361991 0.361991 0.361991
0.384778 0.384778 0.384778
0.409148 0.409148 0.409148
0.435115 0.435115 0.435115
0.462097 0.462097 0.462097
0.489897 0.489897 0.489897
0.518462 0.518462 0.518462
0.547736 0.547736 0.547736
0.577657 0.577657 0.577657
0.168301 0.168301 0.168301
0.169248 0.169248 0.169248
0.170320 0.170320 0.170320
0.171860 0.171860 0.171860
0.173930 0.173930 0.173930
0.176576 0.176576 0.176576
0.179840 0.179840 0.179840
0.183761 0.183761 0.183761
0.188379 0.188379 0.188379
0.193733 0.193733 0.193733
0.199860 0.199860 0.199860
0.206799 0.206799 0.206799
0.214589 0.214589 0.214589
0.223271 0.223271 0.223271
0.232887 0.232887 0.232887
0.243479 0.243479 0.243479
0.255093 0.255093 0.255093
0.267775 0.267775 0.267775
0.281574 0.281574 0.281574
0.296542 0.296542 0.296542
0.312732 0.312732 0.312732
0.330201 0.330201 0.330201
0.349008 0.349008 0.349008
0.369216 0.369216 0.369216
0.390888 0.390888 0.390888
0.414095 0.414095 0.414095
0.438793 0.438793 0.438793
0.464446 0.464446 0.464446
0.490940 0.490940 0.490940
0.518226 0.518226 0.518226
0.546254 0.546254 0.546254
0.574966 0.574966 0.574966
0.604302 0.604302 0.604302
0.194872 0.194872 0.194872
0.195840 0.195840 0.195840
0.196937 0.196937 0.196937
0.198511 0.198511 0.198511
0.200628 0.200628 0.200628
0.203334 0.203334 0.203334
0.206672 0.206672 0.206672
0.210682 0.210682 0.210682
0.215404 0.215404 0.215404
0.220877 0.220877 0.220877
0.227140 0.227140 0.227140
0.234233 0.234233 0.234233
0.242194 0.242194 0.242194
0.251066 0.251066 0.251066
0.260891 0.260891 0.260891
0.271711 0.271711 0.271711
0.283573 0.283573 0.283573
0.296523 0.296523 0.296523
0.310612 0.310612 0.310612
0.325890 0.325890 0.325890
0.342412 0.342412 0.342412
0.360235 0.360235 0.360235
0.379419 0.379419 0.379419
0.400026 0.400026 0.400026
0.422121 0.422121 0.422121
0.445518 0.445518 0.445518
0.469818 0.469818 0.469818
0.494977 0.494977 0.494977
0.520951 0.520951 0.520951
0.547693 0.547693 0.547693
0.575151 0.575151 0.575151
0.603268 0.603268 0.603268
0.631982 0.631982 0.631982
0.223640 0.223640 0.223640
0.224631 0.224631 0.224631
0.225754 0.225754 0.225754
0.227365 0.227365 0.227365
0.229532 0.229532 0.229532
0.232301 0.232301 0.232301
0.235717 0.235717 0.235717
0.239821 0.239821 0.239821
0.244653 0.244653 0.244653
0.250252 0.250252 0.250252
0.256660 0.256660 0.256660
0.263915 0.263915 0.263915
0.272058 0.272058 0.272058
0.281131 0.281131 0.281131
0.291176 0.291176 0.291176
0.302238 0.302238 0.302238
0.314362 0.314362 0.314362
0.327597 0.327597 0.327597
0.341991 0.341991 0.341991
0.357598 0.357598 0.357598
0.374471 0.374471 0.374471
0.392669 0.392669 0.392669
0.412251 0.412251 0.412251
0.433240 0.433240 0.433240
0.455263 0.455263 0.455263
0.478193 0.478193 0.478193
0.501995 0.501995 0.501995
0.526631 0.526631 0.526631
0.552055 0.552055 0.552055
0.578222 0.578222 0.578222
0.605077 0.605077 0.605077
0.632564 0.632564 0.632564
0.660621 0.660621 0.660621
0.254744 0.254744 0.254744
0.255759 0.255759 0.255759
0.256909 0.256909 0.256909
0.258559 0.258559 0.258559
0.260779 0.260779 0.260779
0.263615 0.263615 0.263615
0.267113 0.267113 0.267113
0.271316 0.271316 0.271316
0.276263 0.276263 0.276263
0.281997 0.281997 0.281997
0.288557 0.288557 0.288557
0.295984 0.295984 0.295984
0.304318 0.304318 0.304318
0.313603 0.313603 0.313603
0.323882 0.323882 0.323882
0.335198 0.335198 0.335198
0.347600 0.347600 0.347600
0.361134 0.361134 0.361134
0.375851 0.375851 0.375851
0.391805 0.391805 0.391805
0.409050 0.409050 0.409050
0.427639 0.427639 0.427639
0.447342 0.447342 0.447342
0.467982 0.467982 0.467982
0.489534 0.489534 0.489534
0.511965 0.511965 0.511965
0.535242 0.535242 0.535242
0.559324 0.559324 0.559324
0.584169 0.584169 0.584169
0.609727 0.609727 0.609727
0.635946 0.635946 0.635946
0.662769 0.662769 0.662769
0.690131 0.690131 0.690131
0.288327 0.288327 0.288327
0.289368 0.289368 0.289368
0.290546 0.290546 0.290546
0.292238 0.292238 0.292238
0.294513 0.294513 0.294513
0.297420 0.297420 0.297420
0.301005 0.301005 0.301005
0.305311 0.305311 0.305311
0.310381 0.310381 0.310381
0.316256 0.316256 0.316256
0.322976 0.322976 0.322976
0.330584 0.330584 0.330584
0.339121 0.339121 0.339121
0.348629 0.348629 0.348629
0.359153 0.359153 0.359153
0.370738 0.370738 0.370738
0.383432 0.383432 0.383432
0.397282 0.397282 0.397282
0.412340 0.412340 0.412340
