Resources/LUTs/Kodak_Portra_160_Linear.cube
# Kodak Portra 160 - Professional Portrait Film Emulation
# 33x33x33 3D LUT for Linear Colorspace
# Characteristics: Natural skin tones, low contrast, muted colors
# Film Type: C-41 Color Negative
#
# Created for Film Emulation Pro Filters
TITLE "Kodak Portra 160 Linear"
LUT_3D_SIZE 5
DOMAIN_MIN 0.0 0.0 0.0
DOMAIN_MAX 1.0 1.0 1.0
0.003865 0.005858 0.009813
0.243044 0.017423 0.015195
0.479957 0.025089 0.018541
0.675537 0.030916 0.021269
0.786805 0.034066 0.022698
0.023642 0.168346 0.033211
0.204177 0.204875 0.013892
0.544494 0.252386 0.007970
0.768516 0.297307 0.008586
0.896105 0.303498 0.008900
0.036546 0.317877 0.053022
0.205159 0.317877 0.033244
0.447158 0.392295 0.018074
0.628346 0.412882 0.019936
0.731360 0.423282 0.021589
0.045818 0.441491 0.069195
0.168112 0.441491 0.038385
0.471081 0.547972 0.019936
0.628346 0.547972 0.019936
0.731360 0.560230 0.021589
0.050857 0.511452 0.071794
0.173805 0.511452 0.042529
0.415829 0.511452 0.042529
0.642636 0.636278 0.021589
0.731360 0.636278 0.021589
0.014087 0.014549 0.226824
0.210034 0.013341 0.233109
0.461049 0.017569 0.252439
0.648326 0.020683 0.266910
0.754833 0.022331 0.227479
0.017106 0.191613 0.175561
0.298256 0.263835 0.238952
0.557209 0.288087 0.256803
0.776047 0.312833 0.267002
0.900167 0.329258 0.272103
0.024931 0.365209 0.218007
0.351120 0.453054 0.285746
0.546829 0.477999 0.239949
0.814866 0.527355 0.227517
0.950643 0.540587 0.228890
0.045818 0.441491 0.226687
0.391408 0.605339 0.297064
0.538182 0.605339 0.279646
0.755601 0.653744 0.252798
0.873650 0.668570 0.259267
0.050857 0.511452 0.219756
0.412346 0.690267 0.320389
0.545934 0.690267 0.291875
0.774967 0.752656 0.259267
0.873650 0.752656 0.259267
0.019724 0.019568 0.424497
0.251477 0.021693 0.412023
0.461049 0.017569 0.437189
0.648326 0.020683 0.457059
0.754833 0.022331 0.390890
0.024931 0.218485 0.330341
0.328772 0.290215 0.431957
0.551264 0.287383 0.435388
0.764324 0.304295 0.452169
0.884958 0.312888 0.460564
0.024931 0.365209 0.330341
0.336496 0.469179 0.424013
0.599384 0.518467 0.421233
0.827324 0.543528 0.434116
0.956017 0.561587 0.440566
0.030316 0.509176 0.386304
0.391408 0.605339 0.410128
0.654292 0.682540 0.458020
0.819103 0.702270 0.438952
0.981100 0.727960 0.427195
0.033206 0.590778 0.365887
0.412346 0.690267 0.429636
0.682465 0.773457 0.482885
0.827428 0.773457 0.469106
0.942668 0.805276 0.447865
0.023473 0.023283 0.589489
0.270484 0.026065 0.571677
0.459517 0.026065 0.571677
0.648326 0.020683 0.510406
0.754833 0.022331 0.520458
0.023473 0.242021 0.494975
0.353072 0.309069 0.585852
0.577691 0.313886 0.579220
0.764324 0.304295 0.592528
0.884958 0.312888 0.602351
0.030316 0.389885 0.460037
0.353072 0.503135 0.533542
0.633935 0.544888 0.566133
0.822620 0.542318 0.568548
0.948376 0.554335 0.577700
0.030316 0.509176 0.460037
0.366228 0.636555 0.519548
0.641017 0.695327 0.560522
0.860475 0.733753 0.587158
0.990323 0.749911 0.595945
0.033206 0.590778 0.470757
0.381543 0.730462 0.547943
0.662193 0.794054 0.579758
0.894641 0.827458 0.609424
0.985936 0.837998 0.598731
0.025468 0.025259 0.682863
0.280176 0.028400 0.661999
0.472693 0.028400 0.661999
0.624239 0.028400 0.556709
0.754833 0.022331 0.592579
0.025468 0.249650 0.574481
0.365531 0.318669 0.672099
0.595705 0.324512 0.663549
0.767843 0.324512 0.663549
0.884958 0.312888 0.680714
0.033206 0.402427 0.533518
0.365531 0.515871 0.611821
0.651426 0.558226 0.647088
0.837595 0.562134 0.643199
0.948376 0.554335 0.650991
0.033206 0.523817 0.486086
0.381543 0.654451 0.593795
0.662193 0.714163 0.638035
0.882858 0.750875 0.668717
0.987814 0.749388 0.669993
0.033206 0.590778 0.486086
0.381543 0.730462 0.593795
0.662193 0.794054 0.638035
0.886972 0.834300 0.665746
1.000000 0.856494 0.681198
