Resources/LUTs/Kodak_Tri-X_400_Linear.cube
# Kodak Tri-X 400 Black & White Film Emulation
# Generated with spectral sensitivity and characteristic curve data
# 
# Spectral Weights: R=0.18, G=0.52, B=0.3
# Contrast: High (Tri-X signature)
# 
TITLE "Kodak Tri-X 400"
LUT_3D_SIZE 33
DOMAIN_MIN 0.0 0.0 0.0
DOMAIN_MAX 1.0 1.0 1.0
0.015000 0.015000 0.015000
0.015218 0.015218 0.015218
0.015464 0.015464 0.015464
0.015817 0.015817 0.015817
0.016291 0.016291 0.016291
0.016896 0.016896 0.016896
0.017641 0.017641 0.017641
0.018533 0.018533 0.018533
0.019579 0.019579 0.019579
0.020787 0.020787 0.020787
0.022162 0.022162 0.022162
0.023712 0.023712 0.023712
0.026774 0.026774 0.026774
0.031231 0.031231 0.031231
0.035057 0.035057 0.035057
0.038739 0.038739 0.038739
0.042397 0.042397 0.042397
0.046084 0.046084 0.046084
0.049830 0.049830 0.049830
0.053651 0.053651 0.053651
0.057559 0.057559 0.057559
0.061561 0.061561 0.061561
0.065662 0.065662 0.065662
0.069867 0.069867 0.069867
0.074177 0.074177 0.074177
0.078596 0.078596 0.078596
0.083124 0.083124 0.083124
0.087763 0.087763 0.087763
0.092513 0.092513 0.092513
0.097376 0.097376 0.097376
0.106244 0.106244 0.106244
0.120109 0.120109 0.120109
0.134776 0.134776 0.134776
0.015629 0.015629 0.015629
0.015847 0.015847 0.015847
0.016093 0.016093 0.016093
0.016446 0.016446 0.016446
0.016920 0.016920 0.016920
0.017525 0.017525 0.017525
0.018270 0.018270 0.018270
0.019161 0.019161 0.019161
0.020208 0.020208 0.020208
0.021416 0.021416 0.021416
0.022791 0.022791 0.022791
0.024341 0.024341 0.024341
0.028448 0.028448 0.028448
0.032440 0.032440 0.032440
0.036103 0.036103 0.036103
0.039686 0.039686 0.039686
0.043275 0.043275 0.043275
0.046909 0.046909 0.046909
0.050612 0.050612 0.050612
0.054398 0.054398 0.054398
0.058275 0.058275 0.058275
0.062250 0.062250 0.062250
0.066328 0.066328 0.066328
0.070511 0.070511 0.070511
0.074802 0.074802 0.074802
0.079204 0.079204 0.079204
0.083716 0.083716 0.083716
0.088340 0.088340 0.088340
0.093076 0.093076 0.093076
0.097926 0.097926 0.097926
0.107688 0.107688 0.107688
0.121572 0.121572 0.121572
0.136259 0.136259 0.136259
0.016340 0.016340 0.016340
0.016558 0.016558 0.016558
0.016804 0.016804 0.016804
0.017158 0.017158 0.017158
0.017632 0.017632 0.017632
0.018237 0.018237 0.018237
0.018981 0.018981 0.018981
0.019873 0.019873 0.019873
0.020919 0.020919 0.020919
0.022127 0.022127 0.022127
0.023503 0.023503 0.023503
0.025359 0.025359 0.025359
0.030053 0.030053 0.030053
0.033734 0.033734 0.033734
0.037248 0.037248 0.037248
0.040734 0.040734 0.040734
0.044252 0.044252 0.044252
0.047831 0.047831 0.047831
0.051488 0.051488 0.051488
0.055235 0.055235 0.055235
0.059079 0.059079 0.059079
0.063025 0.063025 0.063025
0.067077 0.067077 0.067077
0.071236 0.071236 0.071236
0.075507 0.075507 0.075507
0.079888 0.079888 0.079888
0.084383 0.084383 0.084383
0.088990 0.088990 0.088990
0.093711 0.093711 0.093711
0.098546 0.098546 0.098546
0.109324 0.109324 0.109324
0.123230 0.123230 0.123230
0.137940 0.137940 0.137940
0.017361 0.017361 0.017361
0.017579 0.017579 0.017579
0.017825 0.017825 0.017825
0.018178 0.018178 0.018178
0.018652 0.018652 0.018652
0.019257 0.019257 0.019257
0.020002 0.020002 0.020002
0.020893 0.020893 0.020893
0.021940 0.021940 0.021940
0.023147 0.023147 0.023147
0.024523 0.024523 0.024523
0.028454 0.028454 0.028454
0.032096 0.032096 0.032096
0.035486 0.035486 0.035486
0.038830 0.038830 0.038830
0.042198 0.042198 0.042198
0.045626 0.045626 0.045626
0.049132 0.049132 0.049132
0.052728 0.052728 0.052728
0.056423 0.056423 0.056423
0.060221 0.060221 0.060221
0.064127 0.064127 0.064127
0.068143 0.068143 0.068143
0.072270 0.072270 0.072270
0.076511 0.076511 0.076511
0.080865 0.080865 0.080865
0.085334 0.085334 0.085334
0.089919 0.089919 0.089919
0.094618 0.094618 0.094618
0.099433 0.099433 0.099433
0.111674 0.111674 0.111674
0.125611 0.125611 0.125611
0.140354 0.140354 0.140354
0.018731 0.018731 0.018731
0.018949 0.018949 0.018949
0.019195 0.019195 0.019195
0.019548 0.019548 0.019548
0.020022 0.020022 0.020022
0.020627 0.020627 0.020627
0.021372 0.021372 0.021372
0.022264 0.022264 0.022264
0.023310 0.023310 0.023310
0.024518 0.024518 0.024518
0.028010 0.028010 0.028010
0.031402 0.031402 0.031402
0.034565 0.034565 0.034565
0.037697 0.037697 0.037697
0.040865 0.040865 0.040865
0.044101 0.044101 0.044101
0.047423 0.047423 0.047423
0.050842 0.050842 0.050842
0.054364 0.054364 0.054364
0.057994 0.057994 0.057994
0.061736 0.061736 0.061736
0.065591 0.065591 0.065591
0.069561 0.069561 0.069561
0.073646 0.073646 0.073646
0.077849 0.077849 0.077849
0.082168 0.082168 0.082168
0.086605 0.086605 0.086605
0.091159 0.091159 0.091159
0.095830 0.095830 0.095830
0.101634 0.101634 0.101634
0.114838 0.114838 0.114838
0.128818 0.128818 0.128818
0.143605 0.143605 0.143605
0.020479 0.020479 0.020479
0.020696 0.020696 0.020696
0.020943 0.020943 0.020943
0.021296 0.021296 0.021296
0.021770 0.021770 0.021770
0.022375 0.022375 0.022375
0.023120 0.023120 0.023120
0.024011 0.024011 0.024011
0.025385 0.025385 0.025385
0.028909 0.028909 0.028909
0.031787 0.031787 0.031787
0.034596 0.034596 0.034596
0.037434 0.037434 0.037434
0.040343 0.040343 0.040343
0.043341 0.043341 0.043341
0.046441 0.046441 0.046441
0.049649 0.049649 0.049649
0.052971 0.052971 0.052971
0.056408 0.056408 0.056408
0.059964 0.059964 0.059964
0.063638 0.063638 0.063638
0.067433 0.067433 0.067433
0.071348 0.071348 0.071348
0.075383 0.075383 0.075383
0.079540 0.079540 0.079540
0.083816 0.083816 0.083816
0.088213 0.088213 0.088213
0.092730 0.092730 0.092730
0.097366 0.097366 0.097366
0.105634 0.105634 0.105634
0.118889 0.118889 0.118889
0.132922 0.132922 0.132922
0.147765 0.147765 0.147765
0.022629 0.022629 0.022629
0.022847 0.022847 0.022847
0.023093 0.023093 0.023093
0.023446 0.023446 0.023446
0.023921 0.023921 0.023921
0.024526 0.024526 0.024526
0.026227 0.026227 0.026227
0.028666 0.028666 0.028666
0.030934 0.030934 0.030934
0.033232 0.033232 0.033232
0.035610 0.035610 0.035610
0.038092 0.038092 0.038092
0.040688 0.040688 0.040688
0.043403 0.043403 0.043403
0.046243 0.046243 0.046243
0.049208 0.049208 0.049208
0.052299 0.052299 0.052299
0.055518 0.055518 0.055518
0.058864 0.058864 0.058864
0.062337 0.062337 0.062337
0.065937 0.065937 0.065937
0.069664 0.069664 0.069664
0.073516 0.073516 0.073516
0.077494 0.077494 0.077494
0.081596 0.081596 0.081596
0.085823 0.085823 0.085823
0.090173 0.090173 0.090173
0.094646 0.094646 0.094646
0.099242 0.099242 0.099242
0.110575 0.110575 0.110575
0.123894 0.123894 0.123894
0.137993 0.137993 0.137993
0.152905 0.152905 0.152905
0.025999 0.025999 0.025999
0.026718 0.026718 0.026718
0.027424 0.027424 0.027424
0.028331 0.028331 0.028331
0.029433 0.029433 0.029433
0.030719 0.030719 0.030719
0.032179 0.032179 0.032179
0.033807 0.033807 0.033807
0.035598 0.035598 0.035598
0.037547 0.037547 0.037547
0.039651 0.039651 0.039651
0.041906 0.041906 0.041906
0.044310 0.044310 0.044310
0.046860 0.046860 0.046860
0.049554 0.049554 0.049554
0.052390 0.052390 0.052390
0.055366 0.055366 0.055366
0.058480 0.058480 0.058480
0.061730 0.061730 0.061730
0.065116 0.065116 0.065116
0.068636 0.068636 0.068636
0.072288 0.072288 0.072288
0.076071 0.076071 0.076071
0.079985 0.079985 0.079985
0.084027 0.084027 0.084027
0.088198 0.088198 0.088198
0.092495 0.092495 0.092495
0.096919 0.096919 0.096919
0.103886 0.103886 0.103886
0.116526 0.116526 0.116526
0.129921 0.129921 0.129921
0.144099 0.144099 0.144099
0.159094 0.159094 0.159094
0.032890 0.032890 0.032890
0.033285 0.033285 0.033285
0.033726 0.033726 0.033726
0.034345 0.034345 0.034345
0.035155 0.035155 0.035155
0.036158 0.036158 0.036158
0.037353 0.037353 0.037353
0.038736 0.038736 0.038736
0.040301 0.040301 0.040301
0.042044 0.042044 0.042044
0.043960 0.043960 0.043960
0.046044 0.046044 0.046044
0.048291 0.048291 0.048291
0.050697 0.050697 0.050697
0.053259 0.053259 0.053259
0.055973 0.055973 0.055973
0.058837 0.058837 0.058837
0.061847 0.061847 0.061847
0.065001 0.065001 0.065001
0.068297 0.068297 0.068297
0.071733 0.071733 0.071733
0.075307 0.075307 0.075307
0.079017 0.079017 0.079017
0.082861 0.082861 0.082861
0.086838 0.086838 0.086838
0.090948 0.090948 0.090948
0.095187 0.095187 0.095187
0.099555 0.099555 0.099555
0.110827 0.110827 0.110827
0.123553 0.123553 0.123553
0.137036 0.137036 0.137036
0.151308 0.151308 0.151308
0.166399 0.166399 0.166399
0.038670 0.038670 0.038670
0.039001 0.039001 0.039001
0.039372 0.039372 0.039372
0.039899 0.039899 0.039899
0.040597 0.040597 0.040597
0.041472 0.041472 0.041472
0.042529 0.042529 0.042529
0.043767 0.043767 0.043767
0.045187 0.045187 0.045187
0.046785 0.046785 0.046785
0.048559 0.048559 0.048559
0.050505 0.050505 0.050505
0.052621 0.052621 0.052621
0.054901 0.054901 0.054901
0.057344 0.057344 0.057344
0.059945 0.059945 0.059945
0.062702 0.062702 0.062702
0.065611 0.065611 0.065611
0.068669 0.068669 0.068669
0.071875 0.071875 0.071875
0.075225 0.075225 0.075225
0.078718 0.078718 0.078718
0.082351 0.082351 0.082351
0.086123 0.086123 0.086123
0.090031 0.090031 0.090031
0.094075 0.094075 0.094075
0.098252 0.098252 0.098252
0.106808 0.106808 0.106808
0.118898 0.118898 0.118898
0.131722 0.131722 0.131722
0.145308 0.145308 0.145308
0.159686 0.159686 0.159686
0.174890 0.174890 0.174890
0.044371 0.044371 0.044371
0.044666 0.044666 0.044666
0.044998 0.044998 0.044998
0.045471 0.045471 0.045471
0.046100 0.046100 0.046100
0.046894 0.046894 0.046894
0.047859 0.047859 0.047859
0.048996 0.048996 0.048996
0.050308 0.050308 0.050308
0.051795 0.051795 0.051795
0.053456 0.053456 0.053456
0.055289 0.055289 0.055289
0.057292 0.057292 0.057292
0.059462 0.059462 0.059462
0.061797 0.061797 0.061797
0.064294 0.064294 0.064294
0.066950 0.066950 0.066950
0.069761 0.069761 0.069761
0.072727 0.072727 0.072727
0.075843 0.075843 0.075843
0.079107 0.079107 0.079107
0.082518 0.082518 0.082518
0.086073 0.086073 0.086073
0.089769 0.089769 0.089769
0.093606 0.093606 0.093606
0.097580 0.097580 0.097580
0.104483 0.104483 0.104483
0.115970 0.115970 0.115970
0.128167 0.128167 0.128167
0.141102 0.141102 0.141102
0.154805 0.154805 0.154805
0.169306 0.169306 0.169306
0.184637 0.184637 0.184637
0.050181 0.050181 0.050181
0.050452 0.050452 0.050452
0.050757 0.050757 0.050757
0.051192 0.051192 0.051192
0.051773 0.051773 0.051773
0.052507 0.052507 0.052507
0.053402 0.053402 0.053402
0.054462 0.054462 0.054462
0.055690 0.055690 0.055690
0.057088 0.057088 0.057088
0.058655 0.058655 0.058655
0.060392 0.060392 0.060392
0.062297 0.062297 0.062297
0.064370 0.064370 0.064370
0.066607 0.066607 0.066607
0.069008 0.069008 0.069008
0.071569 0.071569 0.071569
0.074288 0.074288 0.074288
0.077163 0.077163 0.077163
0.080192 0.080192 0.080192
0.083372 0.083372 0.083372
0.086701 0.086701 0.086701
0.090176 0.090176 0.090176
0.093796 0.093796 0.093796
0.097559 0.097559 0.097559
0.103874 0.103874 0.103874
0.114787 0.114787 0.114787
0.126388 0.126388 0.126388
0.138705 0.138705 0.138705
0.151766 0.151766 0.151766
0.165600 0.165600 0.165600
0.180239 0.180239 0.180239
0.195714 0.195714 0.195714
0.056175 0.056175 0.056175
0.056427 0.056427 0.056427
0.056712 0.056712 0.056712
0.057118 0.057118 0.057118
0.057661 0.057661 0.057661
0.058350 0.058350 0.058350
0.059190 0.059190 0.059190
0.060188 0.060188 0.060188
0.061347 0.061347 0.061347
0.062669 0.062669 0.062669
0.064157 0.064157 0.064157
0.065811 0.065811 0.065811
0.067631 0.067631 0.067631
0.069616 0.069616 0.069616
0.071765 0.071765 0.071765
0.074077 0.074077 0.074077
0.076550 0.076550 0.076550
0.079182 0.079182 0.079182
0.081971 0.081971 0.081971
0.084915 0.084915 0.084915
0.088012 0.088012 0.088012
0.091260 0.091260 0.091260
0.094656 0.094656 0.094656
0.098200 0.098200 0.098200
0.105008 0.105008 0.105008
0.115373 0.115373 0.115373
0.126407 0.126407 0.126407
0.138135 0.138135 0.138135
0.150586 0.150586 0.150586
0.163788 0.163788 0.163788
0.177769 0.177769 0.177769
0.192561 0.192561 0.192561
0.208196 0.208196 0.208196
0.062391 0.062391 0.062391
0.062629 0.062629 0.062629
0.062897 0.062897 0.062897
0.063280 0.063280 0.063280
0.063792 0.063792 0.063792
0.064443 0.064443 0.064443
0.065238 0.065238 0.065238
0.066184 0.066184 0.066184
0.067285 0.067285 0.067285
0.068544 0.068544 0.068544
0.069963 0.069963 0.069963
0.071544 0.071544 0.071544
0.073288 0.073288 0.073288
0.075195 0.075195 0.075195
0.077263 0.077263 0.077263
0.079494 0.079494 0.079494
0.081884 0.081884 0.081884
0.084434 0.084434 0.084434
0.087140 0.087140 0.087140
0.090003 0.090003 0.090003
0.093020 0.093020 0.093020
0.096188 0.096188 0.096188
0.099507 0.099507 0.099507
0.107919 0.107919 0.107919
0.117760 0.117760 0.117760
0.128252 0.128252 0.128252
0.139420 0.139420 0.139420
0.151290 0.151290 0.151290
0.163890 0.163890 0.163890
0.177247 0.177247 0.177247
0.191391 0.191391 0.191391
0.206353 0.206353 0.206353
0.222165 0.222165 0.222165
0.068850 0.068850 0.068850
0.069075 0.069075 0.069075
0.069329 0.069329 0.069329
0.069693 0.069693 0.069693
0.070180 0.070180 0.070180
0.070798 0.070798 0.070798
0.071555 0.071555 0.071555
0.072457 0.072457 0.072457
0.073508 0.073508 0.073508
0.074711 0.074711 0.074711
0.076071 0.076071 0.076071
0.077588 0.077588 0.077588
0.079263 0.079263 0.079263
0.081099 0.081099 0.081099
0.083094 0.083094 0.083094
0.085249 0.085249 0.085249
0.087563 0.087563 0.087563
0.090035 0.090035 0.090035
0.092664 0.092664 0.092664
0.095449 0.095449 0.095449
0.098388 0.098388 0.098388
0.103917 0.103917 0.103917
0.112647 0.112647 0.112647
0.121988 0.121988 0.121988
0.131962 0.131962 0.131962
0.142594 0.142594 0.142594
0.153910 0.153910 0.153910
0.165936 0.165936 0.165936
0.178698 0.178698 0.178698
0.192226 0.192226 0.192226
0.206549 0.206549 0.206549
0.221698 0.221698 0.221698
0.237705 0.237705 0.237705
0.075563 0.075563 0.075563
0.075778 0.075778 0.075778
0.076020 0.076020 0.076020
0.076367 0.076367 0.076367
0.076832 0.076832 0.076832
0.077423 0.077423 0.077423
0.078148 0.078148 0.078148
0.079011 0.079011 0.079011
0.080018 0.080018 0.080018
0.081173 0.081173 0.081173
0.082479 0.082479 0.082479
0.083938 0.083938 0.083938
0.085552 0.085552 0.085552
0.087323 0.087323 0.087323
0.089251 0.089251 0.089251
0.091337 0.091337 0.091337
0.093579 0.093579 0.093579
0.095978 0.095978 0.095978
0.098534 0.098534 0.098534
0.103292 0.103292 0.103292
0.110981 0.110981 0.110981
0.119244 0.119244 0.119244
0.128103 0.128103 0.128103
0.137581 0.137581 0.137581
0.147700 0.147700 0.147700
0.158486 0.158486 0.158486
0.169963 0.169963 0.169963
0.182158 0.182158 0.182158
0.195099 0.195099 0.195099
0.208813 0.208813 0.208813
0.223332 0.223332 0.223332
0.238685 0.238685 0.238685
0.254906 0.254906 0.254906
0.082539 0.082539 0.082539
0.082745 0.082745 0.082745
0.082977 0.082977 0.082977
0.083310 0.083310 0.083310
0.083756 0.083756 0.083756
0.084323 0.084323 0.084323
0.085018 0.085018 0.085018
0.085847 0.085847 0.085847
0.086815 0.086815 0.086815
0.087927 0.087927 0.087927
0.089185 0.089185 0.089185
0.090592 0.090592 0.090592
0.092151 0.092151 0.092151
0.093863 0.093863 0.093863
0.095729 0.095729 0.095729
0.097750 0.097750 0.097750
0.099926 0.099926 0.099926
0.105993 0.105993 0.105993
0.112703 0.112703 0.112703
0.119955 0.119955 0.119955
0.127768 0.127768 0.127768
0.136163 0.136163 0.136163
0.145162 0.145162 0.145162
0.154789 0.154789 0.154789
0.165066 0.165066 0.165066
0.176018 0.176018 0.176018
0.187671 0.187671 0.187671
0.200051 0.200051 0.200051
0.213185 0.213185 0.213185
0.227103 0.227103 0.227103
0.241834 0.241834 0.241834
0.257409 0.257409 0.257409
0.273862 0.273862 0.273862
0.089782 0.089782 0.089782
0.089980 0.089980 0.089980
0.090204 0.090204 0.090204
0.090524 0.090524 0.090524
0.090952 0.090952 0.090952
0.091498 0.091498 0.091498
0.092168 0.092168 0.092168
0.092967 0.092967 0.092967
0.093900 0.093900 0.093900
0.094972 0.094972 0.094972
0.096187 0.096187 0.096187
0.097548 0.097548 0.097548
0.099056 0.099056 0.099056
0.101885 0.101885 0.101885
0.106705 0.106705 0.106705
0.111999 0.111999 0.111999
0.117785 0.117785 0.117785
0.124082 0.124082 0.124082
0.130909 0.130909 0.130909
0.138286 0.138286 0.138286
0.146232 0.146232 0.146232
0.154771 0.154771 0.154771
0.163922 0.163922 0.163922
0.173710 0.173710 0.173710
0.184158 0.184158 0.184158
0.195290 0.195290 0.195290
0.207133 0.207133 0.207133
0.219712 0.219712 0.219712
0.233056 0.233056 0.233056
0.247194 0.247194 0.247194
0.262155 0.262155 0.262155
0.277971 0.277971 0.277971
0.294674 0.294674 0.294674
0.097296 0.097296 0.097296
0.097487 0.097487 0.097487
0.097702 0.097702 0.097702
0.098011 0.098011 0.098011
0.098425 0.098425 0.098425
0.098951 0.098951 0.098951
0.099598 0.099598 0.099598
0.100974 0.100974 0.100974
0.103365 0.103365 0.103365
0.106132 0.106132 0.106132
0.109292 0.109292 0.109292
0.112863 0.112863 0.112863
0.116864 0.116864 0.116864
0.121311 0.121311 0.121311
0.126222 0.126222 0.126222
0.131615 0.131615 0.131615
0.137509 0.137509 0.137509
0.143923 0.143923 0.143923
0.150876 0.150876 0.150876
0.158387 0.158387 0.158387
0.166478 0.166478 0.166478
0.175171 0.175171 0.175171
0.184486 0.184486 0.184486
0.194448 0.194448 0.194448
0.205080 0.205080 0.205080
0.216406 0.216406 0.216406
0.228453 0.228453 0.228453
0.241248 0.241248 0.241248
0.254818 0.254818 0.254818
0.269192 0.269192 0.269192
0.284401 0.284401 0.284401
0.300476 0.300476 0.300476
0.317449 0.317449 0.317449
0.113629 0.113629 0.113629
0.114132 0.114132 0.114132
0.114702 0.114702 0.114702
0.115519 0.115519 0.115519
0.116617 0.116617 0.116617
0.118020 0.118020 0.118020
0.119748 0.119748 0.119748
0.121823 0.121823 0.121823
0.124262 0.124262 0.124262
0.127084 0.127084 0.127084
0.130308 0.130308 0.130308
0.133952 0.133952 0.133952
0.138032 0.138032 0.138032
0.142568 0.142568 0.142568
0.147576 0.147576 0.147576
0.153076 0.153076 0.153076
0.159086 0.159086 0.159086
0.165625 0.165625 0.165625
0.172713 0.172713 0.172713
0.180369 0.180369 0.180369
0.188616 0.188616 0.188616
0.197473 0.197473 0.197473
0.206965 0.206965 0.206965
0.217113 0.217113 0.217113
0.227942 0.227942 0.227942
0.239477 0.239477 0.239477
0.251744 0.251744 0.251744
0.264769 0.264769 0.264769
0.278581 0.278581 0.278581
0.293210 0.293210 0.293210
0.308685 0.308685 0.308685
0.325038 0.325038 0.325038
0.342301 0.342301 0.342301
0.136221 0.136221 0.136221
0.136735 0.136735 0.136735
0.137316 0.137316 0.137316
0.138151 0.138151 0.138151
0.139273 0.139273 0.139273
0.140706 0.140706 0.140706
0.142471 0.142471 0.142471
0.144589 0.144589 0.144589
0.147080 0.147080 0.147080
0.149963 0.149963 0.149963
0.153255 0.153255 0.153255
0.156975 0.156975 0.156975
0.161141 0.161141 0.161141
0.165771 0.165771 0.165771
0.170884 0.170884 0.170884
0.176498 0.176498 0.176498
0.182632 0.182632 0.182632
0.189305 0.189305 0.189305
0.196537 0.196537 0.196537
0.204349 0.204349 0.204349
0.212761 0.212761 0.212761
0.221796 0.221796 0.221796
0.231475 0.231475 0.231475
0.241823 0.241823 0.241823
0.252863 0.252863 0.252863
0.264621 0.264621 0.264621
0.277122 0.277122 0.277122
0.290395 0.290395 0.290395
0.304467 0.304467 0.304467
0.319367 0.319367 0.319367
0.335127 0.335127 0.335127
0.351777 0.351777 0.351777
0.369351 0.369351 0.369351
0.160842 0.160842 0.160842
0.161367 0.161367 0.161367
0.161962 0.161962 0.161962
0.162815 0.162815 0.162815
0.163962 0.163962 0.163962
0.165427 0.165427 0.165427
0.167232 0.167232 0.167232
0.169397 0.169397 0.169397
0.171943 0.171943 0.171943
0.174890 0.174890 0.174890
0.178254 0.178254 0.178254
0.182056 0.182056 0.182056
0.186314 0.186314 0.186314
0.191045 0.191045 0.191045
0.196269 0.196269 0.196269
0.202005 0.202005 0.202005
0.208271 0.208271 0.208271
0.215087 0.215087 0.215087
0.222473 0.222473 0.222473
0.230450 0.230450 0.230450
0.239039 0.239039 0.239039
0.248262 0.248262 0.248262
0.258142 0.258142 0.258142
0.268703 0.268703 0.268703
0.279968 0.279968 0.279968
0.291964 0.291964 0.291964
0.304716 0.304716 0.304716
0.318252 0.318252 0.318252
0.332601 0.332601 0.332601
0.347791 0.347791 0.347791
0.363854 0.363854 0.363854
0.380821 0.380821 0.380821
0.398727 0.398727 0.398727
0.187623 0.187623 0.187623
0.188161 0.188161 0.188161
0.188770 0.188770 0.188770
0.189643 0.189643 0.189643
0.190816 0.190816 0.190816
0.192315 0.192315 0.192315
0.194161 0.194161 0.194161
0.196377 0.196377 0.196377
0.198982 0.198982 0.198982
0.201996 0.201996 0.201996
0.205438 0.205438 0.205438
0.209327 0.209327 0.209327
0.213682 0.213682 0.213682
0.218521 0.218521 0.218521
0.223863 0.223863 0.223863
0.229728 0.229728 0.229728
0.236134 0.236134 0.236134
0.243102 0.243102 0.243102
0.250652 0.250652 0.250652
0.258805 0.258805 0.258805
0.267583 0.267583 0.267583
0.277006 0.277006 0.277006
0.287100 0.287100 0.287100
0.297887 0.297887 0.297887
0.309392 0.309392 0.309392
0.321640 0.321640 0.321640
0.334659 0.334659 0.334659
0.348475 0.348475 0.348475
0.363118 0.363118 0.363118
0.378616 0.378616 0.378616
0.395002 0.395002 0.395002
0.412307 0.412307 0.412307
0.430545 0.430545 0.430545
0.216704 0.216704 0.216704
0.217254 0.217254 0.217254
0.217878 0.217878 0.217878
0.218772 0.218772 0.218772
0.219974 0.219974 0.219974
0.221508 0.221508 0.221508
0.223399 0.223399 0.223399
0.225668 0.225668 0.225668
0.228335 0.228335 0.228335
0.231421 0.231421 0.231421
0.234945 0.234945 0.234945
0.238927 0.238927 0.238927
0.243385 0.243385 0.243385
0.248338 0.248338 0.248338
0.253805 0.253805 0.253805
0.259807 0.259807 0.259807
0.266363 0.266363 0.266363
0.273492 0.273492 0.273492
0.281216 0.281216 0.281216
0.289555 0.289555 0.289555
0.298532 0.298532 0.298532
0.308169 0.308169 0.308169
0.318489 0.318489 0.318489
0.329515 0.329515 0.329515
0.341274 0.341274 0.341274
0.353791 0.353791 0.353791
0.367092 0.367092 0.367092
0.381206 0.381206 0.381206
0.396161 0.396161 0.396161
0.411986 0.411986 0.411986
0.428706 0.428706 0.428706
0.446106 0.446106 0.446106
0.464069 0.464069 0.464069
0.248231 0.248231 0.248231
0.248796 0.248796 0.248796
0.249435 0.249435 0.249435
0.250351 0.250351 0.250351
0.251583 0.251583 0.251583
0.253156 0.253156 0.253156
0.255093 0.255093 0.255093
0.257418 0.257418 0.257418
0.260152 0.260152 0.260152
0.263314 0.263314 0.263314
0.266925 0.266925 0.266925
0.271004 0.271004 0.271004
0.275570 0.275570 0.275570
0.280644 0.280644 0.280644
0.286245 0.286245 0.286245
0.292392 0.292392 0.292392
0.299105 0.299105 0.299105
0.306405 0.306405 0.306405
0.314313 0.314313 0.314313
0.322849 0.322849 0.322849
0.332037 0.332037 0.332037
0.341899 0.341899 0.341899
0.352459 0.352459 0.352459
0.363739 0.363739 0.363739
0.375767 0.375767 0.375767
0.388568 0.388568 0.388568
0.402168 0.402168 0.402168
0.416596 0.416596 0.416596
0.431853 0.431853 0.431853
0.447738 0.447738 0.447738
0.464198 0.464198 0.464198
0.481219 0.481219 0.481219
0.498787 0.498787 0.498787
0.282363 0.282363 0.282363
0.282942 0.282942 0.282942
0.283597 0.283597 0.283597
0.284537 0.284537 0.284537
0.285800 0.285800 0.285800
0.287413 0.287413 0.287413
0.289401 0.289401 0.289401
0.291785 0.291785 0.291785
0.294588 0.294588 0.294588
0.297830 0.297830 0.297830
0.301533 0.301533 0.301533
0.305715 0.305715 0.305715
0.310397 0.310397 0.310397
0.315598 0.315598 0.315598
0.321339 0.321339 0.321339
0.327639 0.327639 0.327639
0.334519 0.334519 0.334519
0.341999 0.341999 0.341999
0.350101 0.350101 0.350101
0.358846 0.358846 0.358846
0.368257 0.368257 0.368257
0.378357 0.378357 0.378357
0.389169 0.389169 0.389169
0.400718 0.400718 0.400718
0.413029 0.413029 0.413029
0.426129 0.426129 0.426129
0.439911 0.439911 0.439911
0.454282 0.454282 0.454282
0.469232 0.469232 0.469232
0.484752 0.484752 0.484752
0.500830 0.500830 0.500830
0.517451 0.517451 0.517451
0.534602 0.534602 0.534602
0.319264 0.319264 0.319264
0.319858 0.319858 0.319858
0.320531 0.320531 0.320531
0.321496 0.321496 0.321496
0.322792 0.322792 0.322792
0.324448 0.324448 0.324448
0.326487 0.326487 0.326487
0.328934 0.328934 0.328934
0.331810 0.331810 0.331810
0.335138 0.335138 0.335138
0.338937 0.338937 0.338937
0.343228 0.343228 0.343228
0.348031 0.348031 0.348031
0.353366 0.353366 0.353366
0.359255 0.359255 0.359255
0.365716 0.365716 0.365716
0.372772 0.372772 0.372772
0.380442 0.380442 0.380442
0.388748 0.388748 0.388748
0.397713 0.397713 0.397713
