Resources/LUTs/Kodak_Gold_200_v2_linear.cube
TITLE "Kodak Gold 200 v4 CORRECTED (Linear)"
LUT_3D_SIZE 9
DOMAIN_MIN 0 0 0
DOMAIN_MAX 1 1 1
0.025408 0.031166 0.019166
0.159096 0.027991 0.014574
0.309134 0.027908 0.013706
0.465334 0.026557 0.011811
0.629769 0.025380 0.010336
0.799470 0.024196 0.008300
0.956638 0.023357 0.005832
0.970000 0.022322 0.004562
0.970000 0.020957 0.003972
0.019992 0.156332 0.011087
0.150767 0.155104 0.009054
0.307292 0.156668 0.007354
0.468754 0.156025 0.005843
0.636258 0.154596 0.004614
0.810069 0.153903 0.003353
0.964487 0.152982 0.002841
0.970000 0.152059 0.002779
0.970000 0.151056 0.001719
0.015439 0.294156 0.005027
0.145533 0.292486 0.004247
0.289652 0.291394 0.003228
0.471967 0.300123 0.002214
0.643240 0.299564 0.002634
0.819139 0.298756 0.001749
0.969078 0.298484 0.001731
0.970000 0.297414 0.001693
0.970000 0.295937 0.001426
0.012108 0.438824 0.002535
0.141262 0.437135 0.002041
0.285675 0.436606 0.002126
0.474326 0.454067 0.001875
0.644996 0.452599 0.001315
0.820504 0.451722 0.001418
0.968699 0.450769 0.000736
0.970000 0.449621 0.000656
0.970000 0.447274 0.001317
0.010092 0.588911 0.001359
0.138432 0.587279 0.001006
0.283265 0.586226 0.001157
0.434611 0.585328 0.000787
0.640962 0.608968 0.000778
0.811874 0.606814 0.001041
0.962184 0.604772 0.000934
0.970000 0.602963 0.000990
0.970000 0.599971 0.000419
0.007713 0.743365 0.001152
0.136587 0.742093 0.001251
0.280869 0.740664 0.000940
0.432381 0.740713 0.000846
0.588532 0.738937 0.000657
0.796637 0.762576 0.000723
0.950181 0.759613 0.001066
0.970000 0.756186 0.000582
0.970000 0.752724 0.000306
0.006637 0.900941 0.001270
0.134359 0.900516 0.001168
0.278508 0.899460 0.000240
0.429824 0.898720 0.000464
0.586513 0.897792 0.000742
0.747919 0.897352 0.000169
0.936398 0.912674 0.000604
0.970000 0.903802 0.000147
0.970000 0.894305 0.000000
0.004940 0.980000 0.000317
0.132849 0.980000 0.000437
0.277629 0.980000 0.000335
0.428605 0.980000 0.000647
0.580952 0.980000 0.000233
0.736253 0.980000 0.000432
0.892333 0.980000 0.000710
0.970000 0.980000 0.000363
0.970000 0.980000 0.000221
0.004216 0.980000 0.000134
0.130792 0.980000 0.000222
0.272110 0.980000 0.000337
0.418343 0.980000 0.000576
0.569341 0.980000 0.000640
0.721350 0.980000 0.000128
0.874210 0.980000 0.000000
0.970000 0.980000 0.000222
0.970000 0.980000 0.000000
0.027319 0.033015 0.116021
0.159623 0.028907 0.112060
0.308090 0.027717 0.110321
0.465811 0.026622 0.108191
0.630235 0.025484 0.107410
0.800495 0.023649 0.106604
0.957289 0.022339 0.104992
0.970000 0.021711 0.104276
0.970000 0.020982 0.103868
0.019545 0.156401 0.107616
0.150252 0.154331 0.106547
0.307858 0.156747 0.105340
0.468406 0.156001 0.104747
0.636865 0.154961 0.104033
0.811077 0.153475 0.104024
0.965139 0.153330 0.103803
0.970000 0.151443 0.104291
0.970000 0.150549 0.104036
0.015206 0.293933 0.104348
0.144614 0.292410 0.103731
0.289313 0.290932 0.104212
0.472651 0.300522 0.104172
0.643616 0.299109 0.103863
0.819270 0.298943 0.104618
0.969631 0.298272 0.104926
0.970000 0.297420 0.105170
0.970000 0.295954 0.105552
0.011669 0.438299 0.104130
0.141171 0.437061 0.104428
0.284979 0.435864 0.105172
0.474267 0.453864 0.105279
0.644876 0.452823 0.105128
0.819641 0.451125 0.105637
0.968483 0.450200 0.106173
0.970000 0.448809 0.106056
0.970000 0.447251 0.106715
0.009169 0.588305 0.104872
0.138796 0.587075 0.105350
0.282681 0.586542 0.105943
0.434363 0.585299 0.106124
0.640309 0.608606 0.106635
0.811467 0.606885 0.106950
0.961451 0.604145 0.106816
0.970000 0.601459 0.107818
0.970000 0.599908 0.107560
0.008030 0.742494 0.106664
0.136066 0.742129 0.106826
0.280829 0.741034 0.107442
0.432173 0.740190 0.107246
0.588219 0.739012 0.107188
0.795528 0.760719 0.107648
0.949117 0.758384 0.108228
0.970000 0.754692 0.108930
0.970000 0.752383 0.109062
0.006008 0.900841 0.107715
0.134337 0.899853 0.107757
0.278673 0.899584 0.108136
0.430201 0.898831 0.108243
0.586539 0.897576 0.108221
0.747173 0.896727 0.108677
0.933952 0.910633 0.109201
0.970000 0.900972 0.109181
0.970000 0.891047 0.109168
0.004894 0.980000 0.108423
0.132758 0.980000 0.108371
0.277162 0.980000 0.109201
0.427404 0.980000 0.109137
0.579854 0.980000 0.108619
0.734552 0.980000 0.108680
0.891165 0.980000 0.108962
0.970000 0.980000 0.108936
0.970000 0.980000 0.108157
0.004708 0.980000 0.109272
0.130775 0.980000 0.109218
0.271814 0.980000 0.108950
0.417962 0.980000 0.108265
0.567303 0.980000 0.108210
0.719291 0.980000 0.108236
0.872332 0.980000 0.108409
0.970000 0.980000 0.108278
0.970000 0.980000 0.107729
0.026302 0.031166 0.220507
0.155488 0.028419 0.218929
0.308668 0.027107 0.218409
0.465856 0.026089 0.218058
0.630448 0.025107 0.217008
0.801744 0.023454 0.217671
0.957978 0.022152 0.217456
0.970000 0.021580 0.217737
0.970000 0.020255 0.217594
0.019399 0.155375 0.217284
0.149393 0.154062 0.217559
0.308160 0.156781 0.216713
0.469258 0.155354 0.217692
0.637973 0.154197 0.217529
0.812600 0.153288 0.217638
0.965906 0.152506 0.218613
0.970000 0.151975 0.220233
0.970000 0.150869 0.221372
0.015118 0.293703 0.216952
0.144630 0.291777 0.217608
0.288959 0.290539 0.217973
0.472938 0.299671 0.219726
0.643590 0.298907 0.220153
0.819538 0.298279 0.221266
0.969485 0.297182 0.222718
0.970000 0.296873 0.223929
0.970000 0.295795 0.224364
0.011773 0.438466 0.219419
0.140936 0.436149 0.220723
0.285116 0.435316 0.221482
0.474272 0.453192 0.223187
0.644830 0.452623 0.223466
0.819103 0.451471 0.225050
0.968130 0.449544 0.226096
0.970000 0.448292 0.226598
0.970000 0.446206 0.227641
0.009222 0.588284 0.223465
0.137871 0.587172 0.224056
0.282343 0.585260 0.224585
0.433750 0.584642 0.225982
0.639178 0.607442 0.226574
0.809768 0.606163 0.227856
0.960243 0.603057 0.228854
0.970000 0.601476 0.229548
0.970000 0.598690 0.230396
0.007820 0.742340 0.226623
0.136271 0.741738 0.227595
0.279793 0.740534 0.228244
0.432022 0.739249 0.229128
0.588647 0.739187 0.229772
0.793655 0.759751 0.230287
0.947422 0.757619 0.231313
0.970000 0.754016 0.232157
0.970000 0.750964 0.232519
0.006551 0.900168 0.229314
0.134807 0.899462 0.229630
0.278703 0.898818 0.230937
0.429700 0.898321 0.231369
0.586507 0.897373 0.232021
0.747367 0.896484 0.233084
0.931446 0.907462 0.233516
0.970000 0.897110 0.233067
0.970000 0.887522 0.232758
0.005074 0.980000 0.232214
0.133228 0.980000 0.232927
0.277528 0.980000 0.233616
0.426811 0.980000 0.233389
0.578650 0.980000 0.233324
0.733779 0.980000 0.232454
0.889004 0.980000 0.232530
0.970000 0.980000 0.232112
0.970000 0.980000 0.231809
0.004257 0.980000 0.233150
0.130692 0.980000 0.232750
0.271221 0.980000 0.232567
0.417235 0.980000 0.231932
0.566320 0.980000 0.231713
0.717954 0.980000 0.231671
0.870638 0.980000 0.231381
0.970000 0.980000 0.231041
0.970000 0.980000 0.230524
0.023743 0.029396 0.331134
0.154967 0.027648 0.332141
0.299070 0.026249 0.332672
0.466286 0.025555 0.333373
0.631683 0.024099 0.334105
0.802759 0.022764 0.334625
0.958970 0.021787 0.335421
0.970000 0.020602 0.336894
0.970000 0.020346 0.338106
0.019065 0.154459 0.333290
0.149030 0.153786 0.334051
0.292535 0.151939 0.334891
0.469441 0.154616 0.336157
0.638710 0.153755 0.337168
0.812797 0.152882 0.339118
0.966223 0.152564 0.340578
0.970000 0.151390 0.342299
0.970000 0.150317 0.344093
0.015040 0.292855 0.336962
0.144007 0.291597 0.338202
0.288649 0.290348 0.339097
0.473846 0.299702 0.341759
0.644431 0.299218 0.342931
0.819905 0.298313 0.344429
0.969557 0.297294 0.347071
0.970000 0.295900 0.348292
0.970000 0.295038 0.349722
0.012007 0.437801 0.342457
0.140741 0.436503 0.344194
0.284819 0.434618 0.345320
0.474630 0.453101 0.347325
0.645286 0.451751 0.349287
0.819070 0.450457 0.350071
0.967511 0.449492 0.351844
0.970000 0.447693 0.353559
0.970000 0.445766 0.355388
0.009019 0.587611 0.347764
0.138453 0.586255 0.349446
0.281803 0.585864 0.351123
0.433367 0.584378 0.352933
0.638057 0.607272 0.354264
0.808438 0.605504 0.355984
0.959112 0.602752 0.357049
0.970000 0.600095 0.358343
0.970000 0.597527 0.359645
0.007067 0.741920 0.352598
0.135493 0.741327 0.354832
0.279745 0.739872 0.356187
0.431713 0.739780 0.357378
0.587965 0.738933 0.359059
0.791880 0.759109 0.360482
0.946226 0.755609 0.360954
0.970000 0.753429 0.362845
0.970000 0.750231 0.363834
0.005883 0.900257 0.357895
0.134339 0.899494 0.358739
0.278504 0.898195 0.359952
0.430032 0.897762 0.361661
0.586743 0.897538 0.362887
0.746748 0.896719 0.364307
0.928331 0.903840 0.363529
0.970000 0.894443 0.363319
0.970000 0.884063 0.363536
0.004568 0.980000 0.362311
0.133444 0.980000 0.363745
0.276406 0.980000 0.363606
0.425276 0.980000 0.364244
0.577704 0.980000 0.363362
0.731755 0.980000 0.362888
0.887108 0.980000 0.362396
0.970000 0.980000 0.362109
0.970000 0.980000 0.361617
0.003951 0.980000 0.363230
0.130053 0.980000 0.362936
0.269995 0.980000 0.363199
0.416186 0.980000 0.362456
0.565269 0.980000 0.361588
0.716020 0.980000 0.361281
0.868164 0.980000 0.360286
0.970000 0.980000 0.360307
0.970000 0.980000 0.358849
0.023738 0.028507 0.448611
0.154563 0.027259 0.449397
0.297703 0.025578 0.451818
0.466599 0.025096 0.453533
0.631668 0.023628 0.454532
0.803670 0.022784 0.456972
0.959523 0.021669 0.459350
0.970000 0.020281 0.461073
0.970000 0.019347 0.463626
0.017914 0.154879 0.453509
0.147979 0.153321 0.455327
0.292631 0.151071 0.457745
0.442820 0.150038 0.459740
0.638935 0.154227 0.461793
0.814043 0.152483 0.464517
0.966777 0.151919 0.466498
0.970000 0.150925 0.469216
0.970000 0.149881 0.471779
0.014232 0.292167 0.460501
0.143911 0.290914 0.462717
0.287456 0.289116 0.465622
0.438838 0.288610 0.468234
0.644338 0.298559 0.470431
0.820915 0.297795 0.473502
0.969764 0.296601 0.474979
0.970000 0.296523 0.477537
0.970000 0.294690 0.479974
0.011630 0.436768 0.468520
0.140058 0.436234 0.471089
0.284876 0.434490 0.474010
0.435699 0.433777 0.476707
0.644007 0.451835 0.478861
0.817785 0.449967 0.480602
0.966888 0.448817 0.482986
0.970000 0.447447 0.485686
0.970000 0.445593 0.486896
0.009196 0.587524 0.477023
0.138302 0.585670 0.479109
0.281798 0.585490 0.482185
0.433654 0.584500 0.483362
0.636620 0.606324 0.486336
0.806980 0.603964 0.488142
0.957788 0.602048 0.489945
0.970000 0.599735 0.491558
0.970000 0.596683 0.493941
0.007709 0.741783 0.484368
0.135924 0.740701 0.486367
0.280026 0.739500 0.488302
0.431395 0.738823 0.490929
0.588385 0.738319 0.492404
0.790326 0.758347 0.494238
0.944362 0.754751 0.496173
0.970000 0.751853 0.497293
0.970000 0.749197 0.499330
0.005880 0.899833 0.491137
0.134390 0.899499 0.493250
0.278092 0.898363 0.494519
0.429780 0.897839 0.496481
0.586211 0.897017 0.497925
0.746566 0.894902 0.499450
0.925336 0.900925 0.498826
0.970000 0.890931 0.498216
0.970000 0.881402 0.498177
0.005129 0.980000 0.497135
0.133117 0.980000 0.498488
0.276339 0.980000 0.499065
0.424838 0.980000 0.499197
0.576430 0.980000 0.498529
0.730023 0.980000 0.497231
0.885025 0.980000 0.496557
0.970000 0.980000 0.496030
0.970000 0.980000 0.495527
0.004233 0.980000 0.498263
0.129941 0.980000 0.498227
0.269247 0.980000 0.497263
0.415004 0.980000 0.496526
0.563921 0.980000 0.495953
0.715042 0.980000 0.494809
0.866280 0.980000 0.494843
0.970000 0.980000 0.493189
0.970000 0.980000 0.492927
0.022397 0.028696 0.569040
0.152986 0.027089 0.571501
0.297536 0.025597 0.574497
0.448236 0.023665 0.577138
0.632252 0.022936 0.580017
0.804725 0.022446 0.583151
0.960388 0.021016 0.586161
0.970000 0.020769 0.589367
0.970000 0.019498 0.591950
0.017781 0.154181 0.578484
0.147308 0.152842 0.581215
0.291180 0.151200 0.583752
0.443049 0.149672 0.587239
0.639768 0.153245 0.590501
0.814641 0.152562 0.593746
0.967377 0.151845 0.597387
0.970000 0.150380 0.600835
0.970000 0.149374 0.603789
0.013529 0.291536 0.588411
0.143623 0.290646 0.590812
0.287869 0.289346 0.594527
0.438403 0.287609 0.598728
0.645294 0.298056 0.601973
0.820572 0.297327 0.605142
0.970000 0.297037 0.608127
0.970000 0.295182 0.611577
0.970000 0.294771 0.614321
0.011178 0.436884 0.599779
0.140546 0.434875 0.602480
0.283840 0.433668 0.606516
0.435661 0.433416 0.608724
0.591565 0.431510 0.612239
0.817223 0.449830 0.614833
0.966401 0.448113 0.617853
0.970000 0.446769 0.620904
0.970000 0.444417 0.623496
0.008402 0.586820 0.610176
0.137360 0.585225 0.612965
0.281491 0.584514 0.616152
0.433316 0.584011 0.619256
0.589283 0.582607 0.622076
0.805080 0.603350 0.623709
0.956877 0.600802 0.626547
0.970000 0.598797 0.629275
0.970000 0.595829 0.631739
0.007116 0.741333 0.619519
0.135559 0.740859 0.622960
0.279663 0.739210 0.625459
0.430815 0.738451 0.627833
0.587925 0.738624 0.630035
0.787786 0.757306 0.632269
0.943263 0.754313 0.634739
0.970000 0.750776 0.636337
0.970000 0.747672 0.638461
0.005800 0.899696 0.628238
0.134286 0.898945 0.630903
0.277869 0.897735 0.632968
0.429466 0.897118 0.635306
0.586191 0.896799 0.637170
0.744055 0.892940 0.637460
0.922872 0.897648 0.637349
0.970000 0.887774 0.636395
0.970000 0.878313 0.636110
0.004924 0.980000 0.635518
0.132645 0.980000 0.638374
0.274804 0.980000 0.638093
0.423167 0.980000 0.637237
0.574593 0.980000 0.635988
0.728986 0.980000 0.635209
0.883728 0.980000 0.634955
0.970000 0.980000 0.633817
0.970000 0.980000 0.632979
0.004053 0.980000 0.636848
0.129247 0.980000 0.635966
0.268904 0.980000 0.635241
0.413952 0.980000 0.634748
0.563053 0.980000 0.633844
0.713511 0.980000 0.632625
0.865087 0.980000 0.631751
0.970000 0.980000 0.630539
0.970000 0.980000 0.629233
0.022244 0.027735 0.692230
0.152834 0.025855 0.695948
0.296683 0.025235 0.699994
0.447873 0.023994 0.704604
0.603129 0.022250 0.707834
0.805731 0.022200 0.712450
0.961462 0.021372 0.716216
0.970000 0.020416 0.720108
0.970000 0.018665 0.724596
0.016893 0.153150 0.705513
0.146904 0.152195 0.709180
0.291083 0.150265 0.713552
0.442543 0.149788 0.716971
0.598361 0.147937 0.721505
0.816383 0.152499 0.726110
0.968040 0.151565 0.730245
0.970000 0.149912 0.734331
0.970000 0.148880 0.738775
0.013108 0.291307 0.718694
0.142696 0.290492 0.723084
0.286872 0.289094 0.728065
0.438047 0.287744 0.731708
0.594212 0.286017 0.735620
0.820388 0.297792 0.740460
0.969952 0.296342 0.743919
0.970000 0.295475 0.747810
0.970000 0.294253 0.750876
0.011259 0.435742 0.732991
0.139408 0.435078 0.737299
0.284031 0.433289 0.741961
0.434780 0.432867 0.745612
0.591359 0.431942 0.748861
0.816633 0.449100 0.752512
0.965298 0.447066 0.755832
0.970000 0.445887 0.759335
0.970000 0.443473 0.761953
0.008863 0.586232 0.746114
0.137178 0.585564 0.750514
0.281161 0.584702 0.753628
0.432946 0.583114 0.757182
0.589807 0.582951 0.760351
0.803499 0.602295 0.763387
0.955704 0.600602 0.766206
0.970000 0.597794 0.769134
0.970000 0.595028 0.772011
0.006653 0.741504 0.758781
0.135631 0.740655 0.761906
0.279540 0.739273 0.764986
0.430971 0.739075 0.767841
0.587385 0.738143 0.770122
0.748030 0.737582 0.773467
0.941856 0.752752 0.776082
0.970000 0.749864 0.778770
0.970000 0.744139 0.779021
0.005521 0.899618 0.768915
0.133866 0.898656 0.771948
0.277864 0.897782 0.774017
0.429201 0.897070 0.776759
0.586566 0.897193 0.779598
0.742492 0.890444 0.779332
0.919649 0.893570 0.778457
0.970000 0.884766 0.777984
0.970000 0.875418 0.776696
0.004472 0.980000 0.778062
0.131976 0.980000 0.779506
0.274853 0.980000 0.779248
0.422659 0.980000 0.778690
0.573820 0.980000 0.777364
0.727141 0.980000 0.776784
0.881363 0.980000 0.774878
0.970000 0.980000 0.774242
0.970000 0.980000 0.772548
0.004409 0.980000 0.778052
0.128791 0.980000 0.776557
0.268013 0.980000 0.776045
0.412703 0.980000 0.775447
0.561024 0.980000 0.773725
0.711208 0.980000 0.772612
0.862924 0.980000 0.771015
0.970000 0.980000 0.770279
0.970000 0.980000 0.768429
0.021396 0.027362 0.818309
0.152508 0.025962 0.824082
0.295675 0.024046 0.828792
0.446973 0.023054 0.834106
0.602398 0.022113 0.838855
0.762712 0.020925 0.843927
0.962427 0.020978 0.849331
0.970000 0.019741 0.853507
0.970000 0.018881 0.858905
0.016811 0.152794 0.836223
0.146941 0.151673 0.840320
0.291181 0.150650 0.845973
0.442119 0.148904 0.850231
0.598170 0.147699 0.856481
0.758490 0.146458 0.860865
0.968098 0.150530 0.866086
0.970000 0.150122 0.871531
0.970000 0.149287 0.876251
0.012868 0.291258 0.853054
0.143173 0.289134 0.858097
0.286984 0.287764 0.863069
0.438236 0.286779 0.867882
0.594336 0.285526 0.872954
0.754716 0.284607 0.877854
0.969553 0.295839 0.882461
0.970000 0.295078 0.886824
0.970000 0.293643 0.891003
0.010988 0.435989 0.870260
0.139635 0.434805 0.875217
0.283976 0.433729 0.880047
0.434621 0.432062 0.884279
0.591097 0.431434 0.888757
0.751472 0.430236 0.892481
0.964531 0.447215 0.896958
0.970000 0.445232 0.900267
0.970000 0.443045 0.904234
0.008590 0.586402 0.885281
0.137375 0.585283 0.890144
0.280931 0.583783 0.894120
0.432943 0.582821 0.898020
0.589102 0.582398 0.902052
0.749231 0.581650 0.905129
0.953917 0.599217 0.908732
0.970000 0.596722 0.912305
0.970000 0.594486 0.916087
0.007035 0.740804 0.899606
0.135376 0.740392 0.903650
0.279269 0.738966 0.906595
0.431184 0.738349 0.910174
0.587063 0.737600 0.914287
0.748154 0.737448 0.917029
0.940266 0.752206 0.920481
0.970000 0.748875 0.922853
0.970000 0.742089 0.922869
0.005573 0.899077 0.911668
0.134006 0.898515 0.914723
0.277255 0.897709 0.918692
0.428896 0.897510 0.921201
0.585077 0.894873 0.923342
0.741631 0.887177 0.922565
0.897853 0.880400 0.921812
0.970000 0.881149 0.921000
0.970000 0.872308 0.920050
0.004961 0.980000 0.922190
0.131712 0.980000 0.923416
0.273567 0.980000 0.922528
0.421788 0.980000 0.921374
0.572840 0.980000 0.920431
0.725999 0.980000 0.919602
0.879454 0.980000 0.917685
0.970000 0.980000 0.916666
0.970000 0.978910 0.914895
0.004331 0.980000 0.921332
0.128463 0.980000 0.919656
0.267441 0.980000 0.918848
0.412225 0.980000 0.917274
0.560489 0.980000 0.916249
0.710357 0.980000 0.914561
0.861446 0.980000 0.913341
0.970000 0.980000 0.911192
0.970000 0.980000 0.910131
0.021100 0.026880 0.947556
0.151366 0.025159 0.954022
0.295260 0.024216 0.960570
0.446401 0.023318 0.966643
0.601804 0.021892 0.972621
0.762065 0.021012 0.978376
0.920939 0.019380 0.983507
0.970000 0.018877 0.990093
0.970000 0.017656 0.995239
0.016384 0.152708 0.968630
0.146592 0.150712 0.974681
0.289759 0.149548 0.980642
0.441497 0.148561 0.985864
0.597970 0.146601 0.991984
0.757579 0.145629 0.997522
0.917745 0.144230 1.000000
0.970000 0.149887 1.000000
0.970000 0.148608 1.000000
0.012722 0.290219 0.988445
0.142017 0.289402 0.993403
0.285966 0.287608 0.998844
0.437656 0.286160 1.000000
0.593754 0.285221 1.000000
0.753764 0.284633 1.000000
0.914580 0.283372 1.000000
0.970000 0.294597 1.000000
0.970000 0.292830 1.000000
0.009880 0.435218 1.000000
0.139803 0.434441 1.000000
0.283599 0.433368 1.000000
0.434503 0.432002 1.000000
0.591473 0.431174 1.000000
0.751764 0.430111 1.000000
0.912708 0.429571 1.000000
0.970000 0.444803 1.000000
0.970000 0.443041 1.000000
0.008250 0.585592 1.000000
0.136685 0.585045 1.000000
0.281209 0.583566 1.000000
0.432798 0.583139 1.000000
0.588960 0.581986 1.000000
0.749571 0.581799 1.000000
0.911335 0.580654 1.000000
0.970000 0.596027 1.000000
0.970000 0.593661 1.000000
0.006411 0.740655 1.000000
0.135483 0.739405 1.000000
0.279442 0.739040 1.000000
0.430528 0.737922 1.000000
0.586843 0.737401 1.000000
0.747734 0.736711 1.000000
0.909986 0.736697 1.000000
0.970000 0.746802 1.000000
0.970000 0.739243 1.000000
0.005659 0.898662 1.000000
0.133619 0.897853 1.000000
0.277782 0.897094 1.000000
0.429150 0.897161 1.000000
0.583900 0.892053 1.000000
0.740138 0.884929 1.000000
0.896195 0.877120 1.000000
0.970000 0.878448 1.000000
0.970000 0.869328 1.000000
0.004934 0.980000 1.000000
0.131706 0.980000 1.000000
0.272971 0.980000 1.000000
0.420297 0.980000 1.000000
0.571623 0.980000 1.000000
0.723765 0.980000 1.000000
0.877693 0.980000 1.000000
0.970000 0.980000 1.000000
0.970000 0.976857 1.000000
0.004232 0.980000 1.000000
0.128454 0.980000 1.000000
0.267226 0.980000 1.000000
0.410833 0.980000 1.000000
0.559229 0.980000 1.000000
0.708132 0.980000 1.000000
0.859157 0.980000 1.000000
0.970000 0.980000 1.000000
0.970000 0.980000 1.000000
