Resources/LUTs/Kodak_Tri-X_400_Orange_Linear.cube
# Kodak Tri-X 400 Black & White Film Emulation
# Generated with spectral sensitivity and characteristic curve data
# 
# Spectral Weights: R=0.18, G=0.52, B=0.3
# Contrast: High (Tri-X signature)
# 
TITLE "Kodak Tri-X 400 + Orange Filter"
LUT_3D_SIZE 9
DOMAIN_MIN 0.0 0.0 0.0
DOMAIN_MAX 1.0 1.0 1.0
0.015000 0.015000 0.015000
0.017312 0.017312 0.017312
0.023197 0.023197 0.023197
0.041584 0.041584 0.041584
0.061061 0.061061 0.061061
0.083009 0.083009 0.083009
0.121156 0.121156 0.121156
0.205367 0.205367 0.205367
0.315316 0.315316 0.315316
0.018468 0.018468 0.018468
0.020780 0.020780 0.020780
0.029801 0.029801 0.029801
0.046333 0.046333 0.046333
0.064828 0.064828 0.064828
0.086249 0.086249 0.086249
0.129256 0.129256 0.129256
0.214086 0.214086 0.214086
0.324783 0.324783 0.324783
0.031109 0.031109 0.031109
0.035302 0.035302 0.035302
0.044099 0.044099 0.044099
0.057124 0.057124 0.057124
0.073931 0.073931 0.073931
0.094252 0.094252 0.094252
0.150153 0.150153 0.150153
0.236558 0.236558 0.236558
0.349157 0.349157 0.349157
0.053675 0.053675 0.053675
0.056390 0.056390 0.056390
0.062977 0.062977 0.062977
0.073880 0.073880 0.073880
0.088919 0.088919 0.088919
0.121160 0.121160 0.121160
0.188411 0.188411 0.188411
0.277625 0.277625 0.277625
0.393615 0.393615 0.393615
0.078788 0.078788 0.078788
0.081008 0.081008 0.081008
0.086532 0.086532 0.086532
0.095999 0.095999 0.095999
0.125883 0.125883 0.125883
0.177723 0.177723 0.177723
0.248374 0.248374 0.248374
0.341815 0.341815 0.341815
0.462064 0.462064 0.462064
0.121247 0.121247 0.121247
0.126641 0.126641 0.126641
0.140494 0.140494 0.140494
0.165641 0.165641 0.165641
0.204544 0.204544 0.204544
0.259989 0.259989 0.259989
0.335305 0.335305 0.335305
0.434490 0.434490 0.434490
0.552115 0.552115 0.552115
0.223640 0.223640 0.223640
0.229532 0.229532 0.229532
0.244653 0.244653 0.244653
0.272058 0.272058 0.272058
0.314362 0.314362 0.314362
0.374471 0.374471 0.374471
0.455263 0.455263 0.455263
0.552055 0.552055 0.552055
0.660621 0.660621 0.660621
0.363555 0.363555 0.363555
0.370066 0.370066 0.370066
0.386762 0.386762 0.386762
0.416977 0.416977 0.416977
0.462637 0.462637 0.462637
0.523250 0.523250 0.523250
0.598119 0.598119 0.598119
0.685582 0.685582 0.685582
0.778297 0.778297 0.778297
0.542222 0.542222 0.542222
0.548466 0.548466 0.548466
0.564236 0.564236 0.564236
0.591919 0.591919 0.591919
0.632516 0.632516 0.632516
0.686128 0.686128 0.686128
0.751675 0.751675 0.751675
0.816663 0.816663 0.816663
0.884760 0.884760 0.884760
0.016395 0.016395 0.016395
0.018707 0.018707 0.018707
0.024592 0.024592 0.024592
0.043543 0.043543 0.043543
0.062592 0.062592 0.062592
0.084320 0.084320 0.084320
0.124407 0.124407 0.124407
0.208867 0.208867 0.208867
0.319117 0.319117 0.319117
0.019863 0.019863 0.019863
0.022175 0.022175 0.022175
0.032579 0.032579 0.032579
0.048144 0.048144 0.048144
0.066310 0.066310 0.066310
0.087536 0.087536 0.087536
0.132532 0.132532 0.132532
0.217611 0.217611 0.217611
0.328608 0.328608 0.328608
0.033723 0.033723 0.033723
0.037563 0.037563 0.037563
0.045974 0.045974 0.045974
0.058713 0.058713 0.058713
0.075316 0.075316 0.075316
0.095488 0.095488 0.095488
0.153493 0.153493 0.153493
0.240147 0.240147 0.240147
0.353045 0.353045 0.353045
0.055323 0.055323 0.055323
0.057990 0.057990 0.057990
0.064482 0.064482 0.064482
0.075266 0.075266 0.075266
0.090188 0.090188 0.090188
0.124412 0.124412 0.124412
0.191863 0.191863 0.191863
0.281326 0.281326 0.281326
0.397616 0.397616 0.397616
0.080131 0.080131 0.080131
0.082334 0.082334 0.082334
0.087818 0.087818 0.087818
0.097225 0.097225 0.097225
0.129149 0.129149 0.129149
0.181144 0.181144 0.181144
0.251995 0.251995 0.251995
0.345685 0.345685 0.345685
0.466041 0.466041 0.466041
0.124499 0.124499 0.124499
0.129909 0.129909 0.129909
0.143805 0.143805 0.143805
0.169026 0.169026 0.169026
0.208042 0.208042 0.208042
0.263642 0.263642 0.263642
0.339158 0.339158 0.339158
0.438536 0.438536 0.438536
0.555860 0.555860 0.555860
0.227192 0.227192 0.227192
0.233101 0.233101 0.233101
0.248263 0.248263 0.248263
0.275744 0.275744 0.275744
0.318161 0.318161 0.318161
0.378425 0.378425 0.378425
0.459257 0.459257 0.459257
0.555800 0.555800 0.555800
0.664066 0.664066 0.664066
0.367481 0.367481 0.367481
0.374008 0.374008 0.374008
0.390746 0.390746 0.390746
0.421036 0.421036 0.421036
0.466613 0.466613 0.466613
0.527071 0.527071 0.527071
0.601740 0.601740 0.601740
0.688954 0.688954 0.688954
0.780924 0.780924 0.780924
0.545993 0.545993 0.545993
0.552221 0.552221 0.552221
0.567949 0.567949 0.567949
0.595557 0.595557 0.595557
0.636041 0.636041 0.636041
0.689498 0.689498 0.689498
0.754413 0.754413 0.754413
0.819111 0.819111 0.819111
0.886803 0.886803 0.886803
0.019946 0.019946 0.019946
0.022258 0.022258 0.022258
0.032734 0.032734 0.032734
0.048251 0.048251 0.048251
0.066398 0.066398 0.066398
0.087612 0.087612 0.087612
0.132728 0.132728 0.132728
0.217822 0.217822 0.217822
0.328837 0.328837 0.328837
0.023414 0.023414 0.023414
0.027577 0.027577 0.027577
0.038507 0.038507 0.038507
0.052557 0.052557 0.052557
0.070005 0.070005 0.070005
0.090773 0.090773 0.090773
0.140917 0.140917 0.140917
0.226629 0.226629 0.226629
0.338391 0.338391 0.338391
0.039462 0.039462 0.039462
0.042803 0.042803 0.042803
0.050516 0.050516 0.050516
0.062650 0.062650 0.062650
0.078787 0.078787 0.078787
0.098603 0.098603 0.098603
0.162037 0.162037 0.162037
0.249325 0.249325 0.249325
0.362989 0.362989 0.362989
0.059391 0.059391 0.059391
0.061954 0.061954 0.061954
0.068230 0.068230 0.068230
0.078738 0.078738 0.078738
0.093383 0.093383 0.093383
0.132733 0.132733 0.132733
0.200694 0.200694 0.200694
0.290791 0.290791 0.290791
0.407846 0.407846 0.407846
0.083503 0.083503 0.083503
0.085663 0.085663 0.085663
0.091050 0.091050 0.091050
0.100831 0.100831 0.100831
0.137507 0.137507 0.137507
0.189896 0.189896 0.189896
0.261257 0.261257 0.261257
0.355581 0.355581 0.355581
0.476120 0.476120 0.476120
0.132821 0.132821 0.132821
0.138273 0.138273 0.138273
0.152276 0.152276 0.152276
0.177688 0.177688 0.177688
0.216991 0.216991 0.216991
0.272984 0.272984 0.272984
0.349010 0.349010 0.349010
0.448788 0.448788 0.448788
0.565348 0.565348 0.565348
0.236279 0.236279 0.236279
0.242229 0.242229 0.242229
0.257499 0.257499 0.257499
0.285170 0.285170 0.285170
0.327874 0.327874 0.327874
0.388532 0.388532 0.388532
0.469379 0.469379 0.469379
0.565288 0.565288 0.565288
0.672788 0.672788 0.672788
0.377518 0.377518 0.377518
0.384087 0.384087 0.384087
0.400932 0.400932 0.400932
0.431388 0.431388 0.431388
0.476688 0.476688 0.476688
0.536751 0.536751 0.536751
0.610911 0.610911 0.610911
0.697491 0.697491 0.697491
0.787558 0.787558 0.787558
0.555548 0.555548 0.555548
0.561733 0.561733 0.561733
0.577354 0.577354 0.577354
0.604771 0.604771 0.604771
0.644968 0.644968 0.644968
0.698031 0.698031 0.698031
0.761333 0.761333 0.761333
0.825285 0.825285 0.825285
0.891935 0.891935 0.891935
0.028941 0.028941 0.028941
0.033547 0.033547 0.033547
0.042695 0.042695 0.042695
0.055951 0.055951 0.055951
0.072914 0.072914 0.072914
0.093347 0.093347 0.093347
0.147728 0.147728 0.147728
0.233952 0.233952 0.233952
0.346332 0.346332 0.346332
0.035537 0.035537 0.035537
0.039189 0.039189 0.039189
0.047358 0.047358 0.047358
0.059900 0.059900 0.059900
0.076357 0.076357 0.076357
0.096420 0.096420 0.096420
0.156029 0.156029 0.156029
0.242872 0.242872 0.242872
0.355998 0.355998 0.355998
0.048170 0.048170 0.048170
0.051070 0.051070 0.051070
0.058021 0.058021 0.058021
0.069354 0.069354 0.069354
0.084801 0.084801 0.084801
0.110826 0.110826 0.110826
0.177436 0.177436 0.177436
0.265854 0.265854 0.265854
0.380882 0.380882 0.380882
0.066277 0.066277 0.066277
0.068695 0.068695 0.068695
0.074661 0.074661 0.074661
0.084753 0.084753 0.084753
0.098960 0.098960 0.098960
0.147733 0.147733 0.147733
0.216603 0.216603 0.216603
0.307830 0.307830 0.307830
0.426248 0.426248 0.426248
0.089361 0.089361 0.089361
0.091455 0.091455 0.091455
0.096689 0.096689 0.096689
0.115385 0.115385 0.115385
0.152573 0.152573 0.152573
0.205664 0.205664 0.205664
0.277934 0.277934 0.277934
0.373388 0.373388 0.373388
0.493933 0.493933 0.493933
0.147822 0.147822 0.147822
0.153350 0.153350 0.153350
0.167543 0.167543 0.167543
0.193295 0.193295 0.193295
0.233111 0.233111 0.233111
0.289807 0.289807 0.289807
0.366741 0.366741 0.366741
0.466912 0.466912 0.466912
0.582107 0.582107 0.582107
0.252644 0.252644 0.252644
0.258669 0.258669 0.258669
0.274130 0.274130 0.274130
0.302142 0.302142 0.302142
0.345358 0.345358 0.345358
0.406718 0.406718 0.406718
0.487269 0.487269 0.487269
0.582048 0.582048 0.582048
0.688184 0.688184 0.688184
0.395578 0.395578 0.395578
0.402223 0.402223 0.402223
0.419258 0.419258 0.419258
0.449707 0.449707 0.449707
0.494494 0.494494 0.494494
0.553856 0.553856 0.553856
0.627106 0.627106 0.627106
0.712557 0.712557 0.712557
0.799203 0.799203 0.799203
0.572426 0.572426 0.572426
0.578536 0.578536 0.578536
0.593966 0.593966 0.593966
0.621044 0.621044 0.621044
0.660728 0.660728 0.660728
0.713089 0.713089 0.713089
0.773494 0.773494 0.773494
0.836095 0.836095 0.836095
0.900844 0.900844 0.900844
0.044531 0.044531 0.044531
0.047587 0.047587 0.047587
0.054823 0.054823 0.054823
0.066472 0.066472 0.066472
0.082201 0.082201 0.082201
0.104475 0.104475 0.104475
0.170688 0.170688 0.170688
0.258613 0.258613 0.258613
0.373045 0.373045 0.373045
0.049064 0.049064 0.049064
0.051931 0.051931 0.051931
0.058817 0.058817 0.058817
0.070077 0.070077 0.070077
0.085456 0.085456 0.085456
0.112447 0.112447 0.112447
0.179159 0.179159 0.179159
0.267702 0.267702 0.267702
0.382881 0.382881 0.382881
0.059526 0.059526 0.059526
0.062086 0.062086 0.062086
0.068356 0.068356 0.068356
0.078855 0.078855 0.078855
0.093491 0.093491 0.093491
0.133018 0.133018 0.133018
0.200996 0.200996 0.200996
0.291115 0.291115 0.291115
0.408196 0.408196 0.408196
0.075979 0.075979 0.075979
0.078238 0.078238 0.078238
0.083851 0.083851 0.083851
0.093445 0.093445 0.093445
0.119173 0.119173 0.119173
0.170693 0.170693 0.170693
0.240931 0.240931 0.240931
0.333859 0.333859 0.333859
0.453823 0.453823 0.453823
0.097858 0.097858 0.097858
0.099868 0.099868 0.099868
0.113155 0.113155 0.113155
0.137673 0.137673 0.137673
0.175632 0.175632 0.175632
0.229780 0.229780 0.229780
0.303418 0.303418 0.303418
0.400573 0.400573 0.400573
0.520352 0.520352 0.520352
0.170784 0.170784 0.170784
0.176424 0.176424 0.176424
0.190905 0.190905 0.190905
0.217169 0.217169 0.217169
0.257755 0.257755 0.257755
0.315508 0.315508 0.315508
0.393811 0.393811 0.393811
0.493798 0.493798 0.493798
0.606940 0.606940 0.606940
0.277658 0.277658 0.277658
0.283796 0.283796 0.283796
0.299543 0.299543 0.299543
0.328067 0.328067 0.328067
0.372054 0.372054 0.372054
0.434418 0.434418 0.434418
0.513804 0.513804 0.513804
0.606883 0.606883 0.606883
0.710966 0.710966 0.710966
0.423143 0.423143 0.423143
0.429886 0.429886 0.429886
0.446930 0.446930 0.446930
0.476887 0.476887 0.476887
0.520903 0.520903 0.520903
0.579208 0.579208 0.579208
0.651090 0.651090 0.651090
0.734840 0.734840 0.734840
0.816262 0.816262 0.816262
0.597438 0.597438 0.597438
0.603436 0.603436 0.603436
0.618579 0.618579 0.618579
0.645144 0.645144 0.645144
0.684058 0.684058 0.684058
0.735361 0.735361 0.735361
0.791352 0.791352 0.791352
0.851861 0.851861 0.851861
0.913638 0.913638 0.913638
0.060395 0.060395 0.060395
0.062935 0.062935 0.062935
0.069162 0.069162 0.069162
0.079606 0.079606 0.079606
0.094184 0.094184 0.094184
0.134851 0.134851 0.134851
0.202941 0.202941 0.202941
0.293198 0.293198 0.293198
0.410447 0.410447 0.410447
0.064184 0.064184 0.064184
0.066642 0.066642 0.066642
0.072696 0.072696 0.072696
0.082909 0.082909 0.082909
0.097244 0.097244 0.097244
0.143055 0.143055 0.143055
0.211643 0.211643 0.211643
0.302519 0.302519 0.302519
0.420515 0.420515 0.420515
0.073329 0.073329 0.073329
0.075627 0.075627 0.075627
0.081328 0.081328 0.081328
0.091050 0.091050 0.091050
0.112992 0.112992 0.112992
0.164217 0.164217 0.164217
0.234072 0.234072 0.234072
0.326523 0.326523 0.326523
0.446148 0.446148 0.446148
0.088369 0.088369 0.088369
0.090474 0.090474 0.090474
0.095733 0.095733 0.095733
0.112875 0.112875 0.112875
0.149975 0.149975 0.149975
0.202946 0.202946 0.202946
0.275060 0.275060 0.275060
0.370321 0.370321 0.370321
0.490893 0.490893 0.490893
0.124478 0.124478 0.124478
0.129888 0.129888 0.129888
0.143784 0.143784 0.143784
0.169004 0.169004 0.169004
0.208020 0.208020 0.208020
0.263618 0.263618 0.263618
0.339133 0.339133 0.339133
0.438510 0.438510 0.438510
0.555836 0.555836 0.555836
0.203039 0.203039 0.203039
0.208834 0.208834 0.208834
0.223709 0.223709 0.223709
0.250675 0.250675 0.250675
0.292319 0.292319 0.292319
0.351522 0.351522 0.351522
0.431674 0.431674 0.431674
0.529924 0.529924 0.529924
0.640250 0.640250 0.640250
0.312728 0.312728 0.312728
0.319021 0.319021 0.319021
0.335162 0.335162 0.335162
0.364388 0.364388 0.364388
0.409432 0.409432 0.409432
0.471938 0.471938 0.471938
0.549448 0.549448 0.549448
0.640194 0.640194 0.640194
0.741460 0.741460 0.741460
0.460920 0.460920 0.460920
0.467510 0.467510 0.467510
0.484161 0.484161 0.484161
0.513415 0.513415 0.513415
0.556375 0.556375 0.556375
0.613229 0.613229 0.613229
0.683234 0.683234 0.683234
0.762643 0.762643 0.762643
0.838727 0.838727 0.838727
0.630993 0.630993 0.630993
0.636836 0.636836 0.636836
0.651585 0.651585 0.651585
0.677448 0.677448 0.677448
0.715304 0.715304 0.715304
0.763078 0.763078 0.763078
0.814955 0.814955 0.814955
0.872472 0.872472 0.872472
0.929918 0.929918 0.929918
0.077890 0.077890 0.077890
0.080123 0.080123 0.080123
0.085674 0.085674 0.085674
0.095181 0.095181 0.095181
0.123721 0.123721 0.123721
0.175458 0.175458 0.175458
0.245977 0.245977 0.245977
0.339253 0.339253 0.339253
0.459419 0.459419 0.459419
0.081227 0.081227 0.081227
0.083416 0.083416 0.083416
0.088868 0.088868 0.088868
0.098228 0.098228 0.098228
0.131841 0.131841 0.131841
0.183963 0.183963 0.183963
0.254979 0.254979 0.254979
0.348874 0.348874 0.348874
0.469303 0.469303 0.469303
0.089442 0.089442 0.089442
0.091536 0.091536 0.091536
0.096768 0.096768 0.096768
0.115593 0.115593 0.115593
0.152788 0.152788 0.152788
0.205889 0.205889 0.205889
0.278172 0.278172 0.278172
0.373642 0.373642 0.373642
0.494184 0.494184 0.494184
0.108788 0.108788 0.108788
0.114119 0.114119 0.114119
0.127810 0.127810 0.127810
0.152666 0.152666 0.152666
0.191135 0.191135 0.191135
0.245982 0.245982 0.245982
0.320525 0.320525 0.320525
0.418804 0.418804 0.418804
0.537566 0.537566 0.537566
0.164702 0.164702 0.164702
0.170313 0.170313 0.170313
0.184718 0.184718 0.184718
0.210847 0.210847 0.210847
0.251231 0.251231 0.251231
0.308706 0.308706 0.308706
0.386649 0.386649 0.386649
0.486775 0.486775 0.486775
0.600457 0.600457 0.600457
0.246078 0.246078 0.246078
0.252073 0.252073 0.252073
0.267458 0.267458 0.267458
0.295333 0.295333 0.295333
0.338345 0.338345 0.338345
0.399424 0.399424 0.399424
0.480143 0.480143 0.480143
0.575374 0.575374 0.575374
0.682055 0.682055 0.682055
0.359409 0.359409 0.359409
0.365902 0.365902 0.365902
0.382554 0.382554 0.382554
0.412689 0.412689 0.412689
0.458416 0.458416 0.458416
0.519193 0.519193 0.519193
0.594274 0.594274 0.594274
0.682001 0.682001 0.682001
0.775503 0.775503 0.775503
0.508510 0.508510 0.508510
0.514900 0.514900 0.514900
0.531041 0.531041 0.531041
0.559386 0.559386 0.559386
0.600977 0.600977 0.600977
0.655955 0.655955 0.655955
0.723532 0.723532 0.723532
0.794536 0.794536 0.794536
0.866108 0.866108 0.866108
0.673116 0.673116 0.673116
0.678759 0.678759 0.678759
0.692998 0.692998 0.692998
0.717952 0.717952 0.717952
0.753837 0.753837 0.753837
0.794950 0.794950 0.794950
0.843896 0.843896 0.843896
0.897290 0.897290 0.897290
0.948577 0.948577 0.948577
0.097242 0.097242 0.097242
0.099258 0.099258 0.099258
0.111530 0.111530 0.111530
0.136011 0.136011 0.136011
0.173912 0.173912 0.173912
0.227983 0.227983 0.227983
0.301520 0.301520 0.301520
0.398549 0.398549 0.398549
0.518416 0.518416 0.518416
0.100684 0.100684 0.100684
0.105973 0.105973 0.105973
0.119557 0.119557 0.119557
0.144224 0.144224 0.144224
0.182406 0.182406 0.182406
0.236861 0.236861 0.236861
0.310896 0.310896 0.310896
0.408544 0.408544 0.408544
0.527927 0.527927 0.527927
0.121023 0.121023 0.121023
0.126416 0.126416 0.126416
0.140267 0.140267 0.140267
0.165408 0.165408 0.165408
0.204303 0.204303 0.204303
0.259737 0.259737 0.259737
0.335039 0.335039 0.335039
0.434211 0.434211 0.434211
0.551857 0.551857 0.551857
0.158285 0.158285 0.158285
0.163865 0.163865 0.163865
0.178190 0.178190 0.178190
0.204176 0.204176 0.204176
0.244345 0.244345 0.244345
0.301525 0.301525 0.301525
0.379087 0.379087 0.379087
0.479289 0.479289 0.479289
0.593543 0.593543 0.593543
0.216750 0.216750 0.216750
0.222610 0.222610 0.222610
0.237649 0.237649 0.237649
0.264908 0.264908 0.264908
0.306993 0.306993 0.306993
0.366800 0.366800 0.366800
0.447455 0.447455 0.447455
0.544732 0.544732 0.544732
0.653883 0.653883 0.653883
0.301626 0.301626 0.301626
0.307870 0.307870 0.307870
0.323888 0.323888 0.323888
0.352894 0.352894 0.352894
0.397605 0.397605 0.397605
0.460255 0.460255 0.460255
0.538354 0.538354 0.538354
0.629832 0.629832 0.629832
0.731983 0.731983 0.731983
0.419485 0.419485 0.419485
0.426226 0.426226 0.426226
0.443308 0.443308 0.443308
0.473332 0.473332 0.473332
0.517451 0.517451 0.517451
0.575894 0.575894 0.575894
0.647957 0.647957 0.647957
0.731931 0.731931 0.731931
0.814047 0.814047 0.814047
0.565629 0.565629 0.565629
0.571769 0.571769 0.571769
0.587276 0.587276 0.587276
0.614491 0.614491 0.614491
0.654383 0.654383 0.654383
0.707027 0.707027 0.707027
0.768607 0.768607 0.768607
0.831757 0.831757 0.831757
0.897281 0.897281 0.897281
0.723439 0.723439 0.723439
0.728832 0.728832 0.728832
0.742438 0.742438 0.742438
0.764028 0.764028 0.764028
0.793788 0.793788 0.793788
0.832141 0.832141 0.832141
0.877176 0.877176 0.877176
0.924946 0.924946 0.924946
0.967289 0.967289 0.967289
0.151931 0.151931 0.151931
0.157479 0.157479 0.157479
0.171724 0.171724 0.171724
0.197569 0.197569 0.197569
0.237523 0.237523 0.237523
0.294410 0.294410 0.294410
0.371591 0.371591 0.371591
0.471798 0.471798 0.471798
0.586622 0.586622 0.586622
0.160263 0.160263 0.160263
0.165852 0.165852 0.165852
0.180202 0.180202 0.180202
0.206233 0.206233 0.206233
0.246468 0.246468 0.246468
0.303739 0.303739 0.303739
0.381418 0.381418 0.381418
0.481604 0.481604 0.481604
0.595682 0.595682 0.595682
0.181749 0.181749 0.181749
0.187443 0.187443 0.187443
0.202059 0.202059 0.202059
0.228564 0.228564 0.228564
0.269513 0.269513 0.269513
0.327763 0.327763 0.327763
0.406709 0.406709 0.406709
0.506289 0.506289 0.506289
0.618465 0.618465 0.618465
0.221058 0.221058 0.221058
0.226938 0.226938 0.226938
0.242028 0.242028 0.242028
0.269379 0.269379 0.269379
0.311601 0.311601 0.311601
0.371597 0.371597 0.371597
0.452347 0.452347 0.452347
0.549320 0.549320 0.549320
0.658105 0.658105 0.658105
0.282603 0.282603 0.282603
0.288763 0.288763 0.288763
0.304566 0.304566 0.304566
0.333190 0.333190 0.333190
0.377328 0.377328 0.377328
0.439819 0.439819 0.439819
0.518938 0.518938 0.518938
0.611684 0.611684 0.611684
0.715365 0.715365 0.715365
0.371702 0.371702 0.371702
0.378247 0.378247 0.378247
0.395030 0.395030 0.395030
0.425400 0.425400 0.425400
0.470866 0.470866 0.470866
0.531157 0.531157 0.531157
0.605612 0.605612 0.605612
0.692559 0.692559 0.692559
0.783728 0.783728 0.783728
0.492201 0.492201 0.492201
0.498660 0.498660 0.498660
0.514978 0.514978 0.514978
0.543637 0.543637 0.543637
0.585703 0.585703 0.585703
0.641330 0.641330 0.641330
0.709748 0.709748 0.709748
0.783687 0.783687 0.783687
0.856852 0.856852 0.856852
0.631567 0.631567 0.631567
0.637407 0.637407 0.637407
0.652150 0.652150 0.652150
0.678000 0.678000 0.678000
0.715838 0.715838 0.715838
0.763517 0.763517 0.763517
0.815356 0.815356 0.815356
0.872819 0.872819 0.872819
0.930187 0.930187 0.930187
0.776830 0.776830 0.776830
0.781188 0.781188 0.781188
0.792136 0.792136 0.792136
0.811140 0.811140 0.811140
0.838434 0.838434 0.838434
0.873163 0.873163 0.873163
0.912967 0.912967 0.912967
0.952885 0.952885 0.952885
0.980000 0.980000 0.980000
