Resources/LUTs/Kodak_Portra_400_Linear.cube
# Kodak Portra 400 Linear Simulation v2
# Linear Input/Output - Use with sRGB<->Linear conversion
# Characteristics: Low contrast, warm tones, lifted blacks,
#                  golden highlights, beautiful skin tones
TITLE "Kodak Portra 400 Linear v2"
LUT_3D_SIZE 33
DOMAIN_MIN 0.0 0.0 0.0
DOMAIN_MAX 1.0 1.0 1.0
0.055008 0.051473 0.044675
0.086564 0.051057 0.044433
0.116825 0.050659 0.044196
0.146625 0.050270 0.043956
0.176132 0.049889 0.043711
0.205428 0.049515 0.043461
0.234559 0.049148 0.043205
0.263556 0.048787 0.042942
0.292441 0.048432 0.042672
0.321231 0.048084 0.042394
0.349938 0.047742 0.042109
0.378572 0.047405 0.041817
0.407141 0.047075 0.041516
0.435652 0.046751 0.041207
0.464111 0.046433 0.040890
0.492523 0.046121 0.040565
0.520892 0.045815 0.040232
0.549222 0.045515 0.039890
0.577516 0.045220 0.039539
0.605777 0.044932 0.039181
0.634007 0.044650 0.038814
0.662209 0.044374 0.038438
0.690385 0.044104 0.038055
0.718536 0.043839 0.037663
0.746665 0.043581 0.037263
0.774735 0.043329 0.036856
0.802472 0.043087 0.036443
0.829822 0.042854 0.036027
0.856787 0.042631 0.035607
0.883371 0.042418 0.035182
0.909576 0.042217 0.034752
0.935402 0.042024 0.034320
0.960840 0.041837 0.033890
0.053391 0.081668 0.043830
0.084987 0.081268 0.043563
0.115289 0.080886 0.043300
0.145130 0.080513 0.043034
0.174679 0.080149 0.042763
0.204018 0.079792 0.042485
0.233192 0.079441 0.042201
0.262234 0.079098 0.041910
0.291164 0.078760 0.041611
0.319998 0.078429 0.041304
0.348751 0.078105 0.040990
0.377430 0.077786 0.040668
0.406046 0.077474 0.040338
0.434603 0.077168 0.039999
0.463109 0.076868 0.039652
0.493604 0.077052 0.037790
0.522139 0.076792 0.037339
0.550637 0.076539 0.036877
0.579103 0.076292 0.036405
0.607540 0.076053 0.035922
0.635949 0.075821 0.035428
0.664332 0.075595 0.034924
0.692692 0.075376 0.034410
0.721030 0.075164 0.033886
0.749347 0.074958 0.033353
0.777609 0.074760 0.032811
0.805540 0.074572 0.032263
0.833087 0.074396 0.031709
0.860245 0.074227 0.031154
0.887008 0.074063 0.030602
0.913378 0.073902 0.030052
0.939356 0.073746 0.029507
0.964943 0.073593 0.028967
0.051957 0.110662 0.042941
0.083594 0.110279 0.042647
0.113940 0.109913 0.042357
0.143824 0.109558 0.042062
0.173418 0.109210 0.041763
0.202801 0.108870 0.041456
0.232021 0.108538 0.041143
0.261108 0.108212 0.040822
0.290084 0.107892 0.040494
0.318965 0.107580 0.040158
0.347764 0.107273 0.039814
0.376491 0.106973 0.039462
0.407232 0.107166 0.037563
0.435956 0.106907 0.037106
0.464632 0.106654 0.036638
0.493264 0.106409 0.036160
0.521857 0.106170 0.035671
0.550413 0.105939 0.035172
0.578937 0.105714 0.034663
0.607429 0.105496 0.034144
0.635894 0.105285 0.033616
0.664332 0.105081 0.033078
0.692746 0.104884 0.032532
0.721138 0.104694 0.031976
0.749510 0.104511 0.031411
0.777814 0.104331 0.030844
0.805773 0.104155 0.030280
0.833331 0.103983 0.029719
0.860490 0.103814 0.029162
0.887252 0.103649 0.028611
0.913617 0.103488 0.028066
0.939586 0.103329 0.027527
0.965160 0.103173 0.026997
0.050683 0.139257 0.041975
0.082366 0.138891 0.041652
0.112756 0.138543 0.041333
0.142685 0.138205 0.041009
0.172325 0.137875 0.040680
0.201755 0.137553 0.040344
0.231021 0.137239 0.040001
0.260155 0.136931 0.039651
0.291183 0.137100 0.037808
0.320228 0.136833 0.037356
0.349194 0.136573 0.036893
0.378092 0.136321 0.036419
0.406929 0.136076 0.035935
0.435712 0.135838 0.035440
0.464445 0.135607 0.034936
0.493134 0.135383 0.034421
0.521783 0.135166 0.033897
0.550395 0.134955 0.033364
0.578972 0.134752 0.032821
0.607519 0.134556 0.032270
0.636039 0.134368 0.031709
0.664528 0.134185 0.031142
0.692980 0.134004 0.030573
0.721394 0.133823 0.030004
0.749771 0.133642 0.029435
0.778076 0.133462 0.028868
0.806032 0.133285 0.028306
0.833583 0.133111 0.027750
0.860732 0.132940 0.027201
0.887480 0.132771 0.026661
0.913827 0.132605 0.026130
0.939774 0.132440 0.025609
0.965322 0.132277 0.025098
0.049572 0.167619 0.040921
0.081300 0.167270 0.040569
0.111737 0.166940 0.040220
0.141713 0.166620 0.039867
0.171399 0.166309 0.039507
0.202923 0.166485 0.037626
0.232355 0.166217 0.037166
0.261658 0.165956 0.036695
0.290853 0.165703 0.036215
0.319957 0.165458 0.035724
0.348982 0.165220 0.035223
0.377937 0.164989 0.034713
0.406830 0.164765 0.034193
0.435668 0.164548 0.033663
0.464457 0.164339 0.033125
0.493200 0.164136 0.032577
0.521903 0.163941 0.032021
0.550570 0.163755 0.031455
0.579194 0.163571 0.030886
0.607773 0.163388 0.030315
0.636308 0.163206 0.029745
0.664800 0.163024 0.029175
0.693251 0.162843 0.028607
0.721661 0.162661 0.028041
0.750031 0.162478 0.027479
0.778324 0.162295 0.026921
0.806264 0.162114 0.026371
0.833796 0.161934 0.025830
0.860921 0.161757 0.025300
0.887641 0.161581 0.024780
0.913956 0.161406 0.024274
0.939868 0.161232 0.023780
0.965376 0.161059 0.023300
0.048624 0.195826 0.039775
0.080399 0.195495 0.039392
0.110883 0.195184 0.039014
0.140906 0.194883 0.038631
0.170639 0.194590 0.038242
0.202623 0.194881 0.036026
0.232113 0.194634 0.035528
0.261474 0.194395 0.035020
0.290726 0.194164 0.034503
0.319886 0.193940 0.033976
0.348966 0.193723 0.033441
0.377976 0.193514 0.032897
0.406924 0.193312 0.032344
0.435816 0.193117 0.031782
0.464659 0.192931 0.031213
0.493443 0.192746 0.030641
0.522173 0.192562 0.030069
0.550849 0.192378 0.029497
0.579475 0.192195 0.028927
0.608051 0.192012 0.028358
0.636581 0.191828 0.027792
0.665064 0.191644 0.027229
0.693501 0.191459 0.026671
0.721894 0.191272 0.026119
0.750243 0.191084 0.025572
0.778511 0.190894 0.025033
0.806422 0.190705 0.024506
0.833921 0.190517 0.023990
0.861009 0.190330 0.023489
0.887688 0.190144 0.023001
0.913959 0.189957 0.022529
0.939822 0.189770 0.022072
0.965279 0.189583 0.021632
0.047840 0.223924 0.038534
0.079662 0.223613 0.038122
0.110193 0.223320 0.037714
0.140263 0.223037 0.037302
0.170042 0.222763 0.036885
0.199612 0.222497 0.036461
0.232068 0.222954 0.033773
0.261484 0.222736 0.033231
0.290791 0.222526 0.032681
0.320005 0.222324 0.032122
0.349141 0.222130 0.031554
0.378201 0.221942 0.030981
0.407184 0.221755 0.030407
0.436097 0.221569 0.029833
0.464944 0.221384 0.029260
0.493729 0.221199 0.028688
0.522455 0.221014 0.028119
0.551125 0.220829 0.027552
0.579740 0.220643 0.026990
0.608302 0.220456 0.026432
0.636813 0.220267 0.025880
0.665273 0.220077 0.025335
0.693684 0.219885 0.024798
0.722047 0.219690 0.024269
0.750361 0.219493 0.023749
0.778590 0.219293 0.023239
0.806459 0.219093 0.022744
0.833912 0.218893 0.022265
0.860951 0.218693 0.021801
0.887577 0.218492 0.021355
0.913791 0.218290 0.020926
0.939594 0.218088 0.020515
0.964988 0.217884 0.020124
0.047219 0.251945 0.037200
0.079087 0.251652 0.036759
0.109664 0.251378 0.036323
0.139780 0.251115 0.035883
0.169605 0.250860 0.035438
0.199221 0.250614 0.034988
0.228675 0.250376 0.034531
0.261684 0.251011 0.031338
0.291035 0.250820 0.030761
0.320280 0.250631 0.030184
0.349429 0.250442 0.029608
0.378492 0.250255 0.029033
0.407474 0.250068 0.028459
0.436383 0.249880 0.027889
0.465222 0.249693 0.027322
0.493995 0.249505 0.026760
0.522704 0.249316 0.026203
0.551354 0.249125 0.025652
0.579945 0.248933 0.025108
0.608479 0.248738 0.024572
0.636958 0.248541 0.024044
0.665383 0.248342 0.023527
0.693754 0.248139 0.023020
0.722073 0.247933 0.022525
0.750340 0.247723 0.022041
0.778518 0.247510 0.021571
0.806333 0.247295 0.021118
0.833728 0.247080 0.020683
0.860706 0.246864 0.020267
0.887268 0.246646 0.019869
0.913415 0.246427 0.019492
0.939149 0.246206 0.019135
0.964472 0.245983 0.018798
0.046757 0.279909 0.035775
0.078671 0.279636 0.035307
0.109294 0.279382 0.034844
0.139458 0.279140 0.034376
0.169332 0.278907 0.033905
0.198983 0.278677 0.033434
0.228459 0.278448 0.032964
0.257787 0.278221 0.032496
0.291331 0.279013 0.028817
0.320574 0.278823 0.028241
0.349717 0.278633 0.027670
0.378769 0.278443 0.027102
0.407739 0.278252 0.026539
0.436630 0.278060 0.025982
0.465447 0.277867 0.025432
0.494195 0.277672 0.024889
0.522875 0.277475 0.024355
0.551491 0.277276 0.023829
0.580045 0.277074 0.023314
0.608538 0.276868 0.022810
0.636972 0.276660 0.022317
0.665348 0.276447 0.021838
0.693667 0.276231 0.021371
0.721930 0.276010 0.020918
0.750138 0.275784 0.020481
0.778254 0.275555 0.020059
0.806004 0.275323 0.019655
0.833332 0.275090 0.019272
0.860240 0.274855 0.018910
0.886730 0.274618 0.018568
0.912803 0.274380 0.018248
0.938462 0.274139 0.017949
0.963708 0.273896 0.017671
0.046458 0.307838 0.034261
0.078416 0.307585 0.033769
0.109070 0.307344 0.033288
0.139250 0.307109 0.032811
0.169126 0.306877 0.032338
0.198778 0.306646 0.031867
0.228251 0.306417 0.031399
0.257575 0.306189 0.030934
0.286771 0.305962 0.030473
0.320836 0.306901 0.026329
0.349960 0.306706 0.025772
0.378990 0.306510 0.025222
0.407932 0.306312 0.024680
0.436792 0.306112 0.024147
0.465575 0.305910 0.023623
0.494284 0.305705 0.023110
0.522922 0.305497 0.022609
0.551491 0.305285 0.022119
0.579995 0.305069 0.021643
0.608435 0.304850 0.021180
0.636812 0.304626 0.020731
0.665128 0.304398 0.020298
0.693383 0.304165 0.019880
0.721581 0.303926 0.019478
0.749720 0.303683 0.019093
0.777766 0.303435 0.018725
0.805443 0.303184 0.018378
0.832696 0.302931 0.018053
0.859528 0.302676 0.017749
0.885941 0.302419 0.017466
0.911937 0.302160 0.017206
0.937517 0.301899 0.016967
0.962684 0.301635 0.016751
0.046254 0.335715 0.032698
0.078214 0.335462 0.032205
0.108867 0.335221 0.031725
0.139044 0.334985 0.031250
0.168915 0.334751 0.030781
0.198559 0.334519 0.030316
0.228022 0.334287 0.029856
0.257334 0.334056 0.029401
0.286516 0.333824 0.028952
0.315583 0.333591 0.028508
0.350114 0.334662 0.023949
0.379107 0.334456 0.023427
0.408009 0.334248 0.022916
0.436826 0.334037 0.022417
0.465561 0.333822 0.021930
0.494218 0.333603 0.021457
0.522801 0.333380 0.020997
0.551313 0.333153 0.020553
0.579755 0.332922 0.020123
0.608131 0.332685 0.019710
0.636441 0.332444 0.019313
0.664687 0.332197 0.018933
0.692872 0.331945 0.018570
0.720996 0.331688 0.018225
0.749060 0.331424 0.017898
0.777030 0.331156 0.017589
0.804629 0.330885 0.017302
0.831804 0.330611 0.017036
0.858558 0.330336 0.016793
0.884892 0.330058 0.016571
0.910810 0.329778 0.016371
0.936312 0.329496 0.016192
0.961403 0.329212 0.016035
0.046050 0.363508 0.031142
0.078003 0.363253 0.030653
0.108648 0.363010 0.030179
0.138814 0.362771 0.029714
0.168672 0.362533 0.029255
0.198300 0.362296 0.028802
0.227745 0.362059 0.028357
0.257036 0.361822 0.027918
0.286195 0.361584 0.027486
0.315237 0.361344 0.027063
0.344173 0.361103 0.026647
0.379078 0.362281 0.021751
0.407927 0.362058 0.021281
0.436687 0.361832 0.020824
0.465363 0.361601 0.020383
0.493958 0.361366 0.019958
0.522476 0.361126 0.019549
0.550920 0.360881 0.019157
0.579293 0.360631 0.018781
0.607596 0.360376 0.018423
0.635832 0.360115 0.018084
0.664003 0.359848 0.017762
0.692111 0.359576 0.017458
0.720157 0.359298 0.017173
0.748143 0.359014 0.016906
0.776034 0.358725 0.016658
0.803555 0.358433 0.016431
0.830652 0.358139 0.016226
0.857328 0.357843 0.016042
0.883586 0.357545 0.015880
0.909428 0.357245 0.015738
0.934857 0.356944 0.015616
0.959876 0.356641 0.015514
0.045818 0.391217 0.029611
0.077757 0.390958 0.029133
0.108385 0.390710 0.028673
0.138532 0.390466 0.028222
0.168369 0.390222 0.027780
0.197973 0.389978 0.027347
0.227392 0.389734 0.026922
0.256655 0.389489 0.026506
0.285783 0.389242 0.026099
0.314792 0.388993 0.025701
0.343693 0.388742 0.025313
0.372497 0.388488 0.024934
0.407647 0.389740 0.019802
0.436341 0.389496 0.019397
0.464948 0.389248 0.019009
0.493472 0.388994 0.018639
0.521917 0.388735 0.018286
0.550286 0.388470 0.017951
0.578583 0.388200 0.017634
0.606809 0.387924 0.017336
0.634967 0.387643 0.017056
0.663060 0.387355 0.016795
0.691089 0.387062 0.016552
0.719057 0.386763 0.016327
0.746965 0.386459 0.016120
0.774779 0.386149 0.015932
0.802223 0.385837 0.015764
0.829246 0.385523 0.015616
0.855849 0.385208 0.015488
0.882036 0.384891 0.015381
0.907809 0.384573 0.015292
0.933172 0.384255 0.015221
0.958127 0.383935 0.015168
0.045531 0.418841 0.028128
0.077448 0.418576 0.027668
0.108051 0.418321 0.027227
0.138172 0.418069 0.026798
0.167979 0.417817 0.026379
0.197552 0.417564 0.025971
0.226937 0.417311 0.025572
0.256164 0.417055 0.025184
0.285255 0.416798 0.024807
0.314224 0.416538 0.024440
0.343085 0.416275 0.024084
0.371846 0.416010 0.023739
0.400516 0.415741 0.023406
0.435757 0.417029 0.018157
0.464289 0.416760 0.017827
0.492737 0.416486 0.017515
0.521104 0.416207 0.017222
0.549396 0.415921 0.016948
0.577614 0.415631 0.016691
0.605761 0.415334 0.016454
0.633841 0.415032 0.016234
0.661856 0.414724 0.016033
0.689808 0.414411 0.015849
0.717701 0.414092 0.015683
0.745535 0.413768 0.015533
0.773276 0.413439 0.015400
0.800651 0.413108 0.015286
0.827605 0.412777 0.015191
0.854143 0.412444 0.015114
0.880268 0.412111 0.015054
0.905982 0.411777 0.015011
0.931288 0.411444 0.014984
0.956191 0.411110 0.014971
0.045162 0.446378 0.026714
0.077049 0.446104 0.026278
0.107620 0.445841 0.025862
0.137706 0.445579 0.025460
0.167477 0.445316 0.025070
0.197012 0.445053 0.024692
0.226357 0.444788 0.024325
0.255543 0.444521 0.023970
0.284591 0.444251 0.023626
0.313516 0.443978 0.023294
0.342332 0.443703 0.022974
0.371047 0.443425 0.022666
0.399670 0.443143 0.022370
0.428207 0.442858 0.022085
0.463372 0.444141 0.016848
0.491741 0.443846 0.016597
0.520030 0.443546 0.016364
0.548243 0.443240 0.016150
0.576384 0.442928 0.015954
0.604455 0.442612 0.015775
0.632460 0.442290 0.015613
0.660401 0.441962 0.015468
0.688282 0.441630 0.015340
0.716105 0.441293 0.015227
0.743872 0.440951 0.015129
0.771550 0.440606 0.015046
0.798863 0.440259 0.014979
0.825759 0.439912 0.014929
0.852242 0.439565 0.014894
0.878315 0.439218 0.014874
0.903981 0.438872 0.014868
0.929244 0.438526 0.014874
0.954106 0.438182 0.014893
0.044686 0.473826 0.025389
0.076536 0.473541 0.024982
0.107068 0.473266 0.024597
0.137114 0.472993 0.024227
0.166842 0.472719 0.023870
0.196334 0.472443 0.023526
0.225634 0.472165 0.023194
0.254775 0.471885 0.022875
0.283776 0.471602 0.022568
0.312655 0.471317 0.022274
0.341423 0.471028 0.021991
0.370090 0.470736 0.021721
0.398665 0.470441 0.021462
0.427155 0.470142 0.021216
0.455564 0.469840 0.020981
0.490486 0.471078 0.015883
0.518699 0.470758 0.015709
0.546838 0.470432 0.015552
0.574905 0.470101 0.015411
0.602906 0.469766 0.015287
0.630842 0.469426 0.015178
0.658718 0.469081 0.015085
0.686535 0.468732 0.015005
0.714298 0.468379 0.014938
0.742008 0.468022 0.014884
0.769631 0.467663 0.014842
0.796894 0.467302 0.014814
0.823744 0.466943 0.014800
0.850185 0.466585 0.014798
0.876219 0.466228 0.014808
0.901850 0.465872 0.014829
0.927081 0.465519 0.014859
0.951916 0.465167 0.014899
0.044080 0.501181 0.024169
0.075888 0.500885 0.023796
0.106376 0.500597 0.023446
0.136377 0.500311 0.023111
0.166059 0.500024 0.022791
0.195504 0.499735 0.022484
0.224758 0.499444 0.022189
0.253850 0.499151 0.021908
0.282804 0.498854 0.021639
0.311635 0.498555 0.021382
0.340355 0.498252 0.021137
0.368975 0.497947 0.020904
0.397504 0.497639 0.020683
0.425947 0.497327 0.020473
0.454312 0.497012 0.020274
0.482603 0.496695 0.020085
0.517126 0.497851 0.015242
0.545197 0.497507 0.015137
0.573200 0.497159 0.015047
0.601138 0.496808 0.014971
0.629015 0.496452 0.014908
0.656835 0.496092 0.014857
0.684600 0.495730 0.014818
0.712314 0.495364 0.014789
0.739979 0.494995 0.014770
0.767561 0.494624 0.014760
0.794787 0.494254 0.014761
0.821603 0.493886 0.014772
0.848014 0.493520 0.014793
0.874023 0.493157 0.014822
0.899726 0.492836 0.014783
0.925088 0.492542 0.014706
0.950090 0.492266 0.014608
0.043328 0.528444 0.023068
0.075090 0.528134 0.022732
0.105531 0.527834 0.022419
0.135485 0.527534 0.022122
0.165120 0.527233 0.021839
0.194517 0.526931 0.021569
0.223722 0.526626 0.021313
0.252767 0.526319 0.021069
0.281674 0.526009 0.020837
0.310458 0.525697 0.020617
0.339133 0.525382 0.020409
0.367708 0.525064 0.020211
0.396193 0.524743 0.020024
0.424594 0.524419 0.019847
0.452918 0.524093 0.019680
0.481170 0.523765 0.019523
0.509355 0.523434 0.019374
0.543352 0.524477 0.014885
0.571300 0.524114 0.014837
0.599187 0.523749 0.014800
0.627017 0.523381 0.014773
0.654792 0.523010 0.014756
0.682518 0.522637 0.014748
0.710195 0.522261 0.014747
0.737828 0.521884 0.014752
0.765382 0.521506 0.014764
0.792609 0.521140 0.014763
0.819523 0.520818 0.014693
0.846079 0.520518 0.014595
0.872266 0.520234 0.014478
0.898082 0.519964 0.014346
0.923527 0.519707 0.014201
0.948601 0.519462 0.014044
0.042421 0.555613 0.022094
0.074134 0.555290 0.021795
0.104528 0.554976 0.021520
0.134433 0.554663 0.021261
0.164021 0.554349 0.021015
0.193371 0.554034 0.020783
0.222530 0.553716 0.020563
0.251530 0.553396 0.020355
0.280392 0.553074 0.020159
0.309134 0.552749 0.019973
0.337767 0.552422 0.019797
0.366302 0.552092 0.019631
0.394749 0.551761 0.019474
0.423113 0.551427 0.019326
0.451403 0.551091 0.019187
0.479622 0.550753 0.019055
0.507777 0.550414 0.018930
0.535871 0.550073 0.018812
0.569244 0.550980 0.014749
0.597092 0.550604 0.014742
0.624888 0.550227 0.014742
0.652633 0.549848 0.014749
0.680331 0.549468 0.014761
0.708048 0.549113 0.014727
0.735799 0.548790 0.014635
0.763511 0.548483 0.014517
0.790901 0.548191 0.014381
0.817913 0.547913 0.014231
0.844547 0.547647 0.014069
0.870803 0.547393 0.013896
0.896683 0.547151 0.013711
0.922190 0.546919 0.013516
0.947324 0.546699 0.013310
0.041354 0.582693 0.021248
0.073020 0.582356 0.020987
0.103367 0.582029 0.020749
0.133227 0.581703 0.020526
0.162769 0.581376 0.020316
0.192076 0.581048 0.020119
0.221192 0.580718 0.019932
0.250151 0.580387 0.019757
0.278974 0.580053 0.019591
0.307677 0.579718 0.019435
0.336275 0.579381 0.019288
0.364776 0.579042 0.019149
0.393191 0.578701 0.019017
0.421526 0.578359 0.018893
0.449788 0.578015 0.018775
0.477983 0.577670 0.018662
0.506115 0.577324 0.018555
0.534188 0.576977 0.018453
0.562207 0.576630 0.018354
0.594904 0.577390 0.014759
0.622779 0.577051 0.014693
0.650658 0.576733 0.014589
0.678527 0.576429 0.014461
0.706381 0.576136 0.014314
0.734220 0.575853 0.014151
0.762006 0.575578 0.013972
0.789464 0.575315 0.013781
0.816539 0.575063 0.013580
0.843234 0.574823 0.013368
0.869550 0.574593 0.013146
0.895490 0.574374 0.012913
0.921055 0.574166 0.012670
0.946249 0.573968 0.012417
0.040132 0.609685 0.020528
0.071754 0.609336 0.020302
0.102057 0.608996 0.020098
0.131875 0.608658 0.019908
0.161377 0.608320 0.019730
0.190645 0.607981 0.019564
0.219724 0.607640 0.019407
0.248648 0.607299 0.019259
0.277438 0.606956 0.019119
0.306110 0.606612 0.018988
0.334679 0.606267 0.018863
0.363154 0.605920 0.018745
0.391544 0.605573 0.018633
0.419858 0.605224 0.018525
0.448101 0.604875 0.018423
0.476278 0.604525 0.018324
0.504429 0.604190 0.018201
0.532614 0.603893 0.018007
0.560788 0.603614 0.017782
0.588942 0.603348 0.017535
0.621148 0.604047 0.014254
0.649109 0.603765 0.014083
0.677049 0.603492 0.013897
0.704969 0.603227 0.013696
0.732870 0.602970 0.013482
0.760716 0.602720 0.013254
0.788234 0.602481 0.013015
0.815368 0.602253 0.012766
0.842122 0.602035 0.012506
0.868498 0.601828 0.012236
0.894498 0.601631 0.011956
0.917624 0.600859 0.013516
0.943006 0.600713 0.013119
0.038767 0.636595 0.019923
0.070349 0.636235 0.019729
0.100614 0.635884 0.019555
0.130395 0.635536 0.019394
0.159863 0.635188 0.019244
0.189098 0.634840 0.019102
0.218148 0.634491 0.018969
0.247044 0.634142 0.018844
0.275808 0.633791 0.018725
0.304457 0.633441 0.018611
0.333005 0.633089 0.018503
0.361461 0.632738 0.018400
0.389836 0.632386 0.018300
0.418208 0.632065 0.018144
0.446580 0.631774 0.017936
0.474924 0.631498 0.017700
0.503238 0.631234 0.017444
0.531520 0.630981 0.017171
0.559771 0.630736 0.016882
0.587994 0.630500 0.016578
0.619760 0.631107 0.013618
0.647783 0.630851 0.013398
0.675783 0.630603 0.013163
0.703762 0.630361 0.012914
0.731722 0.630127 0.012652
0.759628 0.629900 0.012376
0.787205 0.629683 0.012089
0.814400 0.629477 0.011792
0.838761 0.628706 0.013300
0.865324 0.628550 0.012888
0.891508 0.628404 0.012468
0.917315 0.628267 0.012040
0.942746 0.628140 0.011604
0.037276 0.663431 0.019421
0.068824 0.663061 0.019253
0.099058 0.662702 0.019104
0.128810 0.662345 0.018966
0.158251 0.661989 0.018837
0.187461 0.661634 0.018716
0.216488 0.661279 0.018600
0.245364 0.660924 0.018491
0.274110 0.660569 0.018385
0.302755 0.660219 0.018275
0.331398 0.659910 0.018089
0.359999 0.659623 0.017867
0.388551 0.659350 0.017622
0.417057 0.659088 0.017357
0.445517 0.658836 0.017076
0.473935 0.658592 0.016780
0.502315 0.658357 0.016470
0.530658 0.658129 0.016147
0.558967 0.657909 0.015811
0.587245 0.657696 0.015462
0.615495 0.657489 0.015101
0.646658 0.657978 0.012552
0.674717 0.657752 0.012269
0.702756 0.657533 0.011973
0.728241 0.656727 0.013539
0.756337 0.656552 0.013120
0.784100 0.656386 0.012692
0.811478 0.656230 0.012256
0.838471 0.656083 0.011812
0.865083 0.655945 0.011360
0.891316 0.655817 0.010901
0.917171 0.655698 0.010434
0.942650 0.655589 0.009959
0.035682 0.690200 0.019002
0.067204 0.689823 0.018855
0.097414 0.689457 0.018725
0.127144 0.689094 0.018605
0.156565 0.688733 0.018491
0.185759 0.688373 0.018382
0.214815 0.688032 0.018244
0.243806 0.687730 0.018038
0.272710 0.687445 0.017804
0.301533 0.687173 0.017548
0.330282 0.686912 0.017275
0.358965 0.686661 0.016986
0.387588 0.686418 0.016682
0.416158 0.686184 0.016366
0.444678 0.685957 0.016036
0.473153 0.685737 0.015693
0.501587 0.685525 0.015339
0.529983 0.685319 0.014972
0.558345 0.685119 0.014594
0.586675 0.684927 0.014203
0.614975 0.684740 0.013801
0.643248 0.684560 0.013388
0.671495 0.684385 0.012962
0.699720 0.684217 0.012525
0.727922 0.684055 0.012077
0.756066 0.683898 0.011618
0.783879 0.683751 0.011150
0.811305 0.683613 0.010675
0.838347 0.683484 0.010192
0.865006 0.683364 0.009702
0.891286 0.683253 0.009205
0.917188 0.683151 0.008700
0.942713 0.683058 0.008188
0.034010 0.716912 0.018648
0.065513 0.716530 0.018515
0.095708 0.716159 0.018398
0.125508 0.715829 0.018219
0.155063 0.715527 0.017996
0.184426 0.715243 0.017749
0.213637 0.714971 0.017482
0.242724 0.714710 0.017199
0.271705 0.714459 0.016902
0.300595 0.714216 0.016591
0.329407 0.713982 0.016266
0.358148 0.713755 0.015930
0.386827 0.713536 0.015581
0.415450 0.713324 0.015220
0.444023 0.713119 0.014847
0.472550 0.712920 0.014462
0.501036 0.712728 0.014066
0.529483 0.712542 0.013658
0.557895 0.712362 0.013239
0.586275 0.712189 0.012808
0.614625 0.712021 0.012366
0.642947 0.711859 0.011912
0.671244 0.711704 0.011447
0.699517 0.711553 0.010971
0.727768 0.711409 0.010484
0.755960 0.711270 0.009986
0.783820 0.711140 0.009480
0.811293 0.711019 0.008967
0.838381 0.710907 0.008447
0.865087 0.710804 0.007920
0.891412 0.710710 0.007386
0.917358 0.710624 0.006845
0.942927 0.710547 0.006298
0.032419 0.743597 0.018229
0.064071 0.743281 0.017975
0.094446 0.742990 0.017709
0.124371 0.742715 0.017429
0.154012 0.742451 0.017135
0.183448 0.742198 0.016828
0.212725 0.741955 0.016508
0.241872 0.741720 0.016176
0.270911 0.741493 0.015831
0.299856 0.741273 0.015475
0.328721 0.741061 0.015107
0.357515 0.740856 0.014728
0.386246 0.740657 0.014337
0.414921 0.740465 0.013934
0.443544 0.740280 0.013521
0.472121 0.740101 0.013095
0.500657 0.739927 0.012659
0.529154 0.739760 0.012211
0.557615 0.739599 0.011751
0.586044 0.739444 0.011281
0.614443 0.739295 0.010799
0.642813 0.739151 0.010307
0.671158 0.739013 0.009803
0.699478 0.738880 0.009289
0.727775 0.738753 0.008764
0.756014 0.738631 0.008229
0.783920 0.738518 0.007686
0.811438 0.738413 0.007137
0.838570 0.738317 0.006581
0.865319 0.738230 0.006019
0.891687 0.738151 0.005451
0.917675 0.738080 0.004877
0.943285 0.738018 0.004296
0.031328 0.770165 0.017423
0.063060 0.769883 0.017102
0.093505 0.769623 0.016780
0.123493 0.769375 0.016448
0.153193 0.769137 0.016106
0.182686 0.768908 0.015752
0.212018 0.768687 0.015388
0.241218 0.768473 0.015012
0.270309 0.768267 0.014625
0.299306 0.768068 0.014227
0.328222 0.767876 0.013818
0.357066 0.767691 0.013398
0.385847 0.767511 0.012966
0.414572 0.767339 0.012524
0.443245 0.767172 0.012070
0.471871 0.767011 0.011605
0.500456 0.766856 0.011129
0.529001 0.766707 0.010641
0.557510 0.766564 0.010143
