Resources/LUTs/Kodak_Tri-X_400_Linear.cube
# Kodak Tri-X 400 Black & White Film Emulation
# Generated with spectral sensitivity and characteristic curve data
# 
# Spectral Weights: R=0.18, G=0.52, B=0.3
# Contrast: High (Tri-X signature)
# 
TITLE "Kodak Tri-X 400"
LUT_3D_SIZE 5
DOMAIN_MIN 0.0 0.0 0.0
DOMAIN_MAX 1.0 1.0 1.0
0.015000 0.015000 0.015000
0.019579 0.019579 0.019579
0.042397 0.042397 0.042397
0.074177 0.074177 0.074177
0.134776 0.134776 0.134776
0.032890 0.032890 0.032890
0.040301 0.040301 0.040301
0.058837 0.058837 0.058837
0.086838 0.086838 0.086838
0.166399 0.166399 0.166399
0.082539 0.082539 0.082539
0.086815 0.086815 0.086815
0.099926 0.099926 0.099926
0.165066 0.165066 0.165066
0.273862 0.273862 0.273862
0.248231 0.248231 0.248231
0.260152 0.260152 0.260152
0.299105 0.299105 0.299105
0.375767 0.375767 0.375767
0.498787 0.498787 0.498787
0.590984 0.590984 0.590984
0.602894 0.602894 0.602894
0.640366 0.640366 0.640366
0.708194 0.708194 0.708194
0.797481 0.797481 0.797481
0.022631 0.022631 0.022631
0.030939 0.030939 0.030939
0.052302 0.052302 0.052302
0.081598 0.081598 0.081598
0.152911 0.152911 0.152911
0.044599 0.044599 0.044599
0.050516 0.050516 0.050516
0.067126 0.067126 0.067126
0.093755 0.093755 0.093755
0.185051 0.185051 0.185051
0.089612 0.089612 0.089612
0.093733 0.093733 0.093733
0.117350 0.117350 0.117350
0.183696 0.183696 0.183696
0.294171 0.294171 0.294171
0.268158 0.268158 0.268158
0.280257 0.280257 0.280257
0.319784 0.319784 0.319784
0.397531 0.397531 0.397531
0.519911 0.519911 0.519911
0.610774 0.610774 0.610774
0.622505 0.622505 0.622505
0.659404 0.659404 0.659404
0.726147 0.726147 0.726147
0.811231 0.811231 0.811231
0.058401 0.058401 0.058401
0.063466 0.063466 0.063466
0.078443 0.078443 0.078443
0.109467 0.109467 0.109467
0.213083 0.213083 0.213083
0.072481 0.072481 0.072481
0.077025 0.077025 0.077025
0.090805 0.090805 0.090805
0.140354 0.140354 0.140354
0.246880 0.246880 0.246880
0.129502 0.129502 0.129502
0.140295 0.140295 0.140295
0.175632 0.175632 0.175632
0.245457 0.245457 0.245457
0.361317 0.361317 0.361317
0.334076 0.334076 0.334076
0.346749 0.346749 0.346749
0.388116 0.388116 0.388116
0.468192 0.468192 0.468192
0.585648 0.585648 0.585648
0.672232 0.672232 0.672232
0.683389 0.683389 0.683389
0.718448 0.718448 0.718448
0.777292 0.777292 0.777292
0.852823 0.852823 0.852823
0.107732 0.107732 0.107732
0.118304 0.118304 0.118304
0.152936 0.152936 0.152936
0.221428 0.221428 0.221428
0.335224 0.335224 0.335224
0.138568 0.138568 0.138568
0.149450 0.149450 0.149450
0.185077 0.185077 0.185077
0.255449 0.255449 0.255449
0.372156 0.372156 0.372156
0.243506 0.243506 0.243506
0.255383 0.255383 0.255383
0.294199 0.294199 0.294199
0.370602 0.370602 0.370602
0.493686 0.493686 0.493686
0.466044 0.466044 0.466044
0.479027 0.479027 0.479027
0.519940 0.519940 0.519940
0.594274 0.594274 0.594274
0.701549 0.701549 0.701549
0.775864 0.775864 0.775864
0.784477 0.784477 0.784477
0.811250 0.811250 0.811250
0.858124 0.858124 0.858124
0.919780 0.919780 0.919780
0.285400 0.285400 0.285400
0.297652 0.297652 0.297652
0.337669 0.337669 0.337669
0.416341 0.416341 0.416341
0.537704 0.537704 0.537704
0.321087 0.321087 0.321087
0.333649 0.333649 0.333649
0.374660 0.374660 0.374660
0.454675 0.454675 0.454675
0.573172 0.573172 0.573172
0.441418 0.441418 0.441418
0.454602 0.454602 0.454602
0.496161 0.496161 0.496161
0.571715 0.571715 0.571715
0.680878 0.680878 0.680878
0.656828 0.656828 0.656828
0.668132 0.668132 0.668132
0.703660 0.703660 0.703660
0.765364 0.765364 0.765364
0.842576 0.842576 0.842576
0.895173 0.895173 0.895173
0.901563 0.901563 0.901563
0.920894 0.920894 0.920894
0.952012 0.952012 0.952012
0.980000 0.980000 0.980000
