Resources/LUTs/Kodak_Ultramax_400_linear_inout.cube
# Kodak Ultramax 400 v6 (Linear) - Shadow Warmth Corrected
# Authentic film look with warm shadows, golden highlights
TITLE "Kodak Ultramax 400 v6 (Linear)"
LUT_3D_SIZE 33
DOMAIN_MIN 0.0 0.0 0.0
DOMAIN_MAX 1.0 1.0 1.0
0.066201 0.047161 0.021401
0.107541 0.045446 0.020199
0.146079 0.043834 0.019101
0.182962 0.042284 0.018064
0.218679 0.040776 0.017070
0.253501 0.039302 0.016110
0.287599 0.037855 0.015176
0.321093 0.036430 0.014264
0.354068 0.035025 0.013372
0.386590 0.033636 0.012497
0.418710 0.032262 0.011636
0.450470 0.030901 0.010789
0.481904 0.029552 0.009954
0.513040 0.028215 0.009129
0.543902 0.026887 0.008315
0.574511 0.025569 0.007511
0.604885 0.024260 0.006715
0.635039 0.022959 0.005927
0.664987 0.021665 0.005147
0.694741 0.020379 0.004374
0.724313 0.019099 0.003608
0.753711 0.017826 0.002848
0.782946 0.016559 0.002094
0.812024 0.015298 0.001347
0.840954 0.014042 0.001000
0.869741 0.012791 0.001000
0.888647 0.011907 0.001000
0.905543 0.011097 0.001000
0.922363 0.010289 0.001000
0.939111 0.009485 0.001000
0.955790 0.008682 0.001000
0.972401 0.007883 0.001000
0.988949 0.007086 0.001000
0.062245 0.085166 0.024927
0.104160 0.086776 0.019823
0.142698 0.085165 0.018724
0.179582 0.083614 0.017687
0.215299 0.082107 0.016694
0.250120 0.080633 0.015733
0.284219 0.079186 0.014799
0.317713 0.077761 0.013888
0.350687 0.076355 0.012996
0.383209 0.074966 0.012120
0.415330 0.073592 0.011259
0.447090 0.072232 0.010412
0.478524 0.070883 0.009577
0.509660 0.069545 0.008753
0.540522 0.068218 0.007939
0.571131 0.066900 0.007134
0.601504 0.065591 0.006338
0.631659 0.064290 0.005551
0.661607 0.062996 0.004771
0.691361 0.061710 0.003998
0.720933 0.060430 0.003231
0.750331 0.059157 0.002472
0.779566 0.057890 0.001718
0.808644 0.056628 0.001000
0.837573 0.055372 0.001000
0.866361 0.054122 0.001000
0.885267 0.053237 0.001000
0.902162 0.052427 0.001000
0.918982 0.051620 0.001000
0.935731 0.050815 0.001000
0.952409 0.050013 0.001000
0.969021 0.049213 0.001000
0.985568 0.048416 0.001000
0.060569 0.120816 0.025933
0.098851 0.120657 0.026232
0.139422 0.123694 0.018452
0.176305 0.122144 0.017415
0.212022 0.120636 0.016421
0.246844 0.119162 0.015460
0.280942 0.117715 0.014526
0.314436 0.116290 0.013615
0.347411 0.114885 0.012723
0.379933 0.113496 0.011847
0.412053 0.112122 0.010987
0.443813 0.110761 0.010139
0.475247 0.109412 0.009304
0.506383 0.108075 0.008480
0.537245 0.106747 0.007666
0.567854 0.105429 0.006862
0.598228 0.104120 0.006066
0.628382 0.102819 0.005278
0.658330 0.101525 0.004498
0.688084 0.100239 0.003725
0.717656 0.098959 0.002959
0.747055 0.097686 0.002199
0.776289 0.096419 0.001445
0.805367 0.095158 0.001000
0.834297 0.093902 0.001000
0.863084 0.092651 0.001000
0.881990 0.091767 0.001000
0.898886 0.090956 0.001000
0.915706 0.090149 0.001000
0.932454 0.089344 0.001000
0.949133 0.088542 0.001000
0.965744 0.087743 0.001000
0.982292 0.086946 0.001000
0.058893 0.154934 0.026939
0.097175 0.154775 0.027238
0.132863 0.154615 0.027536
0.173090 0.159018 0.017203
0.208807 0.157511 0.016209
0.243628 0.156037 0.015249
0.277727 0.154589 0.014315
0.311221 0.153165 0.013404
0.344196 0.151759 0.012511
0.376717 0.150370 0.011636
0.408838 0.148996 0.010775
0.440598 0.147635 0.009928
0.472032 0.146287 0.009093
0.503168 0.144949 0.008269
0.534030 0.143622 0.007455
0.564639 0.142304 0.006650
0.595013 0.140994 0.005854
0.625167 0.139693 0.005066
0.655115 0.138400 0.004286
0.684869 0.137113 0.003513
0.714441 0.135834 0.002747
0.743839 0.134560 0.001987
0.773074 0.133293 0.001234
0.802152 0.132032 0.001000
0.831081 0.130776 0.001000
0.859869 0.129526 0.001000
0.878775 0.128641 0.001000
0.895670 0.127831 0.001000
0.912491 0.127024 0.001000
0.929239 0.126219 0.001000
0.945917 0.125417 0.001000
0.962529 0.124617 0.001000
0.979076 0.123820 0.001000
0.057216 0.187972 0.027944
0.095499 0.187813 0.028243
0.131187 0.187654 0.028542
0.165343 0.187494 0.028841
0.205635 0.193219 0.016041
0.240456 0.191745 0.015081
0.274555 0.190298 0.014147
0.308048 0.188873 0.013235
0.341023 0.187467 0.012343
0.373545 0.186078 0.011468
0.405666 0.184704 0.010607
0.437426 0.183344 0.009760
0.468860 0.181995 0.008925
0.499996 0.180657 0.008100
0.530858 0.179330 0.007286
0.561467 0.178012 0.006482
0.591840 0.176703 0.005686
0.621994 0.175401 0.004898
0.651943 0.174108 0.004118
0.681697 0.172821 0.003345
0.711269 0.171542 0.002579
0.740667 0.170269 0.001819
0.769902 0.169002 0.001065
0.798980 0.167740 0.001000
0.827909 0.166484 0.001000
0.856697 0.165234 0.001000
0.875603 0.164349 0.001000
0.892498 0.163539 0.001000
0.909318 0.162732 0.001000
0.926067 0.161927 0.001000
0.942745 0.161125 0.001000
0.959357 0.160325 0.001000
0.975904 0.159528 0.001000
0.055540 0.220182 0.028950
0.093822 0.220022 0.029249
0.129511 0.219863 0.029548
0.163667 0.219704 0.029847
0.196744 0.219544 0.030146
0.237317 0.226558 0.014945
0.271416 0.225111 0.014012
0.304910 0.223686 0.013100
0.337884 0.222280 0.012208
0.370406 0.220891 0.011332
0.402527 0.219517 0.010472
0.434287 0.218157 0.009625
0.465721 0.216808 0.008789
0.496857 0.215470 0.007965
0.527719 0.214143 0.007151
0.558328 0.212825 0.006347
0.588702 0.211516 0.005551
0.618856 0.210215 0.004763
0.648804 0.208921 0.003983
0.678558 0.207635 0.003210
0.708130 0.206355 0.002444
0.737528 0.205082 0.001684
0.766763 0.203815 0.001000
0.795841 0.202553 0.001000
0.824770 0.201297 0.001000
0.853558 0.200047 0.001000
0.872464 0.199162 0.001000
0.889359 0.198352 0.001000
0.906179 0.197545 0.001000
0.922928 0.196740 0.001000
0.939606 0.195938 0.001000
0.956218 0.195138 0.001000
0.972765 0.194341 0.001000
0.053864 0.251722 0.029956
0.092146 0.251562 0.030255
0.127835 0.251403 0.030554
0.161991 0.251243 0.030853
0.195067 0.251084 0.031152
0.227315 0.250924 0.031451
0.268304 0.259200 0.013903
0.301797 0.257776 0.012992
0.334772 0.256370 0.012100
0.367294 0.254981 0.011224
0.399414 0.253607 0.010364
0.431175 0.252246 0.009516
0.462608 0.250898 0.008681
0.493744 0.249560 0.007857
0.524607 0.248233 0.007043
0.555216 0.246915 0.006238
0.585589 0.245605 0.005443
0.615743 0.244304 0.004655
0.645691 0.243011 0.003875
0.675446 0.241724 0.003102
0.705017 0.240445 0.002335
0.734416 0.239172 0.001576
0.763650 0.237904 0.001000
0.792729 0.236643 0.001000
0.821658 0.235387 0.001000
0.850446 0.234137 0.001000
0.869352 0.233252 0.001000
0.886247 0.232442 0.001000
0.903067 0.231635 0.001000
0.919815 0.230830 0.001000
0.936501 0.230030 0.001000
0.953656 0.229394 0.001000
0.970747 0.228761 0.001000
0.052188 0.282701 0.030962
0.090470 0.282542 0.031261
0.126158 0.282382 0.031559
0.160315 0.282223 0.031858
0.193391 0.282064 0.032157
0.225639 0.281904 0.032456
0.257217 0.281745 0.032755
0.298708 0.291260 0.012906
0.331683 0.289855 0.012014
0.364204 0.288466 0.011138
0.396325 0.287092 0.010278
0.428085 0.285731 0.009430
0.459519 0.284383 0.008595
0.490655 0.283045 0.007771
0.521517 0.281718 0.006957
0.552126 0.280400 0.006152
0.582500 0.279090 0.005357
0.612654 0.277789 0.004569
0.642602 0.276496 0.003789
0.672356 0.275209 0.003016
0.701928 0.273930 0.002250
0.731326 0.272656 0.001490
0.760561 0.271389 0.001000
0.789639 0.270128 0.001000
0.818568 0.268872 0.001000
0.847356 0.267621 0.001000
0.866262 0.266737 0.001000
0.883362 0.265988 0.001000
0.900726 0.265345 0.001000
0.918017 0.264705 0.001000
0.935240 0.264067 0.001000
0.952395 0.263432 0.001000
0.969486 0.262799 0.001000
0.050511 0.313201 0.031967
0.088794 0.313041 0.032266
0.124482 0.312882 0.032565
0.158638 0.312722 0.032864
0.191715 0.312563 0.033163
0.223963 0.312404 0.033462
0.255540 0.312244 0.033761
0.286558 0.312085 0.034060
0.328612 0.322821 0.011947
0.361134 0.321432 0.011071
0.393254 0.320058 0.010211
0.425014 0.318697 0.009364
0.456448 0.317349 0.008528
0.487584 0.316011 0.007704
0.518446 0.314684 0.006890
0.549055 0.313366 0.006086
0.579429 0.312056 0.005290
0.609583 0.310755 0.004502
0.639531 0.309462 0.003722
0.669286 0.308175 0.002949
0.698857 0.306896 0.002183
0.728256 0.305623 0.001423
0.757490 0.304355 0.001000
0.786568 0.303094 0.001000
0.815900 0.301960 0.001000
0.845231 0.300873 0.001000
0.864681 0.300153 0.001000
0.882120 0.299507 0.001000
0.899484 0.298864 0.001000
0.916776 0.298224 0.001000
0.933998 0.297586 0.001000
0.951154 0.296950 0.001000
0.968245 0.296317 0.001000
0.048835 0.343281 0.032973
0.087117 0.343121 0.033272
0.122806 0.342962 0.033571
0.156962 0.342802 0.033870
0.190039 0.342643 0.034169
0.222286 0.342483 0.034468
0.253864 0.342324 0.034767
0.284882 0.342165 0.035066
0.315419 0.342005 0.035365
0.358080 0.353945 0.011022
0.390200 0.352571 0.010161
0.421960 0.351211 0.009314
0.453394 0.349862 0.008479
0.484530 0.348524 0.007654
0.515392 0.347197 0.006840
0.546002 0.345879 0.006036
0.576375 0.344570 0.005240
0.606529 0.343268 0.004452
0.636477 0.341975 0.003672
0.666232 0.340688 0.002899
0.695860 0.339426 0.002097
0.725802 0.338317 0.001000
0.755580 0.337214 0.001000
0.785202 0.336117 0.001000
0.814676 0.335025 0.001000
0.844007 0.333939 0.001000
0.863457 0.333219 0.001000
0.880896 0.332573 0.001000
0.898260 0.331930 0.001000
0.915551 0.331289 0.001000
0.932774 0.330651 0.001000
0.949929 0.330016 0.001000
0.967020 0.329383 0.001000
0.047159 0.372989 0.033979
0.085441 0.372829 0.034278
0.121130 0.372670 0.034577
0.155286 0.372510 0.034876
0.188362 0.372351 0.035175
0.220610 0.372191 0.035474
0.252188 0.372032 0.035773
0.283206 0.371873 0.036072
0.313743 0.371713 0.036371
0.343861 0.371554 0.036670
0.387161 0.384683 0.010126
0.418922 0.383322 0.009279
0.450355 0.381973 0.008443
0.481491 0.380636 0.007619
0.512354 0.379308 0.006805
0.542963 0.377990 0.006001
0.573336 0.376681 0.005205
0.603745 0.375457 0.004254
0.634237 0.374327 0.003124
0.664535 0.373205 0.002002
0.694650 0.372090 0.001000
0.724592 0.370981 0.001000
0.754371 0.369878 0.001000
0.783993 0.368781 0.001000
0.813466 0.367689 0.001000
0.842797 0.366603 0.001000
0.862247 0.365883 0.001000
0.879686 0.365237 0.001000
0.897050 0.364594 0.001000
0.914342 0.363953 0.001000
0.931564 0.363315 0.001000
0.948720 0.362680 0.001000
0.965810 0.362047 0.001000
0.045483 0.402363 0.034985
0.083765 0.402204 0.035284
0.119453 0.402044 0.035582
0.153610 0.401885 0.035881
0.186686 0.401725 0.036180
0.218934 0.401566 0.036479
0.250512 0.401407 0.036778
0.281529 0.401247 0.037077
0.312067 0.401088 0.037376
0.342185 0.400928 0.037675
0.371931 0.400769 0.037974
0.415896 0.415073 0.009257
0.447330 0.413725 0.008422
0.478466 0.412387 0.007598
0.509781 0.411196 0.006493
0.540933 0.410043 0.005339
0.571851 0.408898 0.004194
0.602548 0.407761 0.003057
0.633040 0.406631 0.001928
0.663338 0.405509 0.001000
0.693454 0.404394 0.001000
0.723396 0.403285 0.001000
0.753174 0.402182 0.001000
0.782796 0.401085 0.001000
0.812269 0.399993 0.001000
0.841601 0.398907 0.001000
0.861051 0.398186 0.001000
0.878489 0.397541 0.001000
0.895853 0.396897 0.001000
0.913145 0.396257 0.001000
0.930368 0.395619 0.001000
0.947523 0.394984 0.001000
0.964614 0.394351 0.001000
0.043806 0.431436 0.035990
0.082089 0.431276 0.036289
0.117777 0.431117 0.036588
0.151933 0.430957 0.036887
0.185010 0.430798 0.037186
0.217258 0.430638 0.037485
0.248835 0.430479 0.037784
0.279853 0.430320 0.038083
0.310391 0.430160 0.038382
0.340509 0.430001 0.038681
0.370353 0.429872 0.038921
0.400264 0.429872 0.038921
0.429872 0.429872 0.038921
0.477190 0.444337 0.006472
0.508596 0.443174 0.005309
0.539749 0.442020 0.004155
0.570666 0.440875 0.003010
0.601364 0.439738 0.001873
0.631856 0.438609 0.001000
0.662154 0.437487 0.001000
0.692269 0.436371 0.001000
0.722212 0.435262 0.001000
0.751990 0.434159 0.001000
0.781612 0.433062 0.001000
0.811085 0.431971 0.001000
0.840416 0.430884 0.001000
0.859866 0.430164 0.001000
0.877305 0.429518 0.001000
0.894669 0.428875 0.001000
0.911961 0.428235 0.001000
0.929183 0.427597 0.001000
0.946339 0.426961 0.001000
0.963430 0.426328 0.001000
0.042130 0.460232 0.036996
0.080412 0.460073 0.037295
0.116101 0.459913 0.037594
0.150257 0.459754 0.037893
0.183334 0.459595 0.038192
0.215581 0.459435 0.038491
0.247159 0.459276 0.038790
0.278456 0.459206 0.038921
0.309492 0.459206 0.038921
0.340108 0.459206 0.038921
0.370353 0.459206 0.038921
0.400264 0.459206 0.038921
0.429872 0.459206 0.038921
0.459206 0.459206 0.038921
0.507423 0.474854 0.004135
0.538576 0.473700 0.002982
0.569493 0.472555 0.001836
0.600191 0.471418 0.001000
0.630683 0.470289 0.001000
0.660981 0.469166 0.001000
0.691096 0.468051 0.001000
0.721038 0.466942 0.001000
0.750816 0.465839 0.001000
0.780438 0.464742 0.001000
0.809912 0.463650 0.001000
0.839243 0.462564 0.001000
0.858693 0.461844 0.001000
0.876132 0.461198 0.001000
0.893496 0.460555 0.001000
0.910788 0.459914 0.001000
0.928010 0.459276 0.001000
0.945165 0.458641 0.001000
0.962256 0.458008 0.001000
0.040454 0.488776 0.038002
0.078736 0.488616 0.038301
0.114425 0.488457 0.038600
0.148581 0.488297 0.038899
0.182118 0.488285 0.038921
0.214864 0.488285 0.038921
0.246940 0.488285 0.038921
0.278456 0.488285 0.038921
0.309492 0.488285 0.038921
0.340108 0.488285 0.038921
0.370353 0.488285 0.038921
0.400264 0.488285 0.038921
0.429872 0.488285 0.038921
0.459206 0.488285 0.038921
0.488285 0.488285 0.038921
0.537412 0.505106 0.001818
0.568330 0.503961 0.001000
0.599028 0.502824 0.001000
0.629519 0.501694 0.001000
0.659818 0.500572 0.001000
0.689933 0.499457 0.001000
0.719875 0.498348 0.001000
0.749653 0.497245 0.001000
0.779275 0.496148 0.001000
0.808749 0.495056 0.001000
0.838080 0.493970 0.001000
0.857530 0.493250 0.001000
0.874969 0.492604 0.001000
0.892333 0.491961 0.001000
0.909624 0.491320 0.001000
0.926847 0.490682 0.001000
0.944002 0.490047 0.001000
0.961093 0.489414 0.001000
0.038921 0.517130 0.038921
0.077702 0.517130 0.038921
0.113889 0.517130 0.038921
0.148543 0.517130 0.038921
0.182118 0.517130 0.038921
0.214864 0.517130 0.038921
0.246940 0.517130 0.038921
0.278456 0.517130 0.038921
0.309492 0.517130 0.038921
0.340108 0.517130 0.038921
0.370353 0.517130 0.038921
0.400264 0.517130 0.038921
0.429872 0.517130 0.038921
0.459206 0.517130 0.038921
0.488285 0.517130 0.038921
0.517130 0.517130 0.038921
0.567176 0.535114 0.001000
0.597874 0.533977 0.001000
0.628366 0.532847 0.001000
0.658664 0.531725 0.001000
0.688779 0.530610 0.001000
0.718721 0.529501 0.001000
0.748499 0.528398 0.001000
0.778122 0.527301 0.001000
0.807595 0.526209 0.001000
0.836926 0.525123 0.001000
0.856376 0.524402 0.001000
0.873815 0.523757 0.001000
0.891179 0.523113 0.001000
0.908471 0.522473 0.001000
0.925693 0.521835 0.001000
0.942848 0.521200 0.001000
0.959939 0.520567 0.001000
0.038921 0.545758 0.038921
0.077702 0.545758 0.038921
0.113889 0.545758 0.038921
0.148543 0.545758 0.038921
0.182118 0.545758 0.038921
0.214864 0.545758 0.038921
0.246940 0.545758 0.038921
0.278456 0.545758 0.038921
0.309492 0.545758 0.038921
0.340108 0.545758 0.038921
0.370353 0.545758 0.038921
0.400264 0.545758 0.038921
0.429872 0.545758 0.038921
0.459206 0.545758 0.038921
0.488285 0.545758 0.038921
0.517130 0.545758 0.038921
0.545758 0.545758 0.038921
0.596729 0.564894 0.001000
0.627221 0.563765 0.001000
0.657519 0.562643 0.001000
0.687634 0.561527 0.001000
0.717576 0.560418 0.001000
0.747354 0.559315 0.001000
0.776976 0.558218 0.001000
0.806450 0.557127 0.001000
0.835781 0.556040 0.001000
0.855231 0.555320 0.001000
0.872670 0.554674 0.001000
0.890034 0.554031 0.001000
0.907325 0.553390 0.001000
0.924548 0.552753 0.001000
0.941703 0.552117 0.001000
0.958794 0.551484 0.001000
0.038921 0.574181 0.038921
0.077702 0.574181 0.038921
0.113889 0.574181 0.038921
0.148543 0.574181 0.038921
0.182118 0.574181 0.038921
0.214864 0.574181 0.038921
0.246940 0.574181 0.038921
0.278456 0.574181 0.038921
0.309492 0.574181 0.038921
0.340108 0.574181 0.038921
0.370353 0.574181 0.038921
0.400264 0.574181 0.038921
0.429872 0.574181 0.038921
0.459206 0.574181 0.038921
0.488285 0.574181 0.038921
0.517130 0.574181 0.038921
0.545758 0.574181 0.038921
0.574181 0.574181 0.038921
0.626084 0.594462 0.001000
0.656382 0.593340 0.001000
0.686497 0.592225 0.001000
0.716439 0.591116 0.001000
0.746217 0.590013 0.001000
0.775839 0.588916 0.001000
0.805313 0.587824 0.001000
0.834644 0.586738 0.001000
0.854094 0.586018 0.001000
0.871533 0.585372 0.001000
0.888897 0.584729 0.001000
0.906188 0.584088 0.001000
0.923411 0.583450 0.001000
0.940566 0.582815 0.001000
0.957657 0.582182 0.001000
0.038921 0.602415 0.038921
0.077702 0.602415 0.038921
0.113889 0.602415 0.038921
0.148543 0.602415 0.038921
0.182118 0.602415 0.038921
0.214864 0.602415 0.038921
0.246940 0.602415 0.038921
0.278456 0.602415 0.038921
0.309492 0.602415 0.038921
0.340108 0.602415 0.038921
0.370353 0.602415 0.038921
0.400264 0.602415 0.038921
0.429872 0.602415 0.038921
0.459206 0.602415 0.038921
0.488285 0.602415 0.038921
0.517130 0.602415 0.038921
0.545758 0.602415 0.038921
0.574181 0.602415 0.038921
0.602415 0.602415 0.038921
0.655252 0.623832 0.001000
0.685368 0.622717 0.001000
0.715310 0.621608 0.001000
0.745088 0.620505 0.001000
0.774710 0.619408 0.001000
0.804183 0.618316 0.001000
0.833515 0.617230 0.001000
0.852964 0.616509 0.001000
0.870403 0.615864 0.001000
0.887767 0.615220 0.001000
0.905059 0.614580 0.001000
0.922373 0.613966 0.001000
0.939904 0.613426 0.001000
0.957370 0.612890 0.001000
0.038921 0.630468 0.038921
0.077702 0.630468 0.038921
0.113889 0.630468 0.038921
0.148543 0.630468 0.038921
0.182118 0.630468 0.038921
0.214864 0.630468 0.038921
0.246940 0.630468 0.038921
0.278456 0.630468 0.038921
0.309492 0.630468 0.038921
0.340108 0.630468 0.038921
0.370353 0.630468 0.038921
0.400264 0.630468 0.038921
0.429872 0.630468 0.038921
0.459206 0.630468 0.038921
0.488285 0.630468 0.038921
0.517130 0.630468 0.038921
0.545758 0.630468 0.038921
0.574181 0.630468 0.038921
0.602415 0.630468 0.038921
0.630468 0.630468 0.038921
0.684246 0.653015 0.001000
0.714188 0.651906 0.001000
0.743966 0.650803 0.001000
0.773588 0.649706 0.001000
0.803061 0.648614 0.001000
0.832392 0.647528 0.001000
0.851842 0.646808 0.001000
0.869509 0.646220 0.001000
0.887248 0.645673 0.001000
0.904916 0.645129 0.001000
0.922513 0.644588 0.001000
0.940044 0.644049 0.001000
0.957510 0.643512 0.001000
0.038921 0.658353 0.038921
0.077702 0.658353 0.038921
0.113889 0.658353 0.038921
0.148543 0.658353 0.038921
0.182118 0.658353 0.038921
0.214864 0.658353 0.038921
0.246940 0.658353 0.038921
0.278456 0.658353 0.038921
0.309492 0.658353 0.038921
0.340108 0.658353 0.038921
0.370353 0.658353 0.038921
0.400264 0.658353 0.038921
0.429872 0.658353 0.038921
0.459206 0.658353 0.038921
0.488285 0.658353 0.038921
0.517130 0.658353 0.038921
0.545758 0.658353 0.038921
0.574181 0.658353 0.038921
0.602415 0.658353 0.038921
0.630468 0.658353 0.038921
0.658353 0.658353 0.038921
0.713072 0.682021 0.001000
0.742851 0.680918 0.001000
0.772473 0.679821 0.001000
0.802310 0.678823 0.001000
0.832017 0.677833 0.001000
0.851842 0.677209 0.001000
0.869656 0.676659 0.001000
0.887396 0.676113 0.001000
0.905063 0.675569 0.001000
0.922661 0.675027 0.001000
0.940192 0.674488 0.001000
0.957658 0.673951 0.001000
0.038921 0.686077 0.038921
0.077702 0.686077 0.038921
0.113889 0.686077 0.038921
0.148543 0.686077 0.038921
0.182118 0.686077 0.038921
0.214864 0.686077 0.038921
0.246940 0.686077 0.038921
0.278456 0.686077 0.038921
0.309492 0.686077 0.038921
0.340108 0.686077 0.038921
0.370353 0.686077 0.038921
0.400264 0.686077 0.038921
0.429872 0.686077 0.038921
0.459206 0.686077 0.038921
0.488285 0.686077 0.038921
0.517130 0.686077 0.038921
0.545758 0.686077 0.038921
0.574181 0.686077 0.038921
0.602415 0.686077 0.038921
0.630468 0.686077 0.038921
0.658464 0.686105 0.038754
0.712465 0.712092 0.001000
0.742618 0.711085 0.001000
0.772615 0.710085 0.001000
0.802464 0.709089 0.001000
0.832171 0.708099 0.001000
0.851996 0.707475 0.001000
0.869810 0.706926 0.001000
0.887550 0.706379 0.001000
0.905217 0.705835 0.001000
0.922814 0.705293 0.001000
0.940345 0.704754 0.001000
0.957812 0.704218 0.001000
0.038921 0.713650 0.038921
0.077702 0.713650 0.038921
0.113889 0.713650 0.038921
0.148543 0.713650 0.038921
0.182118 0.713650 0.038921
0.214864 0.713650 0.038921
0.246940 0.713650 0.038921
0.278456 0.713650 0.038921
0.309492 0.713650 0.038921
0.340108 0.713650 0.038921
0.370353 0.713650 0.038921
0.400264 0.713650 0.038921
0.429872 0.713650 0.038921
0.459206 0.713650 0.038921
0.488285 0.713650 0.038921
0.517130 0.713650 0.038921
0.545758 0.713650 0.038921
0.574414 0.713708 0.038573
0.602979 0.713791 0.038075
0.631365 0.713874 0.037576
0.659582 0.713957 0.037078
0.687638 0.714040 0.036580
0.742778 0.741188 0.001000
0.772775 0.740187 0.001000
0.802624 0.739192 0.001000
0.832330 0.738202 0.001000
0.852156 0.737578 0.001000
0.869970 0.737028 0.001000
0.887709 0.736481 0.001000
0.905377 0.735937 0.001000
0.922974 0.735396 0.001000
0.940505 0.734857 0.001000
0.957972 0.734320 0.001000
0.038921 0.741077 0.038921
0.077702 0.741077 0.038921
0.113889 0.741077 0.038921
0.148543 0.741077 0.038921
0.182118 0.741077 0.038921
0.214864 0.741077 0.038921
0.246940 0.741077 0.038921
0.278456 0.741077 0.038921
0.309492 0.741077 0.038921
0.340108 0.741077 0.038921
0.370353 0.741077 0.038921
0.400264 0.741077 0.038921
0.429872 0.741077 0.038921
0.459226 0.741083 0.038890
0.488638 0.741166 0.038392
0.517816 0.741249 0.037893
0.546775 0.741332 0.037395
0.575531 0.741415 0.036897
0.604096 0.741498 0.036398
0.632482 0.741581 0.035900
0.660699 0.741664 0.035402
0.688756 0.741747 0.034904
0.716660 0.741830 0.034405
0.772941 0.770133 0.001000
0.802790 0.769138 0.001000
0.832496 0.768148 0.001000
0.852321 0.767524 0.001000
0.870136 0.766974 0.001000
0.887875 0.766427 0.001000
0.905542 0.765883 0.001000
0.923140 0.765342 0.001000
0.940671 0.764803 0.001000
0.958137 0.764266 0.001000
0.038921 0.768367 0.038921
0.077702 0.768367 0.038921
0.113889 0.768367 0.038921
0.148543 0.768367 0.038921
0.182118 0.768367 0.038921
0.214864 0.768367 0.038921
0.246940 0.768367 0.038921
0.278456 0.768367 0.038921
0.309492 0.768367 0.038921
0.340108 0.768367 0.038921
0.370495 0.768403 0.038708
0.400738 0.768486 0.038210
0.430679 0.768569 0.037712
0.460344 0.768652 0.037214
0.489756 0.768735 0.036715
0.518933 0.768818 0.036217
0.547893 0.768901 0.035719
0.576649 0.768984 0.035221
0.605214 0.769067 0.034722
0.633600 0.769150 0.034224
0.661817 0.769233 0.033726
0.689873 0.769316 0.033227
0.717778 0.769399 0.032729
0.745538 0.769482 0.032231
0.802961 0.798935 0.001000
0.832667 0.797945 0.001000
0.852493 0.797321 0.001000
0.870307 0.796771 0.001000
0.888046 0.796225 0.001000
0.905713 0.795681 0.001000
0.923311 0.795139 0.001000
0.940842 0.794600 0.001000
0.958308 0.794063 0.001000
0.038921 0.795526 0.038921
0.077702 0.795526 0.038921
0.113889 0.795526 0.038921
0.148543 0.795526 0.038921
0.182118 0.795526 0.038921
0.214864 0.795526 0.038921
0.246940 0.795526 0.038921
0.278719 0.795592 0.038527
0.310087 0.795675 0.038029
0.341035 0.795758 0.037531
0.371612 0.795841 0.037032
0.401855 0.795924 0.036534
0.431796 0.796007 0.036036
0.461461 0.796090 0.035537
0.490873 0.796173 0.035039
0.520051 0.796256 0.034541
0.549010 0.796339 0.034043
0.577766 0.796422 0.033544
0.606331 0.796505 0.033046
0.634717 0.796588 0.032548
0.662934 0.796671 0.032049
0.690991 0.796754 0.031551
0.718895 0.796837 0.031053
0.746655 0.796920 0.030555
0.774277 0.797003 0.030056
0.832844 0.827600 0.001000
0.852669 0.826976 0.001000
0.870483 0.826427 0.001000
0.888223 0.825880 0.001000
0.905890 0.825336 0.001000
0.923488 0.824794 0.001000
0.941018 0.824255 0.001000
0.958485 0.823719 0.001000
0.038921 0.813535 0.038921
0.077702 0.813535 0.038921
0.113889 0.813535 0.038921
0.148595 0.813548 0.038844
0.182502 0.813631 0.038346
0.215580 0.813714 0.037847
0.247988 0.813797 0.037349
0.279836 0.813880 0.036851
0.311204 0.813963 0.036353
0.342153 0.814046 0.035854
0.372730 0.814129 0.035356
0.402973 0.814212 0.034858
0.432914 0.814295 0.034359
0.462579 0.814378 0.033861
0.491991 0.814462 0.033363
0.521168 0.814545 0.032865
0.550128 0.814628 0.032366
0.578884 0.814711 0.031868
0.607449 0.814794 0.031370
0.635835 0.814877 0.030871
0.664052 0.814960 0.030373
0.692108 0.815043 0.029875
