Resources/LUTs/Kodak_Portra_400_Linear.cube
# Kodak Portra 400 Linear Simulation v2
# Linear Input/Output - Use with sRGB<->Linear conversion
# Characteristics: Low contrast, warm tones, lifted blacks,
#                  golden highlights, beautiful skin tones
TITLE "Kodak Portra 400 Linear v2"
LUT_3D_SIZE 5
DOMAIN_MIN 0.0 0.0 0.0
DOMAIN_MAX 1.0 1.0 1.0
0.055008 0.051473 0.044675
0.292441 0.048432 0.042672
0.520892 0.045815 0.040232
0.746665 0.043581 0.037263
0.960840 0.041837 0.033890
0.046757 0.279909 0.035775
0.291331 0.279013 0.028817
0.522875 0.277475 0.024355
0.750138 0.275784 0.020481
0.963708 0.273896 0.017671
0.044080 0.501181 0.024169
0.282804 0.498854 0.021639
0.517126 0.497851 0.015242
0.739979 0.494995 0.014770
0.950090 0.492266 0.014608
0.034010 0.716912 0.018648
0.271705 0.714459 0.016902
0.501036 0.712728 0.014066
0.727768 0.711409 0.010484
0.942927 0.710547 0.006298
0.029107 0.923214 0.009569
0.270419 0.922202 0.004887
0.502667 0.921562 0.000000
0.731960 0.921182 0.000000
0.946675 0.919985 0.000000
0.053745 0.050406 0.273078
0.291451 0.047472 0.270901
0.520200 0.044971 0.268270
0.746273 0.042859 0.265116
0.960648 0.041201 0.261627
0.046475 0.279234 0.263563
0.291532 0.278468 0.256263
0.522898 0.276884 0.251939
0.749793 0.275096 0.248349
0.962875 0.273079 0.245915
0.043443 0.500419 0.252259
0.281861 0.498006 0.249970
0.515656 0.496865 0.243978
0.738207 0.493930 0.243738
0.948828 0.491440 0.243155
0.032621 0.715945 0.247331
0.270997 0.713791 0.245027
0.500664 0.712195 0.241918
0.727709 0.710993 0.238083
0.943153 0.710234 0.233668
0.029156 0.922837 0.237081
0.270739 0.921923 0.232182
0.503209 0.921364 0.226813
0.732678 0.921051 0.221023
0.945810 0.919159 0.218523
0.052605 0.049408 0.492031
0.290594 0.046584 0.489673
0.519645 0.044201 0.486849
0.746018 0.042214 0.483514
0.960482 0.040596 0.479977
0.046311 0.278630 0.481911
0.286600 0.276746 0.478142
0.516752 0.274870 0.474724
0.742680 0.272843 0.471862
0.955272 0.270697 0.469807
0.042738 0.499662 0.471035
0.280852 0.497162 0.468987
0.514096 0.495880 0.463415
0.736444 0.492897 0.463331
0.947740 0.490707 0.462193
0.031636 0.715176 0.466316
0.270442 0.713205 0.463662
0.500436 0.711736 0.460288
0.727786 0.710647 0.456207
0.943501 0.709986 0.451574
0.029336 0.922529 0.455122
0.271173 0.921707 0.450018
0.503849 0.921224 0.444482
0.732490 0.920542 0.439372
0.944988 0.918368 0.437392
0.051570 0.048457 0.707514
0.289851 0.045747 0.704968
0.519204 0.043485 0.701955
0.745863 0.041620 0.698452
0.960307 0.039998 0.694932
0.046165 0.278040 0.696843
0.286385 0.276137 0.693129
0.516347 0.274207 0.689861
0.741995 0.272100 0.687221
0.954282 0.269867 0.685408
0.041940 0.498887 0.686483
0.279760 0.496304 0.684668
0.507034 0.493613 0.683527
0.730781 0.491037 0.682379
0.943710 0.489315 0.679999
0.030848 0.714499 0.681740
0.270013 0.712678 0.678793
0.500326 0.711329 0.675162
0.727972 0.710348 0.670842
0.943942 0.709780 0.666004
0.029620 0.922266 0.669678
0.271695 0.921531 0.664382
0.504562 0.921119 0.658692
0.731661 0.919758 0.654845
0.944185 0.917592 0.652844
0.050674 0.047588 0.910999
0.289255 0.044994 0.908262
0.518908 0.042853 0.905062
0.745761 0.041073 0.901448
0.960139 0.039432 0.897980
0.046053 0.277490 0.899847
0.286163 0.275555 0.896220
0.515898 0.273561 0.893132
0.741248 0.271370 0.890727
0.953240 0.269054 0.889147
0.041082 0.498126 0.890078
0.278625 0.495465 0.888481
0.505719 0.492722 0.887483
0.730025 0.490399 0.885876
0.943316 0.488827 0.883201
0.030236 0.713923 0.885118
0.269737 0.712235 0.881899
0.500363 0.711004 0.878015
0.728293 0.710125 0.873467
0.944502 0.709644 0.868436
0.030034 0.922076 0.872228
0.272331 0.921423 0.866753
0.505373 0.921077 0.860922
0.730886 0.919020 0.858373
0.943431 0.916860 0.856356
