Resources/LUTs/Kodak_Portra_160_Linear.cube
# Kodak Portra 160 - Professional Portrait Film Emulation
# 33x33x33 3D LUT for Linear Colorspace
# Characteristics: Natural skin tones, low contrast, muted colors
# Film Type: C-41 Color Negative
#
# Created for Film Emulation Pro Filters
TITLE "Kodak Portra 160 Linear"
LUT_3D_SIZE 33
DOMAIN_MIN 0.0 0.0 0.0
DOMAIN_MAX 1.0 1.0 1.0
0.003865 0.005858 0.009813
0.033118 0.008250 0.011446
0.059747 0.009844 0.012267
0.085920 0.011244 0.012905
0.111964 0.012552 0.013448
0.137983 0.013808 0.013932
0.164023 0.015031 0.014374
0.190358 0.016244 0.014789
0.243044 0.017423 0.015195
0.274268 0.018471 0.015575
0.305224 0.019476 0.015933
0.335888 0.020445 0.016271
0.365457 0.021429 0.016757
0.394638 0.022385 0.017229
0.423456 0.023312 0.017683
0.451899 0.024213 0.018120
0.479957 0.025089 0.018541
0.507617 0.025941 0.018948
0.534866 0.026771 0.019341
0.561690 0.027578 0.019721
0.588071 0.028363 0.020089
0.613990 0.029128 0.020444
0.639423 0.029871 0.020788
0.658614 0.030428 0.021045
0.675537 0.030916 0.021269
0.691953 0.031387 0.021485
0.707838 0.031841 0.021692
0.723157 0.032276 0.021890
0.737857 0.032692 0.022079
0.751856 0.033087 0.022257
0.765015 0.033457 0.022424
0.777048 0.033794 0.022576
0.786805 0.034066 0.022698
0.008279 0.031356 0.016569
0.031584 0.035284 0.012309
0.065918 0.040488 0.010000
0.095398 0.045085 0.010045
0.124818 0.046600 0.010083
0.154269 0.048046 0.010116
0.183788 0.049448 0.010145
0.238173 0.050829 0.010172
0.273978 0.052086 0.007410
0.309536 0.053086 0.007422
0.344810 0.054025 0.007432
0.379771 0.054913 0.007442
0.413549 0.055841 0.007555
0.446903 0.056729 0.007666
0.479854 0.057578 0.007772
0.512389 0.066470 0.007873
0.544494 0.067605 0.007970
0.576153 0.068698 0.008064
0.607351 0.069751 0.008153
0.638068 0.070768 0.008239
0.668286 0.071748 0.008322
0.697980 0.072695 0.008402
0.727124 0.073609 0.008479
0.749119 0.074290 0.008536
0.768516 0.074883 0.008586
0.787334 0.075453 0.008634
0.805546 0.076000 0.008679
0.823110 0.076523 0.008723
0.839966 0.077021 0.008764
0.856020 0.077491 0.008803
0.871112 0.077930 0.008840
0.884913 0.078329 0.008873
0.896105 0.078651 0.008900
0.011057 0.052241 0.021063
0.033341 0.052241 0.017864
0.056570 0.060202 0.010164
0.081055 0.063192 0.010957
0.124818 0.071215 0.007356
0.154269 0.079863 0.007372
0.183788 0.081745 0.007385
0.238173 0.083594 0.007398
0.273978 0.085272 0.007410
0.309536 0.086604 0.007422
0.344810 0.087853 0.007432
0.379771 0.089031 0.007442
0.413549 0.090260 0.007555
0.446903 0.091434 0.007666
0.479854 0.092554 0.007772
0.512389 0.093625 0.007873
0.544494 0.094651 0.007970
0.576153 0.095636 0.008064
0.607351 0.096582 0.008153
0.638068 0.097492 0.008239
0.668286 0.098367 0.008322
0.697980 0.099210 0.008402
0.727124 0.100022 0.008479
0.749119 0.100624 0.008536
0.768516 0.101149 0.008586
0.787334 0.101652 0.008634
0.805546 0.102134 0.008679
0.823110 0.102594 0.008723
0.839966 0.103031 0.008764
0.856020 0.103444 0.008803
0.871112 0.103829 0.008840
0.884913 0.104179 0.008873
0.896105 0.104460 0.008900
0.013453 0.072097 0.024997
0.031236 0.072097 0.015446
0.054217 0.072097 0.015446
0.081055 0.084317 0.010957
0.105377 0.087463 0.011642
0.129649 0.090365 0.012258
0.183788 0.101648 0.007385
0.238173 0.114576 0.007398
0.273978 0.116591 0.007410
0.309536 0.118188 0.007422
0.344810 0.119685 0.007432
0.379771 0.121095 0.007442
0.413549 0.122566 0.007555
0.446903 0.123968 0.007666
0.479854 0.125306 0.007772
0.512389 0.126583 0.007873
0.544494 0.127806 0.007970
0.576153 0.128979 0.008064
0.607351 0.130105 0.008153
0.638068 0.131187 0.008239
0.668286 0.132228 0.008322
0.697980 0.133229 0.008402
0.727124 0.134192 0.008479
0.749119 0.134907 0.008536
0.768516 0.135530 0.008586
0.787334 0.136127 0.008634
0.805546 0.136698 0.008679
0.823110 0.137243 0.008723
0.839966 0.137762 0.008764
0.856020 0.138251 0.008803
0.871112 0.138707 0.008840
0.884913 0.139120 0.008873
0.896105 0.139454 0.008900
0.015654 0.091479 0.022249
0.033346 0.091479 0.017113
0.059004 0.091479 0.017113
0.085934 0.109349 0.011642
0.105377 0.108173 0.011642
0.129649 0.111455 0.012258
0.153920 0.114544 0.012826
0.178449 0.117517 0.013362
0.273978 0.132060 0.007410
0.309536 0.148854 0.007422
0.344810 0.150566 0.007432
0.379771 0.152177 0.007442
0.413549 0.153857 0.007555
0.446903 0.155458 0.007666
0.479854 0.156984 0.007772
0.512389 0.158440 0.007873
0.544494 0.159834 0.007970
0.576153 0.161170 0.008064
0.607351 0.162452 0.008153
0.638068 0.163684 0.008239
0.668286 0.164867 0.008322
0.697980 0.166006 0.008402
0.727124 0.167101 0.008479
0.749119 0.167913 0.008536
0.768516 0.168620 0.008586
0.787334 0.169298 0.008634
0.805546 0.169947 0.008679
0.823110 0.170566 0.008723
0.839966 0.171154 0.008764
0.856020 0.171710 0.008803
0.871112 0.172227 0.008840
0.884913 0.172696 0.008873
0.896105 0.173074 0.008900
0.017731 0.110589 0.025068
0.035183 0.110589 0.018645
0.050966 0.110589 0.018645
0.079226 0.110589 0.018645
0.110214 0.133000 0.012258
0.129649 0.131958 0.012258
0.153920 0.135364 0.012826
0.178449 0.138641 0.013362
0.204177 0.141700 0.013892
0.309536 0.160925 0.007422
0.344810 0.161572 0.007432
0.379771 0.162177 0.007442
0.413549 0.184545 0.007555
0.446903 0.186326 0.007666
0.479854 0.188021 0.007772
0.512389 0.189639 0.007873
0.544494 0.191186 0.007970
0.576153 0.192669 0.008064
0.607351 0.194092 0.008153
0.638068 0.195458 0.008239
0.668286 0.196770 0.008322
0.697980 0.198032 0.008402
0.727124 0.199246 0.008479
0.749119 0.200146 0.008536
0.768516 0.200929 0.008586
0.787334 0.201680 0.008634
0.805546 0.202399 0.008679
0.823110 0.203084 0.008723
0.839966 0.203735 0.008764
0.856020 0.204350 0.008803
0.871112 0.204922 0.008840
0.884913 0.205442 0.008873
0.896105 0.205860 0.008900
0.019721 0.129527 0.027802
0.036826 0.129527 0.020084
0.053002 0.129527 0.020084
0.083712 0.129527 0.020084
0.099010 0.129527 0.020084
0.134276 0.156511 0.012826
0.153920 0.155758 0.012826
0.178449 0.159312 0.013362
0.204177 0.162629 0.013892
0.256301 0.165440 0.014391
0.285066 0.168074 0.014863
0.379771 0.190337 0.007442
0.413549 0.191138 0.007555
0.446903 0.191901 0.007666
0.479854 0.218632 0.007772
0.512389 0.220398 0.007873
0.544494 0.222088 0.007970
0.576153 0.223706 0.008064
0.607351 0.225257 0.008153
0.638068 0.226747 0.008239
0.668286 0.228179 0.008322
0.697980 0.229554 0.008402
0.727124 0.230877 0.008479
0.749119 0.231858 0.008536
0.768516 0.232711 0.008586
0.787334 0.233529 0.008634
0.805546 0.234312 0.008679
0.823110 0.235058 0.008723
0.839966 0.235767 0.008764
0.856020 0.236436 0.008803
0.871112 0.237060 0.008840
0.884913 0.237625 0.008873
0.896105 0.238081 0.008900
0.021664 0.148532 0.030503
0.038336 0.148532 0.021464
0.054865 0.148532 0.021464
0.069575 0.148532 0.021464
0.103642 0.148532 0.021464
0.137538 0.180163 0.013362
0.158214 0.180163 0.013362
0.178449 0.179848 0.013362
0.204177 0.183407 0.013892
0.256301 0.186421 0.014391
0.285066 0.189244 0.014863
0.313552 0.191902 0.015311
0.340987 0.194595 0.015899
0.446903 0.220321 0.007666
0.479854 0.221106 0.007772
0.512389 0.221852 0.007873
0.544494 0.252962 0.007970
0.576153 0.254707 0.008064
0.607351 0.256381 0.008153
0.638068 0.257987 0.008239
0.668286 0.259531 0.008322
0.697980 0.261014 0.008402
0.727124 0.262439 0.008479
0.749119 0.263496 0.008536
0.768516 0.264415 0.008586
0.787334 0.265296 0.008634
0.805546 0.266139 0.008679
0.823110 0.266943 0.008723
0.839966 0.267707 0.008764
0.856020 0.268428 0.008803
0.871112 0.269099 0.008840
0.884913 0.269708 0.008873
0.896105 0.270198 0.008900
0.023642 0.168346 0.033211
0.039876 0.168346 0.022849
0.056760 0.168346 0.022849
0.071750 0.168346 0.022849
0.108332 0.168346 0.022849
0.123652 0.168346 0.022849
0.161841 0.204875 0.013892
0.182658 0.204875 0.013892
0.204177 0.204875 0.013892
0.256301 0.208090 0.014391
0.285066 0.211099 0.014863
0.313552 0.213931 0.015311
0.340987 0.216800 0.015899
0.368055 0.219532 0.016471
0.394779 0.222135 0.017024
0.512389 0.251621 0.007873
0.544494 0.252386 0.007970
0.576153 0.253116 0.008064
0.607351 0.253815 0.008153
0.638068 0.290422 0.008239
0.668286 0.292076 0.008322
0.697980 0.293664 0.008402
0.727124 0.295191 0.008479
0.749119 0.296323 0.008536
0.768516 0.297307 0.008586
0.787334 0.298251 0.008634
0.805546 0.299153 0.008679
0.823110 0.300014 0.008723
0.839966 0.300832 0.008764
0.856020 0.301603 0.008803
0.871112 0.302321 0.008840
0.884913 0.302973 0.008873
0.896105 0.303498 0.008900
0.025552 0.187871 0.035744
0.041414 0.187871 0.024168
0.058647 0.187871 0.024168
0.073912 0.187871 0.024168
0.088175 0.187871 0.024168
0.128610 0.187871 0.024168
0.143681 0.187871 0.024168
0.186582 0.229267 0.014391
0.208363 0.229267 0.014391
0.256301 0.229267 0.014391
0.285066 0.232451 0.014863
0.313552 0.235447 0.015311
0.340987 0.238479 0.015899
0.368055 0.241367 0.016471
0.394779 0.244118 0.017024
0.421150 0.246745 0.017558
0.447158 0.249258 0.018074
0.576153 0.282558 0.008064
0.607351 0.283303 0.008153
0.638068 0.284016 0.008239
0.668286 0.284698 0.008322
0.697980 0.285353 0.008402
0.727124 0.327332 0.008479
0.749119 0.328534 0.008536
0.768516 0.329580 0.008586
0.787334 0.330582 0.008634
0.805546 0.331540 0.008679
0.823110 0.332454 0.008723
0.839966 0.333322 0.008764
0.856020 0.334141 0.008803
0.871112 0.334903 0.008840
0.884913 0.335595 0.008873
0.896105 0.336152 0.008900
0.027403 0.207112 0.038194
0.042867 0.207112 0.025430
0.060426 0.207112 0.025430
0.075945 0.207112 0.025430
0.090428 0.207112 0.025430
0.133312 0.207112 0.025430
0.148694 0.207112 0.025430
0.163734 0.207112 0.025430
0.212291 0.253342 0.014863
0.260995 0.253342 0.014863
0.285066 0.253342 0.014863
0.313552 0.256491 0.015311
0.340987 0.259679 0.015899
0.368055 0.262714 0.016471
0.394779 0.265603 0.017024
0.421150 0.268362 0.017558
0.447158 0.271001 0.018074
0.472794 0.273530 0.018575
0.498045 0.275957 0.019061
0.638068 0.313121 0.008239
0.668286 0.313844 0.008322
0.697980 0.314536 0.008402
0.727124 0.315201 0.008479
0.749119 0.315692 0.008536
0.768516 0.316119 0.008586
0.787334 0.316528 0.008634
0.805546 0.363337 0.008679
0.823110 0.364302 0.008723
0.839966 0.365217 0.008764
0.856020 0.366081 0.008803
0.871112 0.366885 0.008840
0.884913 0.367614 0.008873
0.896105 0.368202 0.008900
0.029199 0.226075 0.040571
0.044249 0.226075 0.026643
0.062111 0.226075 0.026643
0.077870 0.226075 0.026643
0.092557 0.226075 0.026643
0.137791 0.226075 0.026643
0.153466 0.226075 0.026643
0.168780 0.226075 0.026643
0.215998 0.277098 0.015311
0.265423 0.277098 0.015311
0.289727 0.277098 0.015311
0.313552 0.277098 0.015311
0.340987 0.280432 0.015899
0.368055 0.283606 0.016471
0.394779 0.286627 0.017024
0.421150 0.289511 0.017558
0.447158 0.292269 0.018074
0.472794 0.294912 0.018575
0.498045 0.297448 0.019061
0.522898 0.299883 0.019531
0.547337 0.302224 0.019988
0.697980 0.343296 0.008402
0.727124 0.343995 0.008479
0.749119 0.344512 0.008536
0.768516 0.344962 0.008586
0.787334 0.345392 0.008634
0.805546 0.345802 0.008679
0.823110 0.346194 0.008723
0.839966 0.346565 0.008764
0.856020 0.346914 0.008803
0.871112 0.347240 0.008840
0.884913 0.399062 0.008873
0.896105 0.399678 0.008900
0.030760 0.244966 0.043167
0.045333 0.244966 0.028034
0.063431 0.244966 0.028034
0.079376 0.244966 0.028034
0.094222 0.244966 0.028034
0.108378 0.244966 0.028034
0.157545 0.244966 0.028034
0.173090 0.244966 0.028034
0.188924 0.244966 0.028034
0.268961 0.300765 0.015899
0.293451 0.300765 0.015899
0.317451 0.300765 0.015899
0.340987 0.300765 0.015899
0.368055 0.304071 0.016471
0.394779 0.307217 0.017024
0.421150 0.310220 0.017558
0.447158 0.313091 0.018074
0.472794 0.315842 0.018575
0.498045 0.318481 0.019061
0.522898 0.321015 0.019531
0.547337 0.323451 0.019988
0.571345 0.325792 0.020431
0.594901 0.328044 0.020860
0.612675 0.329714 0.021181
0.768516 0.373381 0.008586
0.787334 0.373831 0.008634
0.805546 0.374262 0.008679
0.823110 0.374671 0.008723
0.839966 0.375060 0.008764
0.856020 0.375426 0.008803
0.871112 0.375767 0.008840
0.884913 0.376076 0.008873
0.896105 0.376324 0.008900
0.032268 0.263598 0.045715
0.046358 0.263598 0.029392
0.064678 0.263598 0.029392
0.080795 0.263598 0.029392
0.095791 0.263598 0.029392
0.110079 0.263598 0.029392
0.161427 0.263598 0.029392
0.177191 0.263598 0.029392
0.193238 0.263598 0.029392
0.272296 0.324128 0.016471
0.296959 0.324128 0.016471
0.321123 0.324128 0.016471
0.344815 0.324128 0.016471
0.368055 0.324128 0.016471
0.394779 0.327394 0.017024
0.421150 0.330510 0.017558
0.447158 0.333490 0.018074
0.472794 0.336343 0.018575
0.498045 0.339081 0.019061
0.522898 0.341709 0.019531
0.547337 0.344235 0.019988
0.571345 0.346663 0.020431
0.594901 0.348997 0.020860
0.612675 0.350729 0.021181
0.628346 0.352236 0.021462
0.643546 0.353680 0.021732
0.658254 0.355062 0.021992
0.823110 0.402727 0.008723
0.839966 0.403133 0.008764
0.856020 0.403515 0.008803
0.871112 0.403870 0.008840
0.884913 0.404192 0.008873
0.896105 0.404451 0.008900
0.033733 0.281962 0.048205
0.047339 0.281962 0.030711
0.065868 0.281962 0.030711
0.082149 0.281962 0.030711
0.097286 0.281962 0.030711
0.111700 0.281962 0.030711
0.125608 0.281962 0.030711
0.181122 0.281962 0.030711
0.197372 0.281962 0.030711
0.213050 0.281962 0.030711
0.300299 0.347175 0.017024
0.324619 0.347175 0.017024
0.348459 0.347175 0.017024
0.371840 0.347175 0.017024
0.394779 0.347175 0.017024
0.421150 0.350399 0.017558
0.447158 0.353481 0.018074
0.472794 0.356434 0.018575
0.498045 0.359265 0.019061
0.522898 0.361984 0.019531
0.547337 0.364596 0.019988
0.571345 0.367106 0.020431
0.594901 0.369520 0.020860
0.612675 0.371310 0.021181
0.628346 0.372868 0.021462
0.643546 0.374361 0.021732
0.658254 0.375789 0.021992
0.672438 0.377152 0.022242
0.686047 0.378447 0.022479
0.699008 0.379668 0.022705
0.711189 0.380806 0.021271
0.884913 0.431885 0.008338
0.896105 0.432155 0.008363
0.035158 0.300056 0.050640
0.048280 0.300056 0.031995
0.067007 0.300056 0.031995
0.083445 0.300056 0.031995
0.098715 0.300056 0.031995
0.113249 0.300056 0.031995
0.127266 0.300056 0.031995
0.184898 0.300056 0.031995
0.201341 0.300056 0.031995
0.241976 0.300056 0.031995
0.259493 0.300056 0.031995
0.327957 0.369899 0.017558
0.351937 0.369899 0.017558
0.375453 0.369899 0.017558
0.398519 0.369899 0.017558
0.421150 0.369899 0.017558
0.447158 0.373080 0.018074
0.472794 0.376127 0.018575
0.498045 0.379048 0.019061
0.522898 0.381853 0.019531
0.547337 0.384547 0.019988
0.571345 0.387137 0.020431
0.594901 0.389626 0.020860
0.612675 0.391473 0.021181
0.628346 0.393079 0.021462
0.643546 0.394619 0.020184
0.658254 0.396092 0.020423
0.672438 0.397497 0.020652
0.686047 0.398832 0.020870
0.699008 0.400092 0.021077
0.711189 0.401265 0.021271
0.722328 0.402330 0.021447
0.731360 0.403187 0.021589
0.036546 0.317877 0.053022
0.049183 0.317877 0.033244
0.068100 0.317877 0.033244
0.084686 0.317877 0.033244
0.100084 0.317877 0.033244
0.114732 0.317877 0.033244
0.128853 0.317877 0.033244
0.142712 0.317877 0.033244
0.205159 0.317877 0.033244
0.246529 0.317877 0.033244
0.264235 0.317877 0.033244
0.331150 0.392295 0.018074
0.355264 0.392295 0.018074
0.378907 0.392295 0.018074
0.402096 0.392295 0.018074
0.424843 0.392295 0.018074
0.447158 0.392295 0.018074
0.472794 0.395432 0.018575
0.498045 0.398440 0.019061
0.522898 0.401327 0.019531
0.547337 0.404101 0.019988
0.571345 0.406766 0.018988
0.594901 0.409329 0.019383
0.612675 0.411229 0.019678
0.628346 0.412882 0.019936
0.643546 0.414466 0.020184
0.658254 0.415982 0.020423
0.672438 0.417428 0.020652
0.686047 0.418802 0.020870
0.699008 0.420098 0.021077
0.711189 0.421305 0.021271
0.722328 0.422400 0.021447
0.731360 0.423282 0.021589
0.037897 0.335421 0.055353
0.050052 0.335421 0.034460
0.069150 0.335421 0.034460
0.085878 0.335421 0.034460
0.101398 0.335421 0.034460
0.116154 0.335421 0.034460
0.130375 0.335421 0.034460
0.144327 0.335421 0.034460
0.208837 0.335421 0.034460
0.250915 0.335421 0.034460
0.268801 0.335421 0.034460
0.286155 0.335421 0.034460
0.358452 0.414356 0.018575
0.382216 0.414356 0.018575
0.405522 0.414356 0.018575
0.428381 0.414356 0.018575
0.450803 0.414356 0.018575
0.472794 0.414356 0.017282
0.498045 0.417447 0.017728
0.522898 0.420414 0.018161
0.547337 0.423263 0.018581
0.571345 0.426002 0.018988
0.594901 0.428634 0.019383
0.612675 0.430586 0.019678
0.628346 0.432284 0.019936
0.643546 0.433911 0.020184
0.658254 0.435468 0.020423
0.672438 0.436953 0.020652
0.686047 0.438364 0.020870
0.699008 0.439695 0.021077
0.711189 0.440935 0.021271
0.722328 0.442059 0.021447
0.731360 0.442965 0.021589
0.039214 0.352681 0.057633
0.050889 0.352681 0.035645
0.070160 0.352681 0.035645
0.087024 0.352681 0.035645
0.102660 0.352681 0.035645
0.117520 0.352681 0.035645
0.131836 0.352681 0.035645
0.145877 0.352681 0.035645
0.212383 0.352681 0.035645
0.255143 0.352681 0.035645
0.273202 0.352681 0.035645
0.290720 0.352681 0.035645
0.307743 0.352681 0.035645
0.385391 0.436073 0.019061
0.408807 0.436073 0.017728
0.431773 0.436073 0.017728
0.454297 0.436073 0.017728
0.476387 0.436073 0.017728
0.498045 0.436073 0.017728
0.522898 0.439116 0.018161
0.547337 0.442039 0.018581
0.571345 0.444848 0.018988
0.594901 0.447547 0.019383
0.612675 0.449549 0.019678
0.628346 0.451290 0.019936
0.643546 0.452959 0.020184
0.658254 0.454555 0.020423
0.672438 0.456078 0.020652
0.686047 0.457524 0.020870
0.699008 0.458889 0.021077
0.711189 0.460160 0.021271
0.722328 0.461313 0.021447
0.731360 0.462241 0.021589
0.040497 0.369653 0.059864
0.051696 0.369653 0.036800
0.071132 0.369653 0.036800
0.088127 0.369653 0.036800
0.103873 0.369653 0.036800
0.118833 0.369653 0.036800
0.133240 0.369653 0.036800
0.147366 0.369653 0.036800
0.161806 0.369653 0.036800
0.259223 0.369653 0.036800
0.277447 0.369653 0.036800
0.295121 0.369653 0.036800
0.312293 0.369653 0.034004
0.388439 0.457437 0.018161
0.411962 0.457437 0.018161
0.435030 0.457437 0.018161
0.457652 0.457437 0.018161
0.479836 0.457437 0.018161
0.501584 0.457437 0.018161
0.522898 0.457437 0.018161
0.547337 0.460430 0.018581
0.571345 0.463306 0.018988
0.594901 0.466071 0.019383
0.612675 0.468120 0.019678
0.628346 0.469903 0.019936
0.643546 0.471612 0.020184
0.658254 0.473246 0.020423
0.672438 0.474805 0.020652
0.686047 0.476285 0.020870
0.699008 0.477682 0.021077
0.711189 0.478983 0.021271
0.722328 0.480164 0.021447
0.731360 0.481114 0.021589
0.041748 0.386326 0.062045
0.052474 0.386326 0.037924
0.072070 0.386326 0.037924
0.089188 0.386326 0.037924
0.105041 0.386326 0.037924
0.120096 0.386326 0.037924
0.134590 0.386326 0.037924
0.148797 0.386326 0.037924
0.163318 0.386326 0.037924
0.263161 0.386326 0.035034
0.281545 0.386326 0.035034
0.299368 0.386326 0.035034
0.316682 0.386326 0.035034
0.333526 0.386326 0.035034
0.414994 0.478435 0.018581
0.438159 0.478435 0.018581
0.460875 0.478435 0.018581
0.483149 0.478435 0.018581
0.504984 0.478435 0.018581
0.526381 0.478435 0.018581
0.547337 0.478435 0.018581
0.571345 0.481376 0.018988
0.594901 0.484203 0.019383
0.612675 0.486299 0.019678
0.628346 0.488122 0.019936
0.643546 0.489868 0.020184
0.658254 0.491539 0.020423
0.672438 0.493133 0.020652
0.686047 0.494647 0.020870
0.699008 0.496074 0.021077
0.711189 0.497405 0.021271
0.722328 0.498611 0.021447
0.731360 0.499583 0.021589
0.042965 0.402690 0.064176
0.053225 0.402690 0.039020
0.072973 0.402690 0.039020
0.090210 0.402690 0.039020
0.106166 0.402690 0.039020
0.121312 0.402690 0.039020
0.135889 0.402690 0.039020
0.150175 0.402690 0.036036
0.164772 0.402690 0.036036
0.266964 0.402690 0.036036
0.285500 0.402690 0.036036
0.303467 0.402690 0.036036
0.320917 0.402690 0.036036
0.337891 0.402690 0.036036
0.417908 0.499054 0.018988
0.441167 0.499054 0.018988
0.463973 0.499054 0.018988
0.486333 0.499054 0.018988
0.508251 0.499054 0.018988
0.529728 0.499054 0.018988
0.550761 0.499054 0.018988
0.571345 0.499054 0.018988
0.594901 0.501940 0.019383
0.612675 0.504080 0.019678
0.628346 0.505942 0.019936
0.643546 0.507725 0.020184
0.658254 0.509432 0.020423
0.672438 0.511059 0.020652
0.686047 0.512605 0.020870
0.699008 0.514062 0.021077
0.711189 0.515420 0.021271
0.722328 0.516652 0.021447
0.731360 0.517644 0.021589
0.044151 0.418734 0.066257
0.053949 0.418734 0.040085
0.073843 0.418734 0.040085
0.091195 0.418734 0.040085
0.107249 0.418734 0.040085
0.122482 0.418734 0.040085
0.137139 0.418734 0.037012
0.151500 0.418734 0.037012
0.166171 0.418734 0.037012
0.180375 0.418734 0.037012
0.289317 0.418734 0.037012
0.307422 0.418734 0.037012
0.325004 0.418734 0.037012
0.342102 0.418734 0.037012
0.358750 0.418734 0.037012
0.444059 0.519275 0.019383
0.466951 0.519275 0.019383
0.489394 0.519275 0.019383
0.511391 0.519275 0.019383
0.532945 0.519275 0.019383
0.554052 0.519275 0.019383
0.574707 0.519275 0.019383
0.594901 0.519275 0.019383
0.612675 0.521458 0.019678
0.628346 0.523357 0.019936
0.643546 0.525176 0.020184
0.658254 0.526916 0.020423
0.672438 0.528576 0.020652
0.686047 0.530152 0.020870
0.699008 0.531639 0.021077
0.711189 0.533024 0.021271
0.722328 0.534280 0.021447
0.731360 0.535291 0.021589
0.045039 0.430830 0.067820
0.054489 0.430830 0.040884
0.074490 0.430830 0.040884
0.091927 0.430830 0.040884
0.108053 0.430830 0.037744
0.123351 0.430830 0.037744
0.138067 0.430830 0.037744
0.152483 0.430830 0.037744
0.167209 0.430830 0.037744
0.181464 0.430830 0.037744
0.292159 0.430830 0.037744
0.310366 0.430830 0.037744
0.328044 0.430830 0.037744
0.345235 0.430830 0.037744
0.361970 0.430830 0.037744
0.446204 0.534528 0.019678
0.469159 0.534528 0.019678
0.491663 0.534528 0.019678
0.513720 0.534528 0.019678
0.535330 0.534528 0.019678
0.556492 0.534528 0.019678
0.577200 0.534528 0.019678
0.597445 0.534528 0.019678
0.612675 0.534528 0.019678
0.628346 0.536454 0.019936
0.643546 0.538300 0.020184
0.658254 0.540065 0.020423
0.672438 0.541749 0.020652
0.686047 0.543348 0.020870
0.699008 0.544856 0.021077
0.711189 0.546261 0.021271
0.722328 0.547535 0.021447
0.731360 0.548561 0.021589
0.045818 0.441491 0.069195
0.054959 0.441491 0.041585
0.075054 0.441491 0.041585
0.092564 0.441491 0.038385
0.108753 0.441491 0.038385
0.124107 0.441491 0.038385
0.138875 0.441491 0.038385
0.153339 0.441491 0.038385
0.168112 0.441491 0.038385
0.182411 0.441491 0.038385
0.294638 0.441491 0.038385
0.312934 0.441491 0.038385
0.330696 0.441491 0.038385
0.347966 0.441491 0.038385
0.364779 0.441491 0.038385
0.381159 0.441491 0.038385
0.471081 0.547972 0.019936
0.493638 0.547972 0.019936
0.515746 0.547972 0.019936
0.537405 0.547972 0.019936
0.558615 0.547972 0.019936
0.579368 0.547972 0.019936
0.599657 0.547972 0.019936
0.614920 0.547972 0.019936
0.628346 0.547972 0.019936
0.643546 0.549841 0.020184
0.658254 0.551628 0.020423
0.672438 0.553333 0.020652
0.686047 0.554952 0.020870
0.699008 0.556479 0.021077
0.711189 0.557901 0.021271
0.722328 0.559191 0.021447
0.731360 0.560230 0.021589
0.046571 0.451826 0.070524
0.055410 0.451826 0.042261
0.075596 0.451826 0.039004
0.093176 0.451826 0.039004
0.109425 0.451826 0.039004
0.124833 0.451826 0.039004
0.139650 0.451826 0.039004
0.154160 0.451826 0.039004
0.168978 0.451826 0.039004
0.183319 0.451826 0.039004
0.297019 0.451826 0.039004
0.315401 0.451826 0.039004
0.333243 0.451826 0.039004
0.350590 0.451826 0.039004
0.367476 0.451826 0.039004
0.383926 0.451826 0.039004
0.472923 0.561010 0.020184
0.495531 0.561010 0.020184
0.517687 0.561010 0.020184
0.539394 0.561010 0.020184
0.560649 0.561010 0.020184
0.581446 0.561010 0.020184
0.601777 0.561010 0.020184
0.617071 0.561010 0.020184
0.630524 0.561010 0.020184
0.643546 0.561010 0.020184
0.658254 0.562819 0.020423
0.672438 0.564543 0.020652
0.686047 0.566181 0.020870
0.699008 0.567726 0.021077
0.711189 0.569165 0.021271
0.722328 0.570470 0.021447
0.731360 0.571521 0.021589
0.047296 0.461823 0.071807
0.055843 0.461823 0.042913
0.076115 0.461823 0.039600
0.093762 0.461823 0.039600
0.110069 0.461823 0.039600
0.125528 0.461823 0.039600
0.140392 0.461823 0.039600
0.154946 0.461823 0.039600
0.169807 0.461823 0.039600
0.184189 0.461823 0.039600
0.198145 0.461823 0.039600
0.317766 0.461823 0.039600
0.335686 0.461823 0.039600
0.353106 0.461823 0.039600
0.370061 0.461823 0.039600
0.386578 0.461823 0.039600
0.402679 0.461823 0.039600
0.497341 0.573623 0.020423
