Resources/LUTs/Kodak_Ultramax_400_linear_inout.cube
# Kodak Ultramax 400 v6 (Linear) - Shadow Warmth Corrected
# Authentic film look with warm shadows, golden highlights
TITLE "Kodak Ultramax 400 v6 (Linear)"
LUT_3D_SIZE 9
DOMAIN_MIN 0.0 0.0 0.0
DOMAIN_MAX 1.0 1.0 1.0
0.066201 0.047161 0.021401
0.218679 0.040776 0.017070
0.354068 0.035025 0.013372
0.481904 0.029552 0.009954
0.604885 0.024260 0.006715
0.724313 0.019099 0.003608
0.840954 0.014042 0.001000
0.922363 0.010289 0.001000
0.988949 0.007086 0.001000
0.057216 0.187972 0.027944
0.205635 0.193219 0.016041
0.341023 0.187467 0.012343
0.468860 0.181995 0.008925
0.591840 0.176703 0.005686
0.711269 0.171542 0.002579
0.827909 0.166484 0.001000
0.909318 0.162732 0.001000
0.975904 0.159528 0.001000
0.050511 0.313201 0.031967
0.191715 0.312563 0.033163
0.328612 0.322821 0.011947
0.456448 0.317349 0.008528
0.579429 0.312056 0.005290
0.698857 0.306896 0.002183
0.815900 0.301960 0.001000
0.899484 0.298864 0.001000
0.968245 0.296317 0.001000
0.043806 0.431436 0.035990
0.185010 0.430798 0.037186
0.310391 0.430160 0.038382
0.429872 0.429872 0.038921
0.570666 0.440875 0.003010
0.692269 0.436371 0.001000
0.811085 0.431971 0.001000
0.894669 0.428875 0.001000
0.963430 0.426328 0.001000
0.038921 0.545758 0.038921
0.182118 0.545758 0.038921
0.309492 0.545758 0.038921
0.429872 0.545758 0.038921
0.545758 0.545758 0.038921
0.687634 0.561527 0.001000
0.806450 0.557127 0.001000
0.890034 0.554031 0.001000
0.958794 0.551484 0.001000
0.038921 0.658353 0.038921
0.182118 0.658353 0.038921
0.309492 0.658353 0.038921
0.429872 0.658353 0.038921
0.545758 0.658353 0.038921
0.658353 0.658353 0.038921
0.802310 0.678823 0.001000
0.887396 0.676113 0.001000
0.957658 0.673951 0.001000
0.038921 0.768367 0.038921
0.182118 0.768367 0.038921
0.309492 0.768367 0.038921
0.430679 0.768569 0.037712
0.547893 0.768901 0.035719
0.661817 0.769233 0.033726
0.802961 0.798935 0.001000
0.888046 0.796225 0.001000
0.958308 0.794063 0.001000
0.040211 0.846082 0.036986
0.184737 0.846415 0.034993
0.313439 0.846747 0.033000
0.435149 0.847079 0.031007
0.552363 0.847411 0.029014
0.666287 0.847743 0.027021
0.777630 0.848076 0.025028
0.890002 0.881105 0.001000
0.960264 0.878944 0.001000
0.044681 0.910867 0.030281
0.189207 0.911199 0.028288
0.317909 0.911532 0.026295
0.439619 0.911864 0.024302
0.556833 0.912196 0.022309
0.670757 0.912528 0.020316
0.782100 0.912860 0.018323
0.860821 0.913193 0.016329
0.962768 0.949001 0.001000
0.063244 0.046705 0.167524
0.204448 0.046067 0.168720
0.329829 0.045429 0.169916
0.448216 0.044791 0.171112
0.562108 0.044153 0.172308
0.672710 0.043516 0.173504
0.780732 0.042878 0.174699
0.856131 0.042240 0.175895
0.917805 0.041602 0.177091
0.056539 0.187756 0.171547
0.199168 0.187268 0.171168
0.334557 0.181516 0.167470
0.462393 0.176044 0.164051
0.585374 0.170752 0.160813
0.704802 0.165591 0.157706
0.821443 0.160533 0.154702
0.902852 0.156781 0.153003
0.969438 0.153577 0.151853
0.049834 0.312984 0.175570
0.191038 0.312346 0.176766
0.322146 0.316870 0.167074
0.449982 0.311398 0.163655
0.572963 0.306106 0.160417
0.692391 0.300945 0.157310
0.810172 0.296232 0.153573
0.893756 0.293136 0.150477
0.962517 0.290590 0.147931
0.043129 0.431219 0.179593
0.184333 0.430581 0.180789
0.309714 0.429943 0.181985
0.429872 0.429872 0.182118
0.564939 0.435147 0.157662
0.686541 0.430643 0.153158
0.805357 0.426243 0.148758
0.888941 0.423147 0.145662
0.957702 0.420600 0.143115
0.038921 0.545758 0.182118
0.182118 0.545758 0.182118
0.309492 0.545758 0.182118
0.429872 0.545758 0.182118
0.545758 0.545758 0.182118
0.681906 0.555799 0.148523
0.800722 0.551399 0.144122
0.884306 0.548303 0.141027
0.953066 0.545756 0.138480
0.038921 0.658353 0.182118
0.182118 0.658353 0.182118
0.309492 0.658353 0.182118
0.429872 0.658353 0.182118
0.545758 0.658353 0.182118
0.658353 0.658353 0.182118
0.797092 0.673226 0.138327
0.882178 0.670516 0.133012
0.952440 0.668354 0.128246
0.038921 0.768367 0.182118
0.182118 0.768367 0.182118
0.309492 0.768367 0.182118
0.431130 0.768682 0.180232
0.548344 0.769014 0.178239
0.662268 0.769346 0.176246
0.797743 0.793338 0.126461
0.882828 0.790628 0.121146
0.953090 0.788466 0.116381
0.040663 0.846195 0.179506
0.185188 0.846527 0.177513
0.313891 0.846860 0.175520
0.435600 0.847192 0.173527
0.552814 0.847524 0.171534
0.666738 0.847856 0.169541
0.778081 0.848188 0.167547
0.884784 0.875508 0.110586
0.955046 0.873347 0.105820
0.045133 0.910980 0.172801
0.189658 0.911312 0.170808
0.318361 0.911644 0.168815
0.440070 0.911977 0.166822
0.557284 0.912309 0.164829
0.671208 0.912641 0.162836
0.782551 0.912973 0.160842
0.861272 0.913305 0.158849
0.957550 0.943404 0.095808
0.062568 0.046488 0.295304
0.203771 0.045850 0.296500
0.329152 0.045212 0.297696
0.447539 0.044575 0.298892
0.561431 0.043937 0.300088
0.672033 0.043299 0.301284
0.780055 0.042661 0.302479
0.855454 0.042023 0.303675
0.917128 0.041386 0.304871
0.055863 0.187539 0.299327
0.197066 0.186901 0.300523
0.322447 0.186264 0.301719
0.440834 0.185626 0.302915
0.554726 0.184988 0.304111
0.665328 0.184350 0.305307
0.773350 0.183712 0.306502
0.848749 0.183075 0.307698
0.910423 0.182437 0.308894
0.049158 0.312768 0.303350
0.190361 0.312130 0.304546
0.315742 0.311492 0.305742
0.444148 0.306080 0.301694
0.567129 0.300787 0.298455
0.686557 0.295627 0.295348
0.768367 0.309492 0.309492
0.845760 0.309492 0.309492
0.909427 0.309492 0.309492
0.042453 0.431002 0.307373
0.183656 0.430365 0.308569
0.309492 0.429872 0.309492
0.429872 0.429872 0.309492
0.559844 0.430052 0.295226
0.681447 0.425548 0.290722
0.800262 0.421148 0.286322
0.883846 0.418052 0.283226
0.952607 0.415505 0.280679
0.038921 0.545758 0.309492
0.182118 0.545758 0.309492
0.309492 0.545758 0.309492
0.429872 0.545758 0.309492
0.545758 0.545758 0.309492
0.676811 0.550704 0.286087
0.795627 0.546304 0.281686
0.879211 0.543208 0.278591
0.947971 0.540661 0.276044
0.038921 0.658353 0.309492
0.182118 0.658353 0.309492
0.309492 0.658353 0.309492
0.429872 0.658353 0.309492
0.545758 0.658353 0.309492
0.658353 0.658353 0.309492
0.792507 0.668262 0.275137
0.877593 0.665552 0.269822
0.947855 0.663390 0.265056
0.038921 0.768367 0.309492
0.182118 0.768367 0.309492
0.309872 0.768462 0.308922
0.431581 0.768795 0.306929
0.548795 0.769127 0.304936
0.662719 0.769459 0.302943
0.793158 0.788374 0.263271
0.878243 0.785664 0.257957
0.948505 0.783502 0.253191
0.041114 0.846308 0.306203
0.185639 0.846640 0.304210
0.314342 0.846972 0.302217
0.436051 0.847305 0.300224
0.553265 0.847637 0.298231
0.667189 0.847969 0.296238
0.778532 0.848301 0.294244
0.880199 0.870544 0.247396
0.950461 0.868383 0.242630
0.045584 0.911093 0.299498
0.190109 0.911425 0.297505
0.318812 0.911757 0.295512
0.440521 0.912089 0.293519
0.557735 0.912422 0.291526
0.671659 0.912754 0.289533
0.783002 0.913086 0.287539
0.861724 0.913418 0.285546
0.952965 0.938439 0.232619
0.061891 0.046271 0.416091
0.203094 0.045634 0.417287
0.328475 0.044996 0.418483
0.446862 0.044358 0.419678
0.560754 0.043720 0.420874
0.671357 0.043082 0.422070
0.779378 0.042445 0.423266
0.854777 0.041807 0.424462
0.916452 0.041169 0.425658
0.055186 0.187323 0.420114
0.196389 0.186685 0.421310
0.321770 0.186047 0.422506
0.440157 0.185409 0.423701
0.554049 0.184771 0.424897
0.664652 0.184134 0.426093
0.772673 0.183496 0.427289
0.848072 0.182858 0.428485
0.909747 0.182220 0.429681
0.048481 0.312551 0.424137
0.189684 0.311913 0.425333
0.315065 0.311275 0.426529
0.433452 0.310638 0.427724
0.547344 0.310000 0.428920
0.658353 0.309492 0.429872
0.768367 0.309492 0.429872
0.845760 0.309492 0.429872
0.909427 0.309492 0.429872
0.041776 0.430786 0.428160
0.182979 0.430148 0.429356
0.309492 0.429872 0.429872
0.429872 0.429872 0.429872
0.545758 0.429872 0.429872
0.658353 0.429872 0.429872
0.768367 0.429872 0.429872
0.845760 0.429872 0.429872
0.909427 0.429872 0.429872
0.038921 0.545758 0.429872
0.182118 0.545758 0.429872
0.309492 0.545758 0.429872
0.429872 0.545758 0.429872
0.545758 0.545758 0.429872
0.671996 0.545889 0.416098
0.790812 0.541489 0.411697
0.874396 0.538393 0.408602
0.943156 0.535846 0.406055
0.038921 0.658353 0.429872
0.182118 0.658353 0.429872
0.309492 0.658353 0.429872
0.429872 0.658353 0.429872
0.545758 0.658353 0.429872
0.667885 0.667593 0.411014
0.788202 0.663578 0.404394
0.873287 0.660867 0.399079
0.943550 0.658706 0.394314
0.038921 0.768367 0.429872
0.182118 0.768367 0.429872
0.310323 0.768575 0.428626
0.432032 0.768907 0.426632
0.549246 0.769240 0.424639
0.663170 0.769572 0.422646
0.788852 0.783690 0.392529
0.873938 0.780979 0.387214
0.944200 0.778818 0.382448
0.041565 0.846421 0.425907
0.186091 0.846753 0.423914
0.314793 0.847085 0.421921
0.436502 0.847417 0.419927
0.553716 0.847750 0.417934
0.667640 0.848082 0.415941
0.778984 0.848414 0.413948
0.875893 0.865860 0.376653
0.946155 0.863698 0.371888
0.046035 0.911206 0.419202
0.190561 0.911538 0.417209
0.319263 0.911870 0.415216
0.440972 0.912202 0.413222
0.558186 0.912534 0.411229
0.672110 0.912867 0.409236
0.783454 0.913199 0.407243
0.862175 0.913531 0.405250
0.948660 0.933755 0.361876
0.061214 0.046055 0.532382
0.202417 0.045417 0.533578
0.327798 0.044779 0.534774
0.446186 0.044141 0.535970
0.560078 0.043504 0.537166
0.670680 0.042866 0.538361
0.778701 0.042228 0.539557
0.854101 0.041590 0.540753
0.915775 0.040952 0.541949
0.054509 0.187106 0.536405
0.195712 0.186468 0.537601
0.321093 0.185830 0.538797
0.439481 0.185193 0.539993
0.553373 0.184555 0.541189
0.663975 0.183917 0.542384
0.771996 0.183279 0.543580
0.847396 0.182641 0.544776
0.909427 0.182118 0.545758
0.047804 0.312334 0.540428
0.189007 0.311697 0.541624
0.314388 0.311059 0.542820
0.432776 0.310421 0.544016
0.546668 0.309783 0.545212
0.658353 0.309492 0.545758
0.768367 0.309492 0.545758
0.845760 0.309492 0.545758
0.909427 0.309492 0.545758
0.041099 0.430569 0.544451
0.182302 0.429931 0.545647
0.309492 0.429872 0.545758
0.429872 0.429872 0.545758
0.545758 0.429872 0.545758
0.658353 0.429872 0.545758
0.768367 0.429872 0.545758
0.845760 0.429872 0.545758
0.909427 0.429872 0.545758
0.038921 0.545758 0.545758
0.182118 0.545758 0.545758
0.309492 0.545758 0.545758
0.429872 0.545758 0.545758
0.545758 0.545758 0.545758
0.658353 0.545758 0.545758
0.768367 0.545758 0.545758
0.845760 0.545758 0.545758
0.938877 0.531302 0.530685
0.038921 0.658353 0.545758
0.182118 0.658353 0.545758
0.309492 0.658353 0.545758
0.429872 0.658353 0.545758
0.545758 0.658353 0.545758
0.663759 0.663088 0.535416
0.784076 0.659073 0.528796
0.869162 0.656363 0.523482
0.939424 0.654201 0.518716
0.038921 0.768367 0.545758
0.182118 0.768367 0.545758
0.310774 0.768688 0.543834
0.432484 0.769020 0.541841
0.549698 0.769352 0.539848
0.663622 0.769685 0.537854
0.784727 0.779185 0.516931
0.869812 0.776475 0.511616
0.940075 0.774313 0.506850
0.042016 0.846534 0.541115
0.186542 0.846866 0.539122
0.315244 0.847198 0.537129
0.436954 0.847530 0.535136
0.554168 0.847862 0.533143
0.668092 0.848195 0.531149
0.779435 0.848527 0.529156
0.871768 0.861355 0.501056
0.942030 0.859194 0.496290
0.046486 0.911318 0.534410
0.191012 0.911651 0.532417
0.319714 0.911983 0.530424
0.441424 0.912315 0.528431
0.558638 0.912647 0.526438
0.672562 0.912979 0.524444
0.783905 0.913312 0.522451
0.862626 0.913644 0.520458
0.944534 0.929251 0.486278
0.060537 0.045838 0.645383
0.201741 0.045200 0.646579
0.327121 0.044563 0.647775
0.445509 0.043925 0.648971
0.559401 0.043287 0.650167
0.670003 0.042649 0.651363
0.778024 0.042011 0.652559
0.853424 0.041374 0.653755
0.915098 0.040736 0.654950
0.053832 0.186889 0.649406
0.195036 0.186252 0.650602
0.320416 0.185614 0.651798
0.438804 0.184976 0.652994
0.552696 0.184338 0.654190
0.663298 0.183700 0.655386
0.771319 0.183063 0.656582
0.846719 0.182425 0.657778
0.909427 0.182118 0.658353
0.047127 0.312118 0.653429
0.188331 0.311480 0.654625
0.313711 0.310842 0.655821
0.432099 0.310204 0.657017
0.545991 0.309567 0.658213
0.658353 0.309492 0.658353
0.768367 0.309492 0.658353
0.845760 0.309492 0.658353
0.909427 0.309492 0.658353
0.040422 0.430353 0.657452
0.182118 0.429872 0.658353
0.309492 0.429872 0.658353
0.429872 0.429872 0.658353
0.545758 0.429872 0.658353
0.658353 0.429872 0.658353
0.768367 0.429872 0.658353
0.845760 0.429872 0.658353
0.909427 0.429872 0.658353
0.038921 0.545758 0.658353
0.182118 0.545758 0.658353
0.309492 0.545758 0.658353
0.429872 0.545758 0.658353
0.545758 0.545758 0.658353
0.658353 0.545758 0.658353
0.768367 0.545758 0.658353
0.845760 0.545758 0.658353
0.910193 0.545949 0.657203
0.038921 0.658353 0.658353
0.182118 0.658353 0.658353
0.309492 0.658353 0.658353
0.429872 0.658353 0.658353
0.545758 0.658353 0.658353
0.659603 0.658665 0.656478
0.780083 0.654700 0.649646
0.865168 0.651990 0.644331
0.935430 0.649828 0.639565
0.038921 0.768367 0.658353
0.182523 0.768469 0.657745
0.311226 0.768801 0.655752
0.432935 0.769133 0.653759
0.550149 0.769465 0.651766
0.664073 0.769797 0.649773
0.780733 0.774812 0.637780
0.865819 0.772102 0.632466
0.936081 0.769940 0.627700
0.042468 0.846647 0.653033
0.186993 0.846979 0.651040
0.315696 0.847311 0.649047
0.437405 0.847643 0.647054
0.554619 0.847975 0.645061
0.668543 0.848307 0.643068
0.779886 0.848640 0.641075
0.867774 0.856982 0.621905
0.938036 0.854821 0.617139
0.046938 0.911431 0.646328
0.191463 0.911763 0.644335
0.320166 0.912096 0.642342
0.441875 0.912428 0.640349
0.559089 0.912760 0.638356
0.673013 0.913092 0.636363
0.784356 0.913424 0.634370
0.863077 0.913757 0.632377
0.940540 0.924878 0.607128
0.059860 0.045622 0.755804
0.201064 0.044984 0.757000
0.326444 0.044346 0.758196
0.444832 0.043708 0.759392
0.558724 0.043070 0.760588
0.669326 0.042433 0.761784
0.777347 0.041795 0.762979
0.852747 0.041157 0.764175
0.914421 0.040519 0.765371
0.053155 0.186673 0.759827
0.194359 0.186035 0.761023
0.319739 0.185397 0.762219
0.438127 0.184759 0.763415
0.552019 0.184122 0.764611
0.662621 0.183484 0.765807
0.770642 0.182846 0.767002
0.846042 0.182208 0.768198
0.909427 0.182118 0.768367
0.046450 0.311901 0.763850
0.187654 0.311263 0.765046
0.313034 0.310626 0.766242
0.431422 0.309988 0.767438
0.545758 0.309492 0.768367
0.658353 0.309492 0.768367
0.768367 0.309492 0.768367
0.845760 0.309492 0.768367
0.909427 0.309492 0.768367
0.039745 0.430136 0.767873
0.182118 0.429872 0.768367
0.309492 0.429872 0.768367
0.429872 0.429872 0.768367
0.545758 0.429872 0.768367
0.658353 0.429872 0.768367
0.768367 0.429872 0.768367
0.845760 0.429872 0.768367
0.909427 0.429872 0.768367
0.038921 0.545758 0.768367
0.182118 0.545758 0.768367
0.309492 0.545758 0.768367
0.429872 0.545758 0.768367
0.545758 0.545758 0.768367
0.658353 0.545758 0.768367
0.768367 0.545758 0.768367
0.845760 0.545758 0.768367
0.910645 0.546062 0.766541
0.038921 0.658353 0.768367
0.182118 0.658353 0.768367
0.309492 0.658353 0.768367
0.429872 0.658353 0.768367
0.546130 0.658446 0.767809
0.660054 0.658778 0.765816
0.771397 0.659110 0.763822
0.850119 0.659443 0.761829
0.915115 0.659775 0.759836
0.038921 0.768367 0.768367
0.182974 0.768581 0.767083
0.311677 0.768914 0.765090
0.433386 0.769246 0.763097
0.550600 0.769578 0.761104
0.664524 0.769910 0.759111
0.776842 0.770542 0.755842
0.861928 0.767832 0.750528
0.932190 0.765671 0.745762
0.042919 0.846759 0.762371
0.187444 0.847092 0.760378
0.316147 0.847424 0.758385
0.437856 0.847756 0.756392
0.555070 0.848088 0.754399
0.668994 0.848420 0.752406
0.780337 0.848752 0.750412
0.863883 0.852712 0.739967
0.934145 0.850551 0.735201
0.047389 0.911544 0.755666
0.191914 0.911876 0.753673
0.320617 0.912208 0.751680
0.442326 0.912541 0.749687
0.559540 0.912873 0.747694
0.673464 0.913205 0.745701
0.784807 0.913537 0.743707
0.863529 0.913869 0.741714
0.936650 0.920608 0.725190
0.059183 0.045405 0.833603
0.200387 0.044767 0.834799
0.325768 0.044129 0.835995
0.444155 0.043492 0.837190
0.558047 0.042854 0.838386
0.668649 0.042216 0.839582
0.776671 0.041578 0.840778
0.852070 0.040940 0.841974
0.913744 0.040303 0.843170
0.052478 0.186456 0.837626
0.193682 0.185818 0.838822
0.319063 0.185181 0.840018
0.437450 0.184543 0.841213
0.551342 0.183905 0.842409
0.661944 0.183267 0.843605
0.769966 0.182629 0.844801
0.845760 0.182118 0.845760
0.909427 0.182118 0.845760
0.045773 0.311685 0.841649
0.186977 0.311047 0.842845
0.312358 0.310409 0.844041
0.430745 0.309771 0.845236
0.545758 0.309492 0.845760
0.658353 0.309492 0.845760
0.768367 0.309492 0.845760
0.845760 0.309492 0.845760
0.909427 0.309492 0.845760
0.039068 0.429919 0.845672
0.182118 0.429872 0.845760
0.309492 0.429872 0.845760
0.429872 0.429872 0.845760
0.545758 0.429872 0.845760
0.658353 0.429872 0.845760
0.768367 0.429872 0.845760
0.845760 0.429872 0.845760
0.909427 0.429872 0.845760
0.038921 0.545758 0.845760
0.182118 0.545758 0.845760
0.309492 0.545758 0.845760
0.429872 0.545758 0.845760
0.545758 0.545758 0.845760
0.658353 0.545758 0.845760
0.768367 0.545758 0.845760
0.846100 0.545843 0.845250
0.911096 0.546175 0.843257
0.038921 0.658353 0.845760
0.182118 0.658353 0.845760
0.309492 0.658353 0.845760
0.429872 0.658353 0.845760
0.546581 0.658559 0.844524
0.660505 0.658891 0.842531
0.771849 0.659223 0.840538
0.850570 0.659555 0.838545
0.915566 0.659888 0.836552
0.038921 0.768367 0.845760
0.183426 0.768694 0.843799
0.312128 0.769026 0.841806
0.433837 0.769359 0.839812
0.551051 0.769691 0.837819
0.664975 0.770023 0.835826
0.776319 0.770355 0.833833
0.855040 0.770687 0.831840
0.920036 0.771020 0.829847
0.043370 0.846872 0.839087
0.187896 0.847204 0.837094
0.316598 0.847537 0.835101
0.438307 0.847869 0.833107
0.555521 0.848201 0.831114
0.669445 0.848533 0.829121
0.780789 0.848865 0.827128
0.861297 0.849747 0.822797
0.931560 0.847586 0.818032
0.047840 0.911657 0.832382
0.192366 0.911989 0.830389
0.321068 0.912321 0.828396
0.442777 0.912653 0.826402
0.559991 0.912986 0.824409
0.673915 0.913318 0.822416
0.785259 0.913650 0.820423
0.863980 0.913982 0.818430
0.934064 0.917643 0.808020
0.058506 0.045188 0.897676
0.199710 0.044551 0.898872
0.325091 0.043913 0.900068
0.443478 0.043275 0.901264
0.557370 0.042637 0.902460
0.667972 0.041999 0.903656
0.775994 0.041362 0.904851
0.851393 0.040724 0.906047
0.913067 0.040086 0.907243
0.051801 0.186240 0.901699
0.193005 0.185602 0.902895
0.318386 0.184964 0.904091
0.436773 0.184326 0.905287
0.550665 0.183688 0.906483
0.661267 0.183051 0.907679
0.769289 0.182413 0.908874
0.845760 0.182118 0.909427
0.909427 0.182118 0.909427
0.045096 0.311468 0.905722
0.186300 0.310830 0.906918
0.311681 0.310192 0.908114
0.430068 0.309555 0.909310
0.545758 0.309492 0.909427
0.658353 0.309492 0.909427
0.768367 0.309492 0.909427
0.845760 0.309492 0.909427
0.909427 0.309492 0.909427
0.038921 0.429872 0.909427
0.182118 0.429872 0.909427
0.309492 0.429872 0.909427
0.429872 0.429872 0.909427
0.545758 0.429872 0.909427
0.658353 0.429872 0.909427
0.768367 0.429872 0.909427
0.845760 0.429872 0.909427
0.909427 0.429872 0.909427
0.038921 0.545758 0.909427
0.182118 0.545758 0.909427
0.309492 0.545758 0.909427
0.429872 0.545758 0.909427
0.545758 0.545758 0.909427
0.658353 0.545758 0.909427
0.768367 0.545758 0.909427
0.846551 0.545955 0.908240
0.911547 0.546288 0.906247
0.038921 0.658353 0.909427
0.182118 0.658353 0.909427
0.309492 0.658353 0.909427
0.429872 0.658353 0.909427
0.547033 0.658672 0.907515
0.660957 0.659004 0.905522
0.772300 0.659336 0.903528
0.851021 0.659668 0.901535
0.916017 0.660000 0.899542
0.039351 0.768475 0.908782
0.183877 0.768807 0.906789
0.312579 0.769139 0.904796
0.434289 0.769471 0.902803
0.551503 0.769804 0.900810
0.665427 0.770136 0.898817
0.776770 0.770468 0.896823
0.855491 0.770800 0.894830
0.920487 0.771132 0.892837
0.043821 0.846985 0.902077
0.188347 0.847317 0.900084
0.317049 0.847649 0.898091
0.438759 0.847982 0.896098
0.555973 0.848314 0.894105
0.669897 0.848646 0.892112
0.781240 0.848978 0.890118
0.859961 0.849310 0.888125
0.924957 0.849642 0.886132
0.048291 0.911770 0.895372
0.192817 0.912102 0.893379
0.321519 0.912434 0.891386
0.443229 0.912766 0.889393
0.560443 0.913098 0.887400
0.674367 0.913431 0.885407
0.785710 0.913763 0.883413
0.864431 0.914095 0.881420
0.932027 0.915227 0.876027
