Resources/LUTs/Kodak_Ultramax_400_linear_inout.cube
# Kodak Ultramax 400 v6 (Linear) - Shadow Warmth Corrected
# Authentic film look with warm shadows, golden highlights
TITLE "Kodak Ultramax 400 v6 (Linear)"
LUT_3D_SIZE 5
DOMAIN_MIN 0.0 0.0 0.0
DOMAIN_MAX 1.0 1.0 1.0
0.066201 0.047161 0.021401
0.354068 0.035025 0.013372
0.604885 0.024260 0.006715
0.840954 0.014042 0.001000
0.988949 0.007086 0.001000
0.050511 0.313201 0.031967
0.328612 0.322821 0.011947
0.579429 0.312056 0.005290
0.815900 0.301960 0.001000
0.968245 0.296317 0.001000
0.038921 0.545758 0.038921
0.309492 0.545758 0.038921
0.545758 0.545758 0.038921
0.806450 0.557127 0.001000
0.958794 0.551484 0.001000
0.038921 0.768367 0.038921
0.309492 0.768367 0.038921
0.547893 0.768901 0.035719
0.802961 0.798935 0.001000
0.958308 0.794063 0.001000
0.044681 0.910867 0.030281
0.317909 0.911532 0.026295
0.556833 0.912196 0.022309
0.782100 0.912860 0.018323
0.962768 0.949001 0.001000
0.062568 0.046488 0.295304
0.329152 0.045212 0.297696
0.561431 0.043937 0.300088
0.780055 0.042661 0.302479
0.917128 0.041386 0.304871
0.049158 0.312768 0.303350
0.315742 0.311492 0.305742
0.567129 0.300787 0.298455
0.768367 0.309492 0.309492
0.909427 0.309492 0.309492
0.038921 0.545758 0.309492
0.309492 0.545758 0.309492
0.545758 0.545758 0.309492
0.795627 0.546304 0.281686
0.947971 0.540661 0.276044
0.038921 0.768367 0.309492
0.309872 0.768462 0.308922
0.548795 0.769127 0.304936
0.793158 0.788374 0.263271
0.948505 0.783502 0.253191
0.045584 0.911093 0.299498
0.318812 0.911757 0.295512
0.557735 0.912422 0.291526
0.783002 0.913086 0.287539
0.952965 0.938439 0.232619
0.061214 0.046055 0.532382
0.327798 0.044779 0.534774
0.560078 0.043504 0.537166
0.778701 0.042228 0.539557
0.915775 0.040952 0.541949
0.047804 0.312334 0.540428
0.314388 0.311059 0.542820
0.546668 0.309783 0.545212
0.768367 0.309492 0.545758
0.909427 0.309492 0.545758
0.038921 0.545758 0.545758
0.309492 0.545758 0.545758
0.545758 0.545758 0.545758
0.768367 0.545758 0.545758
0.938877 0.531302 0.530685
0.038921 0.768367 0.545758
0.310774 0.768688 0.543834
0.549698 0.769352 0.539848
0.784727 0.779185 0.516931
0.940075 0.774313 0.506850
0.046486 0.911318 0.534410
0.319714 0.911983 0.530424
0.558638 0.912647 0.526438
0.783905 0.913312 0.522451
0.944534 0.929251 0.486278
0.059860 0.045622 0.755804
0.326444 0.044346 0.758196
0.558724 0.043070 0.760588
0.777347 0.041795 0.762979
0.914421 0.040519 0.765371
0.046450 0.311901 0.763850
0.313034 0.310626 0.766242
0.545758 0.309492 0.768367
0.768367 0.309492 0.768367
0.909427 0.309492 0.768367
0.038921 0.545758 0.768367
0.309492 0.545758 0.768367
0.545758 0.545758 0.768367
0.768367 0.545758 0.768367
0.910645 0.546062 0.766541
0.038921 0.768367 0.768367
0.311677 0.768914 0.765090
0.550600 0.769578 0.761104
0.776842 0.770542 0.755842
0.932190 0.765671 0.745762
0.047389 0.911544 0.755666
0.320617 0.912208 0.751680
0.559540 0.912873 0.747694
0.784807 0.913537 0.743707
0.936650 0.920608 0.725190
0.058506 0.045188 0.897676
0.325091 0.043913 0.900068
0.557370 0.042637 0.902460
0.775994 0.041362 0.904851
0.913067 0.040086 0.907243
0.045096 0.311468 0.905722
0.311681 0.310192 0.908114
0.545758 0.309492 0.909427
0.768367 0.309492 0.909427
0.909427 0.309492 0.909427
0.038921 0.545758 0.909427
0.309492 0.545758 0.909427
0.545758 0.545758 0.909427
0.768367 0.545758 0.909427
0.911547 0.546288 0.906247
0.039351 0.768475 0.908782
0.312579 0.769139 0.904796
0.551503 0.769804 0.900810
0.776770 0.770468 0.896823
0.920487 0.771132 0.892837
0.048291 0.911770 0.895372
0.321519 0.912434 0.891386
0.560443 0.913098 0.887400
0.785710 0.913763 0.883413
0.932027 0.915227 0.876027
