Resources/LUTs/Nostalgic_Neg_Linear.cube
# Nostalgic Neg Standard - Best for Mass Users
# 33x33x33 3D LUT for Linear Colorspace
#
# Features:
# - Vintage amber feel (signature look)
# - Smart skin protection (not orange)
# - Clean neutrals (whites stay white)
# - Saturated sky blues
# - Muted olive greens
# - Cyan shadows, amber highlights
#
TITLE "Nostalgic Neg Standard"
LUT_3D_SIZE 33
DOMAIN_MIN 0.0 0.0 0.0
DOMAIN_MAX 1.0 1.0 1.0
0.005953 0.007078 0.011326
0.046245 0.007518 0.010387
0.083985 0.007910 0.009729
0.121402 0.008250 0.009250
0.158859 0.008555 0.008862
0.196454 0.008835 0.008531
0.234222 0.009096 0.008240
0.272373 0.009344 0.007978
0.311547 0.009585 0.007735
0.350361 0.009812 0.007515
0.388796 0.010027 0.007314
0.426838 0.010231 0.007129
0.463862 0.010435 0.007024
0.500029 0.010635 0.006970
0.535737 0.010828 0.006919
0.570976 0.011013 0.006870
0.605740 0.011191 0.006825
0.640017 0.011363 0.006781
0.673794 0.011529 0.006740
0.707056 0.011690 0.006700
0.739785 0.011845 0.006662
0.771961 0.011995 0.006626
0.803557 0.012140 0.006592
0.834543 0.012281 0.006559
0.860663 0.012397 0.006532
0.878920 0.012478 0.006513
0.896584 0.012556 0.006495
0.913623 0.012630 0.006478
0.929984 0.012701 0.006462
0.945585 0.012768 0.006447
0.960283 0.012831 0.006433
0.973781 0.012888 0.006420
0.984857 0.012935 0.006410
0.012214 0.031068 0.020137
0.041994 0.041466 0.012191
0.075245 0.044786 0.011994
0.098059 0.045607 0.014209
0.122232 0.047472 0.015702
0.155711 0.052423 0.015087
0.189831 0.054234 0.014558
0.224685 0.055757 0.014091
0.273582 0.056264 0.012082
0.307259 0.057529 0.012092
0.340584 0.058722 0.008982
0.373547 0.059853 0.008977
0.405577 0.060953 0.009051
0.436827 0.062017 0.009172
0.467664 0.063037 0.009287
0.498085 0.064015 0.009398
0.528084 0.064955 0.009504
0.557652 0.065861 0.009605
0.586780 0.066734 0.009703
0.615455 0.067575 0.009797
0.643664 0.068388 0.009887
0.671389 0.069172 0.009974
0.698608 0.069929 0.010058
0.725296 0.070660 0.010139
0.747789 0.071268 0.010206
0.763509 0.071688 0.010252
0.778717 0.072092 0.010296
0.793384 0.072478 0.010339
0.807467 0.072845 0.010379
0.820895 0.073194 0.010418
0.833545 0.073520 0.010453
0.845161 0.073818 0.010486
0.854692 0.074061 0.010513
0.016526 0.050059 0.025639
0.041030 0.059677 0.017031
0.075103 0.070781 0.012367
0.108036 0.076232 0.009023
0.138050 0.077260 0.009382
0.163111 0.077949 0.010317
0.187810 0.079217 0.011196
0.212378 0.080800 0.012039
0.273582 0.082880 0.008991
0.307259 0.083951 0.008986
0.340584 0.084955 0.008982
0.373547 0.094310 0.008977
0.405577 0.095742 0.009051
0.436827 0.097126 0.009172
0.467664 0.098450 0.009287
0.498085 0.099718 0.009398
0.528084 0.100935 0.009504
0.557652 0.102105 0.009605
0.586780 0.103231 0.009703
0.615455 0.104316 0.009797
0.643664 0.105362 0.009887
0.671389 0.106371 0.009974
0.698608 0.107344 0.010058
0.725296 0.108282 0.010139
0.747789 0.109061 0.010206
0.763509 0.109599 0.010252
0.778717 0.110116 0.010296
0.793384 0.110610 0.010339
0.807467 0.111081 0.010379
0.820895 0.111526 0.010418
0.833545 0.111943 0.010453
0.845161 0.112323 0.010486
0.854692 0.112634 0.010513
0.020288 0.067964 0.030401
0.045026 0.082350 0.014079
0.077496 0.099106 0.009407
0.107721 0.099106 0.009407
0.137878 0.105009 0.009534
0.177301 0.109619 0.008577
0.203018 0.109325 0.009368
0.228553 0.109811 0.010128
0.273582 0.112864 0.008991
0.307259 0.114146 0.008986
0.340584 0.115346 0.008982
0.373547 0.116477 0.008977
0.405577 0.117581 0.009051
0.436827 0.118651 0.009172
0.467664 0.119670 0.009287
0.498085 0.120643 0.009398
0.528084 0.121575 0.009504
0.557652 0.122468 0.009605
0.586780 0.137042 0.009703
0.615455 0.138322 0.009797
0.643664 0.139555 0.009887
0.671389 0.140743 0.009974
0.698608 0.141888 0.010058
0.725296 0.142992 0.010139
0.747789 0.143908 0.010206
0.763509 0.144541 0.010252
0.778717 0.145148 0.010296
0.793384 0.145728 0.010339
0.807467 0.146281 0.010379
0.820895 0.146804 0.010418
0.833545 0.147293 0.010453
0.845161 0.147739 0.010486
0.854692 0.148103 0.010513
0.023772 0.085368 0.026894
0.041054 0.085368 0.021821
0.072380 0.104558 0.015037
0.110175 0.127043 0.009473
0.140255 0.127043 0.009473
0.169877 0.134537 0.009592
0.206400 0.138821 0.009002
0.242747 0.141351 0.008692
0.273582 0.142049 0.008991
0.307259 0.143515 0.008986
0.340584 0.144886 0.008982
0.373547 0.146178 0.008977
0.405577 0.147437 0.009051
0.436827 0.148658 0.009172
0.467664 0.149820 0.009287
0.498085 0.150930 0.009398
0.528084 0.151991 0.009504
0.557652 0.153009 0.009605
0.586780 0.153985 0.009703
0.615455 0.154923 0.009797
0.643664 0.155824 0.009887
0.671389 0.156692 0.009974
0.698608 0.157526 0.010058
0.725296 0.158329 0.010139
0.747789 0.158994 0.010206
0.763509 0.178034 0.010252
0.778717 0.178720 0.010296
0.793384 0.179375 0.010339
0.807467 0.179999 0.010379
0.820895 0.180589 0.010418
0.833545 0.181141 0.010453
0.845161 0.181644 0.010486
0.854692 0.182055 0.010513
0.027079 0.102486 0.030126
0.044191 0.102486 0.023859
0.076380 0.126519 0.015903
0.098789 0.126519 0.015903
0.142751 0.154799 0.009530
0.172830 0.154799 0.009530
0.201962 0.163941 0.009644
0.234325 0.166043 0.009692
0.273582 0.170783 0.008991
0.307259 0.172414 0.008986
0.340584 0.173941 0.008982
0.373547 0.175377 0.008977
0.405577 0.176778 0.009051
0.436827 0.178134 0.009172
0.467664 0.179426 0.009287
0.498085 0.180658 0.009398
0.528084 0.181837 0.009504
0.557652 0.182966 0.009605
0.586780 0.184050 0.009703
0.615455 0.185090 0.009797
0.643664 0.186090 0.009887
0.671389 0.187052 0.009974
0.698608 0.187977 0.010058
0.725296 0.188867 0.010139
0.747789 0.189604 0.010206
0.763509 0.190113 0.010252
0.778717 0.190600 0.010296
0.793384 0.191066 0.010339
0.807467 0.191509 0.010379
0.820895 0.191927 0.010418
0.833545 0.192319 0.010453
0.845161 0.192676 0.010486
0.854692 0.192966 0.010513
0.030263 0.119422 0.033223
0.047104 0.119422 0.025779
0.080077 0.148336 0.016705
0.103079 0.148336 0.016705
0.145012 0.182472 0.009581
0.175358 0.182472 0.009581
0.205495 0.182472 0.009581
0.238445 0.183815 0.009629
0.267515 0.195514 0.009737
0.307259 0.201019 0.008986
0.340584 0.202689 0.008982
0.373547 0.204259 0.008977
0.405577 0.205789 0.009051
0.436827 0.207272 0.009172
0.467664 0.208682 0.009287
0.498085 0.210028 0.009398
0.528084 0.211315 0.009504
0.557652 0.212547 0.009605
0.586780 0.213730 0.009703
0.615455 0.214865 0.009797
0.643664 0.215956 0.009887
0.671389 0.217005 0.009974
0.698608 0.218013 0.010058
0.725296 0.218983 0.010139
0.747789 0.219787 0.010206
0.763509 0.220342 0.010252
0.778717 0.220873 0.010296
0.793384 0.221380 0.010339
0.807467 0.221862 0.010379
0.820895 0.222319 0.010418
0.833545 0.222745 0.010453
0.845161 0.223134 0.010486
0.854692 0.223451 0.010513
0.033372 0.136327 0.036234
0.049863 0.136327 0.027620
0.066352 0.136327 0.027620
0.107113 0.170182 0.017462
0.129379 0.170182 0.017462
0.177698 0.210261 0.009629
0.208062 0.210261 0.009629
0.238445 0.210261 0.009629
0.272238 0.211639 0.009674
0.300368 0.225101 0.009779
0.340584 0.231383 0.008982
0.373547 0.233079 0.008977
0.405577 0.234731 0.009051
0.436827 0.236332 0.009172
0.467664 0.237854 0.009287
0.498085 0.239307 0.009398
0.528084 0.240695 0.009504
0.557652 0.242025 0.009605
0.586780 0.243300 0.009703
0.615455 0.244524 0.009797
0.643664 0.245701 0.009887
0.671389 0.246832 0.009974
0.698608 0.247919 0.010058
0.725296 0.248964 0.010139
0.747789 0.249831 0.010206
0.763509 0.250428 0.010252
0.778717 0.251000 0.010296
0.793384 0.251547 0.010339
0.807467 0.252067 0.010379
0.820895 0.252558 0.010418
0.833545 0.253017 0.010453
0.845161 0.253436 0.010486
0.854692 0.253777 0.010513
0.036473 0.153513 0.039227
0.052544 0.153513 0.029428
0.069514 0.153513 0.029428
0.111008 0.192452 0.018196
0.133725 0.192452 0.018196
0.155602 0.192452 0.018196
0.210504 0.238655 0.009674
0.241089 0.238655 0.009674
0.272238 0.238655 0.009674
0.305688 0.240021 0.009716
0.332872 0.255285 0.009818
0.365019 0.257357 0.009855
0.405577 0.264143 0.009051
0.436827 0.265857 0.009172
0.467664 0.267488 0.009287
0.498085 0.269043 0.009398
0.528084 0.270530 0.009504
0.557652 0.271953 0.009605
0.586780 0.273318 0.009703
0.615455 0.274628 0.009797
0.643664 0.275887 0.009887
0.671389 0.277096 0.009974
0.698608 0.278260 0.010058
0.725296 0.279378 0.010139
0.747789 0.280304 0.010206
0.763509 0.280943 0.010252
0.778717 0.281555 0.010296
0.793384 0.282139 0.010339
0.807467 0.282695 0.010379
0.820895 0.283221 0.010418
0.833545 0.283712 0.010453
0.845161 0.284159 0.010486
0.854692 0.284524 0.010513
0.039472 0.170401 0.042113
0.055079 0.170401 0.031152
0.072494 0.170401 0.031152
0.114667 0.214384 0.018887
0.137801 0.214384 0.018887
0.160052 0.214384 0.018887
0.212768 0.266674 0.009716
0.243539 0.266674 0.009716
0.274867 0.266674 0.009716
0.305688 0.266674 0.009716
0.338785 0.268027 0.009755
0.365019 0.285091 0.009855
0.396247 0.287226 0.009971
0.436827 0.294853 0.009172
0.467664 0.296585 0.009287
0.498085 0.298237 0.009398
0.528084 0.299816 0.009504
0.557652 0.301327 0.009605
0.586780 0.302776 0.009703
0.615455 0.304166 0.009797
0.643664 0.305502 0.009887
0.671389 0.306786 0.009974
0.698608 0.308020 0.010058
0.725296 0.309207 0.010139
0.747789 0.310190 0.010206
0.763509 0.310867 0.010252
0.778717 0.311516 0.010296
0.793384 0.312136 0.010339
0.807467 0.312726 0.010379
0.820895 0.313283 0.010418
0.833545 0.313804 0.010453
0.845161 0.314279 0.010486
0.854692 0.314666 0.010513
0.042381 0.187007 0.044903
0.057489 0.187007 0.032804
0.075319 0.187007 0.032804
0.118126 0.235991 0.019542
0.141649 0.235991 0.019542
0.164249 0.235991 0.019542
0.186212 0.235991 0.019542
0.245826 0.294324 0.009755
0.277322 0.294324 0.009755
0.308299 0.294324 0.009755
0.338785 0.294324 0.009755
0.371520 0.295663 0.009791
0.396247 0.314585 0.009971
0.426707 0.316759 0.010137
0.456762 0.318827 0.010294
0.498085 0.326923 0.009398
0.528084 0.328589 0.009504
0.557652 0.330183 0.009605
0.586780 0.331711 0.009703
0.615455 0.333178 0.009797
0.643664 0.334586 0.009887
0.671389 0.335940 0.009974
0.698608 0.337241 0.010058
0.725296 0.338492 0.010139
0.747789 0.339528 0.010206
0.763509 0.340243 0.010252
0.778717 0.340927 0.010296
0.793520 0.341580 0.010339
0.807768 0.342202 0.010379
0.821361 0.342789 0.010418
0.834175 0.343338 0.010453
0.845954 0.343838 0.010486
0.855647 0.344246 0.010513
0.045209 0.203344 0.047608
0.059791 0.203344 0.034393
0.078011 0.203344 0.034393
0.093647 0.203344 0.034393
0.145301 0.257284 0.020165
0.168228 0.257284 0.020165
0.190492 0.257284 0.020165
0.212378 0.257284 0.020165
0.279627 0.321610 0.009791
0.310751 0.321610 0.009791
0.341375 0.321610 0.009791
0.371520 0.321610 0.009791
0.403322 0.322994 0.009906
0.434344 0.324343 0.010070
0.456762 0.345921 0.010294
0.486408 0.347990 0.010445
0.515641 0.349967 0.010590
0.557652 0.358547 0.009605
0.586780 0.360151 0.009703
0.615455 0.361689 0.009797
0.643664 0.363167 0.009887
0.671422 0.364587 0.009974
0.698816 0.365952 0.010058
0.725681 0.367264 0.010139
0.748353 0.368350 0.010206
0.764250 0.369100 0.010252
0.779634 0.369817 0.010296
0.794477 0.370502 0.010339
0.808735 0.371154 0.010379
0.822337 0.371770 0.010418
0.835160 0.372345 0.010453
0.846948 0.372870 0.010486
0.856647 0.373297 0.010513
0.047801 0.219469 0.050448
0.061810 0.219469 0.036099
0.080366 0.219469 0.036099
0.096265 0.219469 0.036099
0.148466 0.278324 0.020888
0.171675 0.278324 0.020888
0.194197 0.278324 0.020888
0.216325 0.278324 0.020888
0.281347 0.348598 0.009906
0.312580 0.348598 0.009906
0.343307 0.348598 0.009906
0.373549 0.348598 0.009906
0.403322 0.348598 0.009906
0.434344 0.350008 0.010070
0.464956 0.351346 0.010227
0.486408 0.374713 0.010445
0.515641 0.376777 0.010590
0.544562 0.378753 0.010730
0.587072 0.388116 0.009703
0.615932 0.389723 0.009797
0.644329 0.391267 0.009887
0.672246 0.392750 0.009974
0.699659 0.394175 0.010058
0.726543 0.395545 0.010139
0.749231 0.396679 0.010206
0.765138 0.397462 0.010252
0.780532 0.398211 0.010296
0.795385 0.398926 0.010339
0.809653 0.399606 0.010379
0.823264 0.400249 0.010418
0.836095 0.400850 0.010453
0.847891 0.401398 0.010486
0.857596 0.401844 0.010513
0.050214 0.235376 0.053360
0.063622 0.235376 0.037869
0.082477 0.235376 0.037869
0.098609 0.235376 0.037869
0.151282 0.299100 0.021667
0.174739 0.299100 0.021667
0.197488 0.299100 0.021667
0.219830 0.299100 0.021667
0.242236 0.299100 0.021667
0.313993 0.375270 0.010070
0.344800 0.375270 0.010070
0.375117 0.375270 0.010070
0.404962 0.375270 0.010070
0.434398 0.375270 0.010070
0.465192 0.376663 0.010227
0.495576 0.377989 0.010377
0.516250 0.403132 0.010590
0.545257 0.405188 0.010730
0.573836 0.407158 0.010864
0.601977 0.409050 0.010993
0.645095 0.418900 0.009887
0.673030 0.420444 0.009974
0.700462 0.421927 0.010058
0.727364 0.423352 0.010139
0.750067 0.424532 0.010206
0.765984 0.425346 0.010252
0.781388 0.426126 0.010296
0.796251 0.426870 0.010339
0.810528 0.427577 0.010379
0.824147 0.428246 0.009514
0.836987 0.428871 0.009546
0.848789 0.429441 0.009575
0.858501 0.429905 0.009599
0.052563 0.251036 0.056207
0.065364 0.251036 0.039591
0.084501 0.251036 0.039591
0.100855 0.251036 0.039591
0.115782 0.251036 0.039591
0.177669 0.319576 0.022421
0.200633 0.319576 0.022421
0.223177 0.319576 0.022421
0.245778 0.319576 0.022421
0.315335 0.401583 0.010227
0.346273 0.401583 0.010227
0.376849 0.401583 0.010227
0.406956 0.401583 0.010227
0.436603 0.401583 0.010227
0.465798 0.401583 0.010227
0.496205 0.402959 0.010377
0.526196 0.404271 0.010520
0.545921 0.431177 0.010730
0.574520 0.433220 0.010864
0.602680 0.435181 0.010993
0.630386 0.437064 0.011118
0.673781 0.447681 0.009974
0.701231 0.449219 0.010058
0.728150 0.450698 0.010139
0.750866 0.451922 0.009325
0.766794 0.452766 0.009366
0.782207 0.453574 0.009406
0.797079 0.454346 0.009444
0.811365 0.455080 0.009480
0.824992 0.455773 0.009514
0.837839 0.456421 0.009546
0.849649 0.457012 0.009575
0.859366 0.457494 0.009599
0.054852 0.266452 0.058992
0.067041 0.266452 0.041267
0.086448 0.266452 0.041267
0.103011 0.266452 0.041267
0.118119 0.266452 0.041267
0.180476 0.339753 0.023150
0.203647 0.339753 0.023150
0.226383 0.339753 0.023150
0.249302 0.339753 0.023150
0.271598 0.339753 0.023150
0.348112 0.427534 0.010377
0.378782 0.427534 0.010377
0.408977 0.427534 0.010377
0.438708 0.427534 0.010377
0.467985 0.427534 0.010377
0.496810 0.427534 0.010377
0.526821 0.428892 0.010520
0.556406 0.430190 0.010659
0.585556 0.431432 0.010792
0.603355 0.460870 0.010993
0.631079 0.462817 0.010140
0.658332 0.464689 0.010247
0.685091 0.466488 0.010351
0.728904 0.477590 0.009265
0.751634 0.478856 0.009325
0.767571 0.479729 0.009366
0.782994 0.480565 0.009406
0.797874 0.481363 0.009444
0.812168 0.482122 0.009480
0.825803 0.482840 0.009514
0.838658 0.483510 0.009546
0.850474 0.484121 0.009575
0.860197 0.484619 0.009599
0.057083 0.281625 0.061717
0.068658 0.281625 0.042901
0.088322 0.281625 0.042901
0.105087 0.281625 0.042901
0.120366 0.281625 0.042901
0.183173 0.359631 0.023857
0.206676 0.359631 0.023857
0.229788 0.359631 0.023857
0.252947 0.359631 0.023857
0.275430 0.359631 0.023857
0.349873 0.453119 0.010520
0.380631 0.453119 0.010520
0.410911 0.453119 0.010520
0.440724 0.453119 0.010520
0.470077 0.453119 0.010520
0.498976 0.453119 0.010520
0.527423 0.453119 0.009606
0.557027 0.454459 0.009730
0.586196 0.455742 0.009849
0.614915 0.456970 0.009963
0.631747 0.488131 0.010140
0.659015 0.490062 0.010247
0.685791 0.491917 0.010351
0.712047 0.493700 0.010451
0.734204 0.495177 0.010533
0.768319 0.506242 0.009366
0.783750 0.507104 0.009406
0.798639 0.507928 0.009444
0.812941 0.508711 0.009480
0.826584 0.509451 0.009514
0.839445 0.510143 0.009546
0.851268 0.510773 0.009575
0.860996 0.511287 0.009599
0.059259 0.296555 0.064385
0.070220 0.296555 0.044493
0.090130 0.296555 0.044493
0.107087 0.296555 0.044493
0.122582 0.296555 0.044493
0.186032 0.379205 0.024542
0.209797 0.379205 0.024542
0.233108 0.379205 0.024542
0.256457 0.379205 0.024542
0.279118 0.379205 0.024542
0.301165 0.379205 0.024542
0.382406 0.478332 0.010659
0.412766 0.478332 0.010659
0.442656 0.478332 0.009730
0.472084 0.478332 0.009730
0.501054 0.478332 0.009730
0.529568 0.478332 0.009730
0.557627 0.478332 0.009730
0.586813 0.479653 0.009849
0.615550 0.480919 0.009963
0.643823 0.482133 0.010074
0.659675 0.514997 0.010247
0.686466 0.516906 0.010351
0.712737 0.518742 0.010451
0.734906 0.520262 0.010533
0.750450 0.521310 0.010591
0.765491 0.522314 0.010646
0.780003 0.523272 0.010698
0.813686 0.534849 0.009480
0.827337 0.535611 0.009514
0.840205 0.536323 0.009546
0.852034 0.536972 0.009575
0.861767 0.537501 0.009599
0.061383 0.311239 0.066996
0.071730 0.311239 0.046046
0.091876 0.311239 0.046046
0.109118 0.311239 0.046046
0.124911 0.311239 0.046046
0.139725 0.311239 0.046046
0.212808 0.398472 0.025208
0.236308 0.398472 0.025208
0.259841 0.398472 0.025208
0.282672 0.398472 0.025208
0.304881 0.398472 0.022671
0.326525 0.398472 0.022671
0.414549 0.503165 0.009849
0.444513 0.503165 0.009849
0.474011 0.503165 0.009849
0.503049 0.503165 0.009849
0.531629 0.503165 0.009849
0.559751 0.503165 0.009849
0.587410 0.503165 0.009849
0.616164 0.504466 0.009963
0.644454 0.505715 0.010074
0.672261 0.506913 0.010180
0.699565 0.508062 0.010283
0.713404 0.543342 0.010451
0.735586 0.544903 0.010533
0.751137 0.545980 0.010591
0.766187 0.547011 0.010646
0.780707 0.547996 0.010698
0.794654 0.548932 0.010748
0.807958 0.549817 0.010796
0.820500 0.550644 0.010840
0.832029 0.551397 0.010881
0.862512 0.563259 0.009599
0.063455 0.325674 0.069551
0.073191 0.325674 0.047560
0.093663 0.325674 0.047560
0.111201 0.325674 0.047560
0.127164 0.325674 0.047560
0.142130 0.325674 0.047560
0.215715 0.417426 0.025854
0.239398 0.417426 0.025854
0.263106 0.417426 0.023244
0.286101 0.417426 0.023244
0.308464 0.417426 0.023244
0.330254 0.417426 0.023244
0.416263 0.527608 0.009963
0.446299 0.527608 0.009963
0.475865 0.527608 0.009963
0.504969 0.527608 0.009963
0.533612 0.527608 0.009963
0.561794 0.527608 0.009963
0.589511 0.527608 0.009963
0.616759 0.527608 0.009963
0.645064 0.528889 0.010074
0.672887 0.530119 0.010180
0.700205 0.531299 0.010283
0.726994 0.532432 0.010382
0.736243 0.569100 0.010533
0.751803 0.570204 0.010591
0.766860 0.571261 0.010646
0.781388 0.572271 0.010698
0.795342 0.573231 0.010748
0.808653 0.574139 0.010796
0.821201 0.574987 0.010840
0.832736 0.575760 0.010881
0.842228 0.576390 0.010914
0.065477 0.339856 0.072052
0.074634 0.339856 0.049038
0.095489 0.339856 0.049038
0.113219 0.339856 0.049038
0.129345 0.339856 0.049038
0.144457 0.339856 0.049038
0.218524 0.436058 0.023801
0.242383 0.436058 0.023801
0.266259 0.436058 0.023801
0.289412 0.436058 0.023801
0.311923 0.436058 0.023801
0.333854 0.436058 0.023801
0.355251 0.436058 0.023801
0.448019 0.551650 0.010074
0.477651 0.551650 0.010074
0.506817 0.551650 0.010074
0.535521 0.551650 0.010074
0.563761 0.551650 0.010074
0.591534 0.551650 0.010074
0.618836 0.551650 0.010074
0.645656 0.551650 0.010074
0.673494 0.552910 0.010180
0.700827 0.554119 0.010283
0.727629 0.555280 0.010382
0.750246 0.556241 0.010464
0.766103 0.556903 0.010521
0.767514 0.595059 0.010646
0.782049 0.596093 0.010698
0.796010 0.597077 0.010748
0.809327 0.598006 0.010796
0.821882 0.598874 0.010840
0.833422 0.599666 0.010881
0.842918 0.600311 0.010914
0.067449 0.353777 0.074497
0.076169 0.353777 0.050478
0.097260 0.353777 0.050478
0.115174 0.353777 0.050478
0.131458 0.353777 0.050478
0.146710 0.353777 0.045006
0.221240 0.454359 0.024341
0.245267 0.454359 0.024341
0.269306 0.454359 0.024341
0.292610 0.454359 0.024341
0.315264 0.454359 0.024341
0.337329 0.454359 0.024341
0.358855 0.454359 0.024341
0.449677 0.575275 0.010180
0.479372 0.575275 0.010180
0.508599 0.575275 0.010180
0.537361 0.575275 0.010180
0.565657 0.575275 0.010180
0.593484 0.575275 0.010180
0.620838 0.575275 0.010180
0.647708 0.575275 0.010180
0.674084 0.575275 0.010180
0.701430 0.576513 0.010283
0.728246 0.577701 0.010382
0.750874 0.578684 0.010464
0.766739 0.579362 0.010521
0.782091 0.580009 0.010575
0.796903 0.580628 0.010627
0.796658 0.620459 0.010748
0.809983 0.621410 0.010796
0.822543 0.622298 0.010840
0.834089 0.623107 0.010881
0.843589 0.623767 0.010914
0.069372 0.367428 0.076886
0.077658 0.367428 0.051881
0.098977 0.367428 0.051881
0.117068 0.367428 0.051881
0.133504 0.367428 0.046244
0.148890 0.367428 0.046244
0.223866 0.472315 0.024866
0.248056 0.472315 0.024866
0.272251 0.472315 0.024866
0.295701 0.472315 0.024866
0.318491 0.472315 0.024866
0.340686 0.472315 0.024866
0.362335 0.472315 0.024866
0.383475 0.472315 0.024866
0.481032 0.598467 0.010283
0.510317 0.598467 0.010283
0.539135 0.598467 0.010283
0.567485 0.598467 0.010283
0.595364 0.598467 0.010283
0.622768 0.598467 0.010283
0.649687 0.598467 0.010283
0.676109 0.598467 0.010283
0.702018 0.598467 0.010283
0.728847 0.599682 0.010382
0.751486 0.600686 0.010464
0.767358 0.601378 0.010521
0.782717 0.602040 0.010575
0.797535 0.602672 0.010627
0.811769 0.603273 0.010677
0.825347 0.603840 0.010724
0.838147 0.604370 0.010768
0.834737 0.646071 0.010881
0.844242 0.646745 0.010914
0.071245 0.380799 0.079218
0.079104 0.380799 0.053248
0.100642 0.380799 0.053248
0.118903 0.380799 0.047448
0.135485 0.380799 0.047448
0.151001 0.380799 0.047448
0.165767 0.380799 0.047448
0.250751 0.489911 0.025375
0.275096 0.489911 0.025375
0.298686 0.489911 0.025375
0.321609 0.489911 0.025375
0.343928 0.489911 0.025375
0.365695 0.489911 0.025375
0.386948 0.489911 0.025375
0.482634 0.621204 0.010382
0.511975 0.621204 0.010382
0.540847 0.621204 0.010382
0.569249 0.621204 0.010382
0.597178 0.621204 0.010382
0.624630 0.621204 0.010382
0.651595 0.621204 0.010382
0.678062 0.621204 0.010382
0.704014 0.621204 0.010382
0.729432 0.621204 0.010382
0.752081 0.622229 0.010464
0.767960 0.622935 0.010521
0.783327 0.623611 0.010575
0.798152 0.624256 0.010627
0.812392 0.624869 0.010677
0.825976 0.625449 0.010724
0.838782 0.625990 0.010768
0.850552 0.626482 0.010808
0.860238 0.626884 0.010841
0.072941 0.392058 0.081177
0.080334 0.392058 0.054392
0.102057 0.392058 0.048458
0.120462 0.392058 0.048458
0.137166 0.392058 0.048458
0.152792 0.392058 0.048458
0.167658 0.392058 0.048458
0.253038 0.504735 0.025800
0.277510 0.504735 0.025800
0.301218 0.504735 0.025800
0.324252 0.504735 0.025800
0.346677 0.504735 0.025800
0.368544 0.504735 0.025800
0.389892 0.504735 0.025800
0.410753 0.504735 0.025800
0.513419 0.640365 0.010464
0.542337 0.640365 0.010464
0.570784 0.640365 0.010464
0.598757 0.640365 0.010464
0.626250 0.640365 0.010464
0.653256 0.640365 0.010464
0.679762 0.640365 0.010464
0.705752 0.640365 0.010464
0.731206 0.640365 0.010464
0.752662 0.640365 0.010464
0.768548 0.641083 0.010521
0.783922 0.641770 0.010575
0.798753 0.642426 0.010627
0.813000 0.643050 0.010677
0.826590 0.643639 0.010724
0.839401 0.644189 0.010768
0.851177 0.644690 0.010808
0.860866 0.645098 0.010841
0.074181 0.399922 0.082541
0.081233 0.399922 0.049160
0.103090 0.399922 0.049160
0.121600 0.399922 0.049160
0.138393 0.399922 0.049160
0.154099 0.399922 0.049160
0.169037 0.399922 0.049160
0.254709 0.515090 0.026095
0.279272 0.515090 0.026095
0.303067 0.515090 0.026095
0.326182 0.515090 0.026095
0.348684 0.515090 0.026095
0.370623 0.515090 0.026095
0.392041 0.515090 0.026095
0.412968 0.515090 0.026095
0.514547 0.653754 0.010521
0.543502 0.653754 0.010521
0.571984 0.653754 0.010521
0.599991 0.653754 0.010521
0.627518 0.653754 0.010521
0.654555 0.653754 0.010521
0.681091 0.653754 0.010521
0.707111 0.653754 0.010521
0.732593 0.653754 0.010521
0.754073 0.653754 0.010521
0.769123 0.653754 0.010521
0.784502 0.654449 0.010575
0.799341 0.655113 0.010627
0.813593 0.655744 0.010677
0.827189 0.656339 0.010724
0.840005 0.656896 0.010768
0.851786 0.657402 0.010808
0.861479 0.657815 0.010841
0.075381 0.407525 0.083859
0.082100 0.407525 0.049836
0.104086 0.407525 0.049836
0.122697 0.407525 0.049836
0.139576 0.407525 0.049836
0.155358 0.407525 0.049836
0.170367 0.407525 0.049836
0.256318 0.525106 0.026379
0.280970 0.525106 0.026379
0.304848 0.525106 0.026379
0.328041 0.525106 0.026379
0.350616 0.525106 0.026379
0.372626 0.525106 0.026379
0.394110 0.525106 0.026379
0.415101 0.525106 0.026379
0.515637 0.666707 0.010575
