Resources/LUTs/Nostalgic_Neg_Linear.cube
# Nostalgic Neg Standard - Best for Mass Users
# 33x33x33 3D LUT for Linear Colorspace
#
# Features:
# - Vintage amber feel (signature look)
# - Smart skin protection (not orange)
# - Clean neutrals (whites stay white)
# - Saturated sky blues
# - Muted olive greens
# - Cyan shadows, amber highlights
#
TITLE "Nostalgic Neg Standard"
LUT_3D_SIZE 5
DOMAIN_MIN 0.0 0.0 0.0
DOMAIN_MAX 1.0 1.0 1.0
0.005953 0.007078 0.011326
0.311547 0.009585 0.007735
0.605740 0.011191 0.006825
0.860663 0.012397 0.006532
0.984857 0.012935 0.006410
0.036473 0.153513 0.039227
0.272238 0.238655 0.009674
0.528084 0.270530 0.009504
0.747789 0.280304 0.010206
0.854692 0.284524 0.010513
0.057083 0.281625 0.061717
0.252947 0.359631 0.023857
0.527423 0.453119 0.009606
0.734204 0.495177 0.010533
0.860996 0.511287 0.009599
0.072941 0.392058 0.081177
0.277510 0.504735 0.025800
0.542337 0.640365 0.010464
0.752662 0.640365 0.010464
0.860866 0.645098 0.010841
0.081452 0.445452 0.080150
0.289496 0.575104 0.027777
0.466983 0.575104 0.027777
0.762452 0.731405 0.010841
0.865426 0.731405 0.010841
0.003815 0.002985 0.348095
0.240352 0.015622 0.210100
0.459689 0.020146 0.218237
0.764260 0.011263 0.231196
0.873601 0.011598 0.230149
0.027684 0.174891 0.139000
0.269775 0.262819 0.267929
0.596443 0.264745 0.215946
0.857542 0.273471 0.212043
0.986202 0.280098 0.210400
0.041328 0.324349 0.159280
0.372917 0.434486 0.267951
0.577220 0.490805 0.200268
0.769805 0.509516 0.211102
0.850877 0.519207 0.220218
0.073432 0.392058 0.170983
0.427304 0.576844 0.271838
0.587582 0.630285 0.230118
0.821810 0.689016 0.203405
0.922595 0.710812 0.206623
0.081976 0.445452 0.158855
0.453203 0.644452 0.291159
0.565062 0.644452 0.268984
0.835588 0.785149 0.204744
0.944062 0.785149 0.204744
0.002933 0.001674 0.650998
0.283368 0.012959 0.466112
0.459689 0.020146 0.380865
0.648151 0.023562 0.391281
0.739704 0.025106 0.316045
0.041328 0.229896 0.272374
0.305825 0.260595 0.447956
0.552853 0.287143 0.389070
0.818695 0.278574 0.400181
0.937520 0.281412 0.413916
0.041328 0.324349 0.249171
0.358862 0.449664 0.324629
0.525291 0.506187 0.485663
0.866467 0.511943 0.361503
1.000000 0.517748 0.356057
0.052043 0.453705 0.239229
0.427812 0.576844 0.341262
0.674036 0.663910 0.404670
0.852637 0.710755 0.371162
0.957994 0.723797 0.372654
0.057673 0.516360 0.246664
0.453729 0.644452 0.351904
0.710553 0.737296 0.421599
0.853418 0.771777 0.390691
0.981213 0.808741 0.369686
0.002289 0.000834 0.900669
0.292105 0.014341 0.655294
0.535410 0.023562 0.583827
0.648151 0.023562 0.530411
0.739704 0.025106 0.428982
0.013000 0.253705 0.574665
0.285339 0.238255 0.631930
0.589830 0.286034 0.560618
0.769704 0.304409 0.524135
0.875575 0.311914 0.525315
0.051390 0.392436 0.380184
0.332573 0.498367 0.498017
0.592005 0.494262 0.531054
0.830956 0.532681 0.494863
0.945167 0.543180 0.493422
0.052153 0.453705 0.303844
0.402242 0.606710 0.426679
0.660933 0.676681 0.480843
0.751389 0.719874 0.684723
0.979475 0.727175 0.539891
0.057789 0.516360 0.316658
0.422817 0.681752 0.435676
0.691109 0.756672 0.486569
0.893561 0.800337 0.561724
0.975896 0.821447 0.544974
0.002961 0.001396 0.900669
0.295859 0.014952 0.747098
0.532953 0.014952 0.747098
0.729022 0.025106 0.664800
0.739704 0.025106 0.483069
0.011405 0.257544 0.679177
0.284572 0.234593 0.725739
0.598339 0.290193 0.636094
0.812673 0.311914 0.605498
0.876039 0.311914 0.586015
0.056050 0.409636 0.432360
0.306285 0.500346 0.601948
0.591962 0.488556 0.605884
0.859689 0.528446 0.568111
0.945652 0.543180 0.548552
0.056946 0.516360 0.379038
0.420119 0.645648 0.487601
0.670347 0.712773 0.545585
0.851130 0.718761 0.623132
0.964145 0.738071 0.606557
0.057885 0.516360 0.344596
0.423121 0.681752 0.472994
0.691514 0.756672 0.527733
0.887513 0.806144 0.599887
0.861815 0.824015 0.781423
