Resources/LUTs/Nostalgic_Neg_Linear.cube
# Nostalgic Neg Standard - Best for Mass Users
# 33x33x33 3D LUT for Linear Colorspace
#
# Features:
# - Vintage amber feel (signature look)
# - Smart skin protection (not orange)
# - Clean neutrals (whites stay white)
# - Saturated sky blues
# - Muted olive greens
# - Cyan shadows, amber highlights
#
TITLE "Nostalgic Neg Standard"
LUT_3D_SIZE 9
DOMAIN_MIN 0.0 0.0 0.0
DOMAIN_MAX 1.0 1.0 1.0
0.005953 0.007078 0.011326
0.158859 0.008555 0.008862
0.311547 0.009585 0.007735
0.463862 0.010435 0.007024
0.605740 0.011191 0.006825
0.739785 0.011845 0.006662
0.860663 0.012397 0.006532
0.929984 0.012701 0.006462
0.984857 0.012935 0.006410
0.023772 0.085368 0.026894
0.140255 0.127043 0.009473
0.273582 0.142049 0.008991
0.405577 0.147437 0.009051
0.528084 0.151991 0.009504
0.643664 0.155824 0.009887
0.747789 0.158994 0.010206
0.807467 0.179999 0.010379
0.854692 0.182055 0.010513
0.036473 0.153513 0.039227
0.133725 0.192452 0.018196
0.272238 0.238655 0.009674
0.405577 0.264143 0.009051
0.528084 0.270530 0.009504
0.643664 0.275887 0.009887
0.747789 0.280304 0.010206
0.807467 0.282695 0.010379
0.854692 0.284524 0.010513
0.047801 0.219469 0.050448
0.148466 0.278324 0.020888
0.281347 0.348598 0.009906
0.403322 0.348598 0.009906
0.515641 0.376777 0.010590
0.644329 0.391267 0.009887
0.749231 0.396679 0.010206
0.809653 0.399606 0.010379
0.857596 0.401844 0.010513
0.057083 0.281625 0.061717
0.120366 0.281625 0.042901
0.252947 0.359631 0.023857
0.410911 0.453119 0.010520
0.527423 0.453119 0.009606
0.631747 0.488131 0.010140
0.734204 0.495177 0.010533
0.812941 0.508711 0.009480
0.860996 0.511287 0.009599
0.065477 0.339856 0.072052
0.129345 0.339856 0.049038
0.266259 0.436058 0.023801
0.355251 0.436058 0.023801
0.535521 0.551650 0.010074
0.645656 0.551650 0.010074
0.750246 0.556241 0.010464
0.796010 0.597077 0.010748
0.842918 0.600311 0.010914
0.072941 0.392058 0.081177
0.137166 0.392058 0.048458
0.277510 0.504735 0.025800
0.368544 0.504735 0.025800
0.542337 0.640365 0.010464
0.653256 0.640365 0.010464
0.752662 0.640365 0.010464
0.813000 0.643050 0.010677
0.860866 0.645098 0.010841
0.077654 0.421888 0.086342
0.141808 0.421888 0.051109
0.284167 0.544034 0.026912
0.376394 0.544034 0.026912
0.546759 0.691192 0.010677
0.658184 0.691192 0.010677
0.758014 0.691192 0.010677
0.815295 0.691192 0.010677
0.863240 0.693329 0.010841
0.081452 0.445452 0.080150
0.145531 0.445452 0.053183
0.289496 0.575104 0.027777
0.382668 0.575104 0.027777
0.466983 0.575104 0.027777
0.662272 0.731405 0.010841
0.762452 0.731405 0.010841
0.819926 0.731405 0.010841
0.865426 0.731405 0.010841
0.004103 0.003957 0.177659
0.125075 0.012686 0.120041
0.240352 0.015622 0.122770
0.414298 0.010002 0.126281
0.539567 0.010496 0.148074
0.657767 0.010915 0.150029
0.764260 0.011263 0.151632
0.825299 0.011452 0.152496
0.873601 0.011598 0.153156
0.018923 0.095936 0.080738
0.141805 0.138259 0.140865
0.306568 0.137495 0.115507
0.454097 0.138548 0.114093
0.594323 0.140950 0.113155
0.730345 0.144771 0.111808
0.854071 0.149189 0.110613
0.925180 0.152127 0.109974
0.981541 0.154680 0.109489
0.027684 0.174891 0.090268
0.190982 0.226213 0.141740
0.294531 0.255299 0.121563
0.403026 0.262254 0.130615
0.506930 0.271175 0.138140
0.639219 0.285811 0.135139
0.759934 0.294820 0.132833
0.829509 0.300131 0.131662
0.895277 0.303440 0.128687
0.047801 0.219469 0.096663
0.217247 0.307995 0.163385
0.296632 0.337381 0.141549
0.428159 0.369723 0.124662
0.556049 0.384449 0.124814
0.643474 0.387861 0.134052
0.723803 0.395495 0.141474
0.769705 0.400963 0.128427
0.899533 0.406836 0.113680
0.057083 0.281625 0.107110
0.239573 0.383009 0.183988
0.304721 0.383009 0.174692
0.411212 0.427820 0.132845
0.557265 0.477693 0.112578
0.676526 0.498974 0.112409
0.788194 0.507707 0.113006
0.829116 0.509897 0.116378
0.903029 0.517030 0.113680
0.065477 0.339856 0.116199
0.261930 0.453162 0.178955
0.321478 0.453162 0.165395
0.431333 0.513076 0.138823
0.568560 0.580269 0.113945
0.682455 0.580269 0.113945
0.779825 0.602272 0.115978
0.855006 0.615092 0.113413
0.906050 0.619782 0.113680
0.073296 0.392058 0.123917
0.281480 0.515631 0.194527
0.333638 0.515631 0.174778
0.448763 0.589476 0.143682
0.540943 0.589476 0.143682
0.693600 0.672746 0.114956
0.796437 0.672746 0.114956
0.860773 0.676150 0.115501
0.895593 0.702455 0.116948
0.078022 0.421888 0.113331
0.292830 0.551117 0.203862
0.339740 0.551117 0.179939
0.410104 0.551117 0.179939
0.552303 0.633056 0.146331
0.700483 0.725701 0.115501
0.803897 0.725701 0.115501
0.863146 0.725701 0.115501
0.914276 0.728408 0.115917
0.081831 0.445452 0.116227
0.301849 0.579055 0.211507
0.344048 0.579055 0.183926
0.414910 0.579055 0.183926
0.561335 0.667448 0.148365
0.646892 0.667448 0.148365
0.809966 0.767584 0.115917
0.869471 0.767584 0.115917
0.916537 0.767584 0.115917
0.003815 0.002985 0.348095
0.147786 0.011075 0.251590
0.240352 0.015622 0.210100
0.354356 0.018038 0.213249
0.459689 0.020146 0.218237
0.657767 0.010915 0.232296
0.764260 0.011263 0.231196
0.825299 0.011452 0.230602
0.873601 0.011598 0.230149
0.016957 0.123103 0.185685
0.155570 0.135035 0.243141
0.284228 0.150025 0.206857
0.432737 0.145087 0.216426
0.561049 0.147418 0.222557
0.685129 0.149853 0.223971
0.797681 0.151947 0.224967
0.862247 0.153077 0.225502
0.913366 0.153941 0.225910
0.027684 0.174891 0.139000
0.183561 0.234053 0.196620
0.269775 0.262819 0.267929
0.437407 0.262364 0.230668
0.596443 0.264745 0.215946
0.733514 0.268576 0.213790
0.857542 0.273471 0.212043
0.929006 0.276955 0.211109
0.986202 0.280098 0.210400
0.035311 0.251733 0.149720
0.217247 0.307995 0.211083
0.328387 0.352187 0.259502
0.427199 0.379669 0.237493
0.540321 0.387929 0.236883
0.650718 0.402612 0.242064
0.776755 0.412960 0.209230
0.848829 0.418843 0.207451
0.910998 0.423681 0.206174
0.041328 0.324349 0.159280
0.239844 0.383009 0.227894
0.372917 0.434486 0.267951
0.450487 0.461546 0.215989
0.577220 0.490805 0.200268
0.697912 0.505112 0.201113
0.769805 0.509516 0.211102
0.814957 0.514469 0.216303
0.850877 0.519207 0.220218
0.046715 0.392513 0.167418
0.262216 0.453162 0.211968
0.402279 0.510036 0.254272
0.464491 0.510036 0.245748
0.567160 0.550754 0.223711
0.705657 0.595201 0.201993
0.812339 0.614880 0.202465
0.884939 0.621802 0.201204
0.921914 0.623129 0.205129
0.073432 0.392058 0.170983
0.281779 0.515631 0.220707
0.427304 0.576844 0.271838
0.482074 0.576844 0.257539
0.587582 0.630285 0.230118
0.717020 0.689016 0.203405
0.821810 0.689016 0.203405
0.871581 0.705671 0.206037
0.922595 0.710812 0.206623
0.078164 0.421888 0.155377
0.293136 0.551117 0.261895
0.441756 0.614696 0.282431
0.490872 0.614696 0.264002
0.599502 0.675574 0.233600
0.688306 0.675574 0.233600
0.829408 0.742703 0.204165
0.889731 0.742703 0.204165
0.941762 0.745446 0.204744
0.081976 0.445452 0.158855
0.302160 0.579055 0.270734
0.453203 0.644452 0.291159
0.497057 0.644452 0.268984
0.565062 0.644452 0.268984
0.698571 0.711280 0.236271
0.835588 0.785149 0.204744
0.896168 0.785149 0.204744
0.944062 0.785149 0.204744
0.003379 0.002240 0.502157
0.154937 0.012082 0.360206
0.281656 0.018038 0.323029
0.354356 0.018038 0.296670
0.459689 0.020146 0.302712
0.558891 0.021990 0.307726
0.648151 0.023562 0.311830
0.699270 0.024432 0.314042
0.739704 0.025106 0.315729
0.009426 0.138884 0.334410
0.152859 0.131795 0.355710
0.300925 0.149129 0.307904
0.405706 0.159093 0.290930
0.519215 0.166457 0.297301
0.685129 0.149853 0.305832
0.797681 0.151947 0.301940
0.862247 0.153077 0.320666
0.913366 0.153941 0.321167
0.035311 0.210865 0.211782
0.175528 0.270544 0.324659
0.298928 0.265655 0.361329
0.417190 0.275868 0.326795
0.577317 0.271952 0.317184
0.704156 0.275590 0.321911
0.818462 0.278574 0.323141
0.884598 0.280183 0.323802
0.937158 0.281412 0.324306
0.035311 0.251733 0.194705
0.203423 0.324413 0.269520
0.321010 0.359668 0.316603
0.399922 0.387319 0.391740
0.568120 0.388086 0.345006
0.738861 0.391322 0.276592
0.864178 0.395605 0.274622
0.936509 0.399005 0.273568
0.993971 0.402246 0.272768
0.041328 0.324349 0.208295
0.220587 0.407982 0.284028
0.373175 0.434486 0.275500
0.466303 0.474449 0.339947
0.558209 0.500042 0.320070
0.661177 0.508513 0.310825
0.779235 0.523284 0.300730
0.854719 0.529895 0.297737
0.913912 0.535141 0.295715
0.046790 0.392513 0.217797
0.237784 0.486493 0.258586
0.402549 0.510036 0.289419
0.529280 0.554658 0.321515
0.590875 0.579243 0.315646
0.723111 0.606391 0.286652
0.829700 0.619751 0.288455
0.861189 0.621930 0.295813
0.895288 0.625464 0.301154
0.051976 0.453705 0.225712
0.281998 0.515631 0.264742
0.427583 0.576844 0.300406
0.558592 0.624729 0.339891
0.615765 0.624729 0.331092
0.714347 0.661508 0.309762
0.840879 0.701200 0.288382
0.891198 0.712559 0.292008
0.970129 0.725667 0.284357
0.055087 0.488701 0.202605
0.293360 0.551117 0.269790
0.442041 0.614696 0.306094
0.575471 0.664360 0.351057
0.627439 0.664360 0.338570
0.727698 0.708074 0.313901
0.848579 0.755430 0.289314
0.909699 0.755430 0.289314
0.945368 0.768603 0.292725
0.057602 0.516360 0.205507
0.302388 0.579055 0.273526
0.453492 0.644452 0.342618
0.588817 0.695481 0.360325
0.635651 0.695481 0.344326
0.738302 0.744761 0.317074
0.819198 0.744761 0.317074
0.916220 0.798294 0.290024
0.964730 0.798294 0.290024
0.002933 0.001674 0.650998
0.159034 0.012959 0.466112
0.283368 0.012959 0.466112
0.404264 0.020146 0.416745
0.459689 0.020146 0.380865
0.558891 0.021990 0.386594
0.648151 0.023562 0.391281
0.699270 0.024432 0.393806
0.739704 0.025106 0.316045
0.004623 0.139628 0.493056
0.149472 0.127740 0.465815
0.306949 0.152878 0.396599
0.432039 0.152878 0.396599
0.519215 0.166457 0.368021
0.628528 0.173221 0.371508
0.727306 0.178948 0.372964
0.783823 0.182068 0.373213
0.913366 0.153941 0.382357
0.041328 0.229896 0.272374
0.157426 0.275992 0.471893
0.305825 0.260595 0.447956
0.450773 0.276370 0.404281
0.552853 0.287143 0.389070
0.666815 0.296586 0.393751
0.818695 0.278574 0.400181
0.884948 0.280183 0.397675
0.937520 0.281412 0.413916
0.041328 0.295279 0.272374
0.219739 0.351488 0.342091
0.330187 0.400534 0.424461
0.424152 0.379408 0.462318
0.549621 0.401354 0.438689
0.707888 0.397998 0.376430
0.838367 0.402013 0.364231
0.905529 0.404006 0.364865
0.958803 0.405526 0.365347
0.041328 0.324349 0.249171
0.220742 0.407982 0.335613
0.358862 0.449664 0.324629
0.459122 0.481449 0.390001
0.525291 0.506187 0.485663
0.691081 0.507716 0.416410
0.866467 0.511943 0.361503
0.942598 0.514836 0.356992
1.000000 0.517748 0.356057
0.046853 0.392513 0.263031
0.237947 0.486493 0.305416
0.382145 0.532826 0.335749
0.519398 0.554273 0.374195
0.595971 0.589692 0.442043
0.681939 0.613583 0.422520
0.770361 0.621845 0.410887
0.846974 0.629177 0.386303
0.910296 0.638808 0.382749
0.052043 0.453705 0.239229
0.252966 0.556661 0.312398
0.427812 0.576844 0.341262
0.558859 0.624729 0.371150
0.674036 0.663910 0.404670
0.720392 0.685622 0.413249
0.852637 0.710755 0.371162
0.910859 0.720632 0.370371
0.957994 0.723797 0.372654
0.055156 0.488701 0.243435
0.261733 0.596616 0.315830
0.442274 0.614696 0.347388
0.575744 0.664360 0.377892
0.695653 0.705085 0.412211
0.750708 0.705085 0.405069
0.863877 0.765547 0.368867
0.925628 0.765547 0.368867
0.961564 0.774355 0.373161
0.057673 0.516360 0.246664
0.268713 0.628116 0.318264
0.453729 0.644452 0.351904
0.589093 0.695481 0.382853
0.710553 0.737296 0.421599
0.761182 0.737296 0.411459
0.853418 0.771777 0.390691
0.932216 0.808741 0.369686
0.981213 0.808741 0.369686
0.002577 0.001210 0.791073
0.162463 0.013711 0.565733
0.288164 0.013711 0.565733
0.409053 0.013711 0.565733
0.520356 0.021990 0.504771
0.558891 0.021990 0.459725
0.648151 0.023562 0.464909
0.699270 0.024432 0.467700
0.739704 0.025106 0.375801
0.001842 0.134691 0.651713
0.148871 0.125121 0.567864
0.314046 0.156522 0.478502
0.440696 0.156522 0.478502
0.552262 0.173221 0.450281
0.628528 0.173221 0.436958
0.727306 0.178948 0.438558
0.783823 0.182068 0.438832
0.828503 0.184463 0.438721
0.017785 0.243531 0.456009
0.146614 0.269804 0.604962
0.304338 0.256699 0.547641
0.460239 0.281672 0.486760
0.580906 0.281672 0.486760
0.666815 0.296586 0.461382
0.769456 0.304409 0.464178
0.828522 0.308657 0.465015
0.875308 0.311914 0.465277
0.046715 0.314286 0.329201
0.190907 0.384040 0.485404
0.314885 0.407833 0.561081
0.443513 0.373397 0.524670
0.588782 0.402430 0.508432
0.699466 0.413507 0.419948
0.805154 0.422994 0.423419
0.905835 0.404006 0.429116
0.959119 0.405526 0.427253
0.046715 0.374718 0.329201
0.236699 0.440478 0.405454
0.380500 0.477511 0.384698
0.457240 0.506608 0.461959
0.555764 0.499216 0.518687
0.673998 0.520378 0.498359
0.825234 0.517361 0.471872
0.922386 0.520613 0.440156
0.976229 0.522376 0.440695
0.046907 0.392513 0.300107
0.238087 0.486493 0.346134
0.382330 0.532826 0.379448
0.515384 0.568698 0.404494
0.589154 0.596244 0.490026
0.644071 0.618535 0.590445
0.801377 0.620728 0.514582
0.931078 0.624293 0.453335
1.000000 0.627093 0.434734
0.052101 0.453705 0.275903
0.253111 0.556661 0.355061
0.402072 0.606710 0.388876
0.538842 0.645366 0.414618
0.653783 0.662949 0.469650
0.716329 0.694824 0.538412
0.793277 0.716177 0.520248
0.880242 0.722820 0.493895
0.975464 0.728039 0.446736
0.055216 0.488701 0.280473
0.261881 0.596616 0.358759
0.413540 0.648693 0.393141
0.552433 0.688868 0.419452
0.695915 0.705085 0.442314
0.790805 0.739059 0.487066
0.831076 0.754518 0.503109
0.922380 0.773226 0.461016
0.978011 0.781087 0.446736
0.057735 0.516360 0.283979
0.268864 0.628116 0.361381
0.422643 0.681752 0.396156
0.589331 0.695481 0.421334
0.710818 0.737296 0.448023
0.821269 0.772887 0.477321
0.869539 0.794500 0.458307
0.930041 0.794500 0.458307
0.994955 0.817424 0.444076
0.002289 0.000834 0.900669
0.165287 0.014341 0.655294
0.292105 0.014341 0.655294
0.413885 0.014341 0.655294
0.535410 0.023562 0.583827
0.629076 0.023562 0.583827
0.648151 0.023562 0.530411
0.699270 0.024432 0.427127
0.739704 0.025106 0.428982
0.000000 0.128561 0.793146
0.148934 0.123150 0.659406
0.320288 0.159621 0.551647
0.448296 0.159621 0.551647
0.567216 0.159621 0.551647
0.670473 0.178948 0.516745
0.727306 0.178948 0.496612
0.783823 0.182068 0.496906
0.828503 0.184463 0.496787
0.013000 0.253705 0.574665
0.144805 0.264584 0.709591
0.285339 0.238255 0.631930
0.468033 0.286034 0.560618
0.589830 0.286034 0.560618
0.698566 0.304409 0.536264
0.769704 0.304409 0.524135
0.828780 0.308657 0.525034
0.875575 0.311914 0.525315
0.051390 0.330293 0.380184
0.178838 0.395499 0.600627
0.261134 0.365199 0.660404
0.440788 0.368135 0.614500
0.609599 0.408119 0.497010
0.725614 0.408119 0.497010
0.805408 0.422994 0.476969
0.866043 0.428138 0.478299
0.914040 0.432078 0.478916
0.051390 0.392436 0.380184
0.250527 0.462638 0.461509
0.332573 0.498367 0.498017
0.431584 0.498753 0.545701
0.592005 0.494262 0.531054
0.718336 0.521594 0.542117
0.830956 0.532681 0.494863
0.896212 0.538677 0.492335
0.945167 0.543180 0.493422
0.051644 0.448494 0.380184
0.251962 0.524185 0.404938
0.400566 0.563853 0.435820
0.537055 0.595018 0.459525
0.595540 0.619789 0.551307
0.679860 0.612805 0.607987
0.786229 0.632162 0.589569
0.894178 0.628400 0.560020
0.990908 0.632050 0.508251
0.052153 0.453705 0.303844
0.253241 0.556661 0.390080
0.402242 0.606710 0.426679
0.539043 0.645366 0.454458
0.660933 0.676681 0.480843
0.710162 0.700692 0.582029
0.751389 0.719874 0.684723
0.862254 0.722593 0.605387
0.979475 0.727175 0.539891
0.055269 0.488701 0.312921
0.262013 0.596616 0.396101
0.413712 0.648693 0.432488
0.552637 0.688868 0.460284
0.678968 0.721519 0.482510
0.758747 0.747278 0.554608
0.814674 0.764911 0.619016
0.857788 0.776803 0.608693
0.914056 0.781862 0.581761
0.057789 0.516360 0.316658
0.268998 0.628116 0.398879
0.422817 0.681752 0.435676
0.563410 0.723093 0.463891
0.691109 0.756672 0.486569
0.821526 0.772887 0.505583
0.893561 0.800337 0.561724
0.883636 0.809367 0.585415
0.975896 0.821447 0.544974
0.002135 0.000632 0.900669
0.166815 0.014686 0.706560
0.294233 0.014686 0.706560
0.416492 0.014686 0.706560
0.543601 0.024432 0.629052
0.638072 0.024432 0.629052
0.699270 0.024432 0.609654
0.699270 0.024432 0.457303
0.739704 0.025106 0.459233
0.000939 0.128269 0.830783
0.149214 0.122160 0.711677
0.323668 0.161300 0.593432
0.452406 0.161300 0.593432
0.571930 0.161300 0.593432
0.683832 0.182068 0.554640
0.770725 0.182068 0.554640
0.783823 0.182068 0.529827
0.828503 0.184463 0.529703
0.010714 0.257117 0.645233
0.143647 0.260019 0.761576
0.284795 0.236158 0.684289
0.472248 0.288391 0.602792
0.594653 0.288391 0.602792
0.708515 0.288391 0.602792
0.801270 0.308657 0.574974
0.829014 0.308657 0.559015
0.875816 0.311914 0.559306
0.054007 0.339081 0.409330
0.172165 0.397622 0.667863
0.255854 0.357935 0.719827
0.439858 0.365384 0.666088
0.614712 0.411019 0.534032
0.731273 0.411019 0.534032
0.828374 0.428138 0.517031
0.866283 0.428138 0.508636
0.914288 0.432078 0.509276
0.054007 0.402148 0.409330
0.214518 0.476449 0.567416
0.317723 0.501116 0.555345
0.418767 0.489672 0.601547
0.592817 0.491040 0.570668
0.749622 0.525889 0.538739
0.851090 0.538677 0.527592
0.896457 0.538677 0.523182
0.945419 0.543180 0.524308
0.054317 0.458989 0.409330
0.259647 0.537901 0.432723
0.410623 0.577547 0.464806
0.497639 0.609479 0.530644
0.595021 0.617975 0.568460
0.727101 0.610832 0.583033
0.832050 0.631668 0.600962
0.905686 0.640594 0.556294
0.971711 0.646233 0.536411
0.054840 0.488701 0.345351
0.260949 0.592164 0.432723
0.412323 0.634063 0.464806
0.550992 0.666696 0.489408
0.677112 0.693728 0.509315
0.736511 0.718293 0.597941
0.793691 0.718197 0.658662
0.853890 0.729387 0.648461
0.930987 0.729677 0.616166
0.055317 0.488701 0.326617
0.262133 0.596616 0.414459
0.413868 0.648693 0.452814
0.552822 0.688868 0.482075
0.679176 0.721519 0.505420
0.781027 0.748420 0.545760
0.811163 0.768190 0.644204
0.813007 0.777999 0.738716
0.909023 0.781882 0.660519
0.057839 0.516360 0.330299
0.269119 0.628116 0.419902
0.422976 0.681752 0.457797
0.563597 0.723093 0.486828
0.691320 0.756672 0.510148
0.808408 0.785060 0.529496
0.851594 0.799086 0.614332
0.873411 0.813795 0.670906
0.905695 0.822704 0.663045
0.002961 0.001396 0.900669
0.167983 0.014952 0.747098
0.295859 0.014952 0.747098
0.418483 0.014952 0.747098
0.532953 0.014952 0.747098
0.644973 0.025106 0.664800
0.729022 0.025106 0.664800
0.739704 0.025106 0.507611
0.739704 0.025106 0.483069
0.002920 0.131029 0.830783
0.149560 0.121442 0.752928
0.326255 0.162585 0.626435
0.455550 0.162585 0.626435
0.575533 0.162585 0.626435
0.687093 0.162585 0.626435
0.782253 0.184463 0.584536
0.828503 0.184463 0.582193
0.828503 0.184463 0.555586
0.011405 0.257544 0.679177
0.142897 0.256658 0.802555
0.284572 0.234593 0.725739
0.475472 0.290193 0.636094
0.598339 0.290193 0.636094
0.712794 0.290193 0.636094
0.812673 0.311914 0.605498
0.864060 0.311914 0.605498
0.876039 0.311914 0.586015
0.026672 0.336006 0.554236
0.167086 0.397671 0.721547
0.254667 0.353562 0.762504
0.439448 0.363332 0.706944
0.618652 0.413234 0.563256
0.735633 0.413234 0.563256
0.839806 0.413234 0.563256
0.891674 0.432078 0.544047
0.914516 0.432078 0.533116
0.056050 0.409636 0.432360
0.209407 0.486021 0.540432
0.306285 0.500346 0.601948
0.412566 0.482863 0.642613
0.591962 0.488556 0.605884
0.754045 0.528446 0.568111
0.859689 0.528446 0.568111
0.914574 0.543180 0.554924
0.945652 0.543180 0.548552
0.056411 0.467075 0.432360
0.265607 0.548834 0.454596
0.418400 0.588520 0.487601
0.483645 0.614262 0.575239
0.577917 0.610627 0.616173
0.738792 0.608587 0.595302
0.876434 0.636202 0.572137
0.937469 0.636202 0.572137
0.971948 0.646233 0.560977
0.056946 0.516360 0.379038
0.266926 0.603725 0.454596
0.420119 0.645648 0.487601
0.560218 0.678119 0.512892
0.670347 0.712773 0.545585
0.753709 0.723793 0.584836
0.851130 0.718761 0.623132
0.885110 0.731791 0.647846
0.964145 0.738071 0.606557
0.057434 0.516360 0.359246
0.268125 0.628116 0.450052
0.421681 0.677592 0.487601
0.562066 0.710981 0.512892
0.689596 0.738436 0.533347
0.806519 0.762188 0.550584
0.825946 0.780774 0.650933
0.857586 0.778561 0.700948
0.902788 0.787036 0.693257
0.057885 0.516360 0.344596
0.269231 0.628116 0.433325
0.423121 0.681752 0.472994
0.563769 0.723093 0.503367
0.691514 0.756672 0.527733
0.808620 0.785060 0.547898
0.887513 0.806144 0.599887
0.870768 0.816254 0.690039
0.861815 0.824015 0.781423
