Resources/LUTs/Polaroid_600_Linear.cube
# Polaroid 600 - Instant Film Emulation
# 33x33x33 3D LUT for Linear Colorspace
#
# Characteristics:
# - Warm yellow/amber cast
# - Cyan shadow crossover
# - Very soft contrast, lifted blacks
# - Muted, desaturated colors
# - Dreamy, nostalgic instant film look
#
TITLE "Polaroid 600 Linear"
LUT_3D_SIZE 9
DOMAIN_MIN 0.0 0.0 0.0
DOMAIN_MAX 1.0 1.0 1.0
0.024020 0.027172 0.047947
0.162528 0.046634 0.054372
0.268955 0.059131 0.061702
0.369189 0.070793 0.070220
0.459847 0.080797 0.077266
0.531341 0.088420 0.082508
0.566969 0.092146 0.085036
0.596821 0.095236 0.087117
0.618408 0.097812 0.088601
0.061173 0.120224 0.079955
0.175594 0.156650 0.036015
0.281297 0.177797 0.040744
0.387480 0.195551 0.044289
0.483673 0.221564 0.046916
0.559606 0.234163 0.048493
0.597467 0.240236 0.048605
0.629199 0.245232 0.048542
0.652151 0.249464 0.048227
0.083584 0.186217 0.079214
0.181205 0.217869 0.043798
0.293964 0.254028 0.031058
0.406288 0.291302 0.033084
0.483673 0.298521 0.038624
0.560183 0.311731 0.039776
0.599343 0.318062 0.039755
0.632327 0.323251 0.039601
0.656467 0.327466 0.039253
0.101637 0.250461 0.086978
0.158785 0.250461 0.058310
0.277517 0.296954 0.041452
0.409754 0.350459 0.028536
0.513672 0.397254 0.030782
0.596119 0.411288 0.032462
0.637904 0.417992 0.033268
0.639406 0.408432 0.038392
0.663703 0.413262 0.038994
0.117061 0.308023 0.090808
0.173675 0.308023 0.059584
0.300932 0.368250 0.044114
0.429173 0.437881 0.030782
0.518809 0.437881 0.030782
0.601720 0.448072 0.032462
0.643730 0.498903 0.033268
0.679110 0.504984 0.033929
0.704994 0.510030 0.034399
0.129899 0.353151 0.090609
0.185198 0.353151 0.065262
0.235814 0.353151 0.065262
0.393987 0.424360 0.047556
0.535351 0.506921 0.032462
0.606576 0.506921 0.032462
0.648781 0.512108 0.033268
0.684320 0.516332 0.033929
0.710319 0.573375 0.034399
0.137467 0.375569 0.091500
0.191766 0.375569 0.068030
0.243368 0.375569 0.068030
0.405323 0.452292 0.049223
0.545134 0.541353 0.033268
0.617095 0.541353 0.033268
0.653290 0.541353 0.033268
0.688971 0.545716 0.033929
0.715073 0.548805 0.034399
0.143963 0.394320 0.095272
0.197389 0.394320 0.070321
0.249825 0.394320 0.070321
0.414979 0.475681 0.050598
0.553530 0.570215 0.033929
0.626119 0.570215 0.033929
0.662618 0.570215 0.033929
0.693205 0.570215 0.033929
0.719400 0.573383 0.034399
0.149019 0.407862 0.098391
0.200995 0.407862 0.071963
0.253960 0.407862 0.071963
0.422549 0.492587 0.051580
0.560299 0.591092 0.034399
0.633392 0.591092 0.034399
0.670135 0.591092 0.034399
0.700921 0.591092 0.034399
0.723392 0.591092 0.034399
0.052766 0.052566 0.157942
0.153554 0.045996 0.157239
0.251881 0.056662 0.170254
0.343949 0.066319 0.184833
0.427023 0.074418 0.196498
0.492436 0.080500 0.204983
0.525008 0.083449 0.209024
0.552288 0.085884 0.212326
0.572008 0.087625 0.214330
0.054679 0.129739 0.131080
0.210167 0.185011 0.184221
0.333513 0.209380 0.175856
0.449613 0.230667 0.177806
0.558257 0.251990 0.179566
0.645374 0.269185 0.179882
0.689140 0.277966 0.177504
0.725825 0.285461 0.175010
0.752360 0.290970 0.172194
0.072597 0.203751 0.123837
0.256050 0.272516 0.163276
0.341743 0.295915 0.138476
0.458330 0.315400 0.139867
0.573099 0.341127 0.139478
0.665660 0.360339 0.138436
0.712904 0.370184 0.135835
0.752704 0.378605 0.137165
0.781818 0.384805 0.138227
0.101637 0.250461 0.118160
0.293726 0.353218 0.156038
0.349796 0.353218 0.142884
0.473047 0.402372 0.122374
0.579785 0.424196 0.130090
0.672955 0.443645 0.133830
0.720496 0.453409 0.135667
0.760540 0.461659 0.137165
0.789829 0.467675 0.138227
0.117196 0.308023 0.114574
0.331356 0.426980 0.162642
0.381986 0.426980 0.154431
0.480469 0.462415 0.140138
0.598925 0.501159 0.126079
0.696511 0.532228 0.129026
0.746315 0.542280 0.130482
0.766994 0.541074 0.137165
0.796427 0.547672 0.138227
0.130910 0.353151 0.111025
0.361436 0.484347 0.175954
0.404967 0.484347 0.163268
0.465059 0.484347 0.163268
0.624084 0.579061 0.129026
0.701798 0.579061 0.129026
0.751820 0.586266 0.130482
0.793963 0.616980 0.131669
0.824786 0.623633 0.132509
0.138513 0.375569 0.114532
0.377864 0.512721 0.182910
0.416954 0.512721 0.167581
0.478048 0.512721 0.167581
0.603174 0.562754 0.148750
0.717259 0.617883 0.130482
0.756733 0.617883 0.130482
0.799035 0.623939 0.131669
0.829971 0.656398 0.132509
0.145036 0.394320 0.117418
0.391808 0.536396 0.188890
0.426638 0.536396 0.171122
0.488532 0.536396 0.171122
0.618317 0.590590 0.151062
0.730393 0.650411 0.131669
0.770283 0.650411 0.131669
0.803651 0.650411 0.131669
0.834690 0.654807 0.132509
0.150114 0.407862 0.119397
0.402480 0.553466 0.193311
0.433933 0.553466 0.173645
0.496425 0.553466 0.173645
0.629987 0.610690 0.152705
0.740684 0.673933 0.132509
0.780896 0.673933 0.132509
0.814529 0.673933 0.132509
0.839044 0.673933 0.132509
0.069397 0.068627 0.237857
0.176741 0.062054 0.234800
0.251881 0.056662 0.234641
0.343949 0.066319 0.252167
0.427023 0.074418 0.266119
0.492436 0.080500 0.276231
0.525008 0.083449 0.281037
0.552288 0.085884 0.284959
0.572008 0.087625 0.287337
0.072597 0.160679 0.203389
0.247627 0.215876 0.246418
0.327705 0.212297 0.233602
0.437328 0.233859 0.235106
0.539629 0.253457 0.235925
0.621485 0.267929 0.234580
0.662559 0.274880 0.226392
0.725825 0.265148 0.215835
0.752360 0.268527 0.210710
0.072597 0.203751 0.159623
0.249594 0.278875 0.197660
0.356804 0.312331 0.227832
0.492696 0.342733 0.213721
0.619450 0.369461 0.204449
0.714186 0.389051 0.202861
0.762049 0.399054 0.203590
0.802298 0.407602 0.205849
0.831707 0.413892 0.207450
0.086565 0.276172 0.153877
0.294348 0.353218 0.178486
0.419219 0.406218 0.204668
0.506828 0.428954 0.191996
0.631430 0.452185 0.195236
0.733460 0.475721 0.196884
0.783414 0.486237 0.199183
0.825439 0.495259 0.201057
0.856150 0.501920 0.202384
0.098836 0.341293 0.144746
0.332023 0.426980 0.184031
0.474034 0.489106 0.213130
0.527902 0.487853 0.212804
0.648756 0.534682 0.189102
0.739779 0.552490 0.196884
0.789981 0.562819 0.199183
0.832209 0.571561 0.201057
0.863065 0.577947 0.202384
0.131298 0.353151 0.136969
0.362137 0.484347 0.193008
0.511586 0.551079 0.227342
0.562552 0.551079 0.220002
0.655808 0.582081 0.206526
0.757149 0.615492 0.192991
0.809403 0.634819 0.194832
0.853378 0.643452 0.196330
0.885516 0.649781 0.197391
0.138913 0.375569 0.140930
0.378583 0.512721 0.217225
0.531670 0.581644 0.234696
0.578734 0.581644 0.225130
0.674915 0.617238 0.209984
0.773307 0.655701 0.194832
0.814532 0.655701 0.194832
0.858668 0.661970 0.196330
0.890921 0.683331 0.197391
0.145448 0.394320 0.144186
0.392543 0.536396 0.223832
0.548664 0.607110 0.241030
0.591801 0.607110 0.229334
0.649199 0.607110 0.229334
0.753959 0.646600 0.212810
0.828674 0.689363 0.196330
0.863482 0.689363 0.196330
0.895839 0.693911 0.197391
0.150534 0.407862 0.146415
0.403226 0.553466 0.228710
0.561639 0.625450 0.245721
0.601567 0.625450 0.232326
0.659505 0.625450 0.232326
0.767055 0.667783 0.214815
0.839748 0.713691 0.197391
0.874824 0.713691 0.197391
0.900376 0.713691 0.197391
0.082209 0.083625 0.319449
0.199165 0.073622 0.314981
0.265299 0.073622 0.314981
0.343949 0.066319 0.313118
0.427023 0.074418 0.328926
0.492436 0.080500 0.340359
0.525008 0.083449 0.345785
0.552288 0.085884 0.350209
0.572008 0.087625 0.352891
0.082209 0.185888 0.279901
0.276299 0.242549 0.311584
0.357654 0.240237 0.291286
0.437328 0.233859 0.281555
0.539629 0.253457 0.281438
0.621485 0.267929 0.279085
0.662559 0.274880 0.273713
0.696957 0.280586 0.268390
0.721824 0.284651 0.262930
0.086565 0.241363 0.222954
0.276299 0.311725 0.251404
0.405952 0.349433 0.268155
0.487645 0.345753 0.255936
0.605541 0.371807 0.248802
0.698556 0.390834 0.244099
0.743937 0.399488 0.247019
0.782067 0.406579 0.249284
0.809918 0.411622 0.250821
0.086565 0.276172 0.180165
0.282375 0.366441 0.207893
0.413083 0.412435 0.235312
0.530776 0.447823 0.271132
0.664346 0.477389 0.266594
0.773572 0.501691 0.260823
0.823359 0.512955 0.261190
0.863400 0.522018 0.263334
0.892614 0.528698 0.264852
0.099077 0.341293 0.171759
0.314721 0.446806 0.215039
0.472254 0.487853 0.241037
0.595882 0.536072 0.275202
0.677650 0.556664 0.263408
0.781169 0.576021 0.264549
0.838728 0.591152 0.258058
0.880371 0.600291 0.259773
0.910760 0.607059 0.260986
0.109832 0.392462 0.169213
0.362652 0.484347 0.220207
0.512216 0.551079 0.247905
0.647917 0.605654 0.276601
0.695994 0.621823 0.271131
0.799695 0.643851 0.255576
0.853316 0.657764 0.254948
0.886432 0.661527 0.259773
0.916942 0.668000 0.260986
0.115877 0.417912 0.172864
0.379111 0.512721 0.224842
0.532314 0.581644 0.253003
0.670510 0.638769 0.280992
0.720637 0.638769 0.276255
0.816079 0.686015 0.254948
0.858605 0.686015 0.254948
0.902005 0.699868 0.256240
0.933680 0.705981 0.257153
0.121076 0.439213 0.175853
0.393082 0.536396 0.228592
0.549320 0.607110 0.257126
0.688158 0.665653 0.286878
0.735189 0.665653 0.280505
0.812400 0.692209 0.268471
0.871130 0.720567 0.256240
0.906958 0.720567 0.256240
0.938734 0.725233 0.257153
0.125157 0.454604 0.177851
0.403775 0.553466 0.231230
0.562304 0.625450 0.260025
0.701678 0.684998 0.291257
0.746054 0.684998 0.283525
0.824672 0.714245 0.270432
0.857646 0.714245 0.270432
0.917135 0.745526 0.257153
0.943396 0.745526 0.257153
0.093017 0.096555 0.392505
0.217623 0.083389 0.386737
0.287055 0.083389 0.386737
0.394130 0.074418 0.410109
0.427023 0.074418 0.383007
0.492436 0.080500 0.395494
0.525008 0.083449 0.401414
0.552288 0.085884 0.406240
0.572008 0.087625 0.409165
0.093017 0.204815 0.342323
0.303122 0.268243 0.369430
0.389522 0.262429 0.344564
0.462949 0.262429 0.328701
0.539629 0.253457 0.319159
0.621485 0.267929 0.315906
0.662559 0.274880 0.309522
0.696957 0.280586 0.303260
0.721824 0.284651 0.296906
0.098386 0.264306 0.271551
0.303122 0.339860 0.297030
0.447856 0.381545 0.301601
0.528613 0.378272 0.290008
0.609190 0.372754 0.275346
0.699174 0.390834 0.278373
0.744579 0.399488 0.281524
0.782727 0.406579 0.283969
0.810593 0.411622 0.285626
0.098386 0.317700 0.231648
0.311272 0.401903 0.246295
0.451374 0.448637 0.274531
0.582642 0.483674 0.304605
0.659722 0.480237 0.305652
0.758741 0.502972 0.306704
0.811883 0.515586 0.299660
0.849958 0.523810 0.301961
0.877729 0.529655 0.303513
0.099276 0.341293 0.189543
0.315110 0.446806 0.241310
0.462325 0.501476 0.266360
0.590077 0.541723 0.303240
0.695606 0.572832 0.337150
0.802115 0.597954 0.328062
0.861765 0.612658 0.317185
0.908828 0.623904 0.312630
0.938924 0.630672 0.314307
0.110042 0.392462 0.193356
0.341030 0.509560 0.251029
0.495234 0.568480 0.276309
0.643711 0.603373 0.305841
0.748015 0.644968 0.334876
0.813636 0.661180 0.325498
0.866431 0.671413 0.322284
0.918893 0.683577 0.312580
0.952041 0.692178 0.311738
0.116094 0.417912 0.197302
0.355329 0.540667 0.254964
0.532842 0.581644 0.277392
0.671114 0.638769 0.301016
0.780795 0.682874 0.327398
0.828036 0.692595 0.326796
0.882084 0.707649 0.313566
0.925752 0.716231 0.311088
0.957679 0.722757 0.311738
0.121299 0.439213 0.200529
0.367476 0.566654 0.258117
0.549858 0.607110 0.281741
0.688771 0.665653 0.305189
0.805385 0.713192 0.325902
0.845841 0.712424 0.325591
0.888552 0.728552 0.316553
0.937319 0.745302 0.308163
0.969706 0.754013 0.309180
0.125384 0.454604 0.202687
0.376822 0.585406 0.260318
0.562849 0.625450 0.284799
0.702299 0.684998 0.308116
0.820199 0.733326 0.330123
0.860643 0.733326 0.326588
0.902087 0.751506 0.318000
0.947693 0.770754 0.309180
0.974458 0.770754 0.309180
0.101165 0.106443 0.449756
0.231308 0.090755 0.442950
0.303107 0.090755 0.442950
0.366893 0.090755 0.442950
0.479995 0.080500 0.470539
0.492436 0.080500 0.437587
0.525008 0.083449 0.443867
0.552288 0.085884 0.448983
0.572008 0.087625 0.452083
0.101165 0.218949 0.389945
0.324094 0.288586 0.413257
0.414318 0.278879 0.384864
0.490339 0.278879 0.366957
0.581382 0.267929 0.363626
0.621485 0.267929 0.342614
0.662559 0.274880 0.335462
0.696957 0.280586 0.328492
0.721824 0.284651 0.321470
0.107316 0.281383 0.308458
0.324094 0.361595 0.331472
0.475127 0.404913 0.335124
0.562061 0.399575 0.316383
0.633057 0.399575 0.302727
0.699708 0.390834 0.304308
0.745133 0.399488 0.307627
0.783298 0.406579 0.310201
0.811175 0.411622 0.311946
0.107316 0.336687 0.262693
0.333913 0.426731 0.275972
0.481122 0.474204 0.303542
0.623306 0.512477 0.325274
0.695178 0.508711 0.332478
0.764983 0.504863 0.326436
0.812465 0.515586 0.326713
0.850557 0.523810 0.329133
0.878339 0.529655 0.330765
0.108432 0.383568 0.228354
0.337911 0.480371 0.275972
0.491355 0.531559 0.300670
0.624398 0.572255 0.333357
0.736410 0.603050 0.358208
0.798553 0.600360 0.359063
0.850317 0.613474 0.355129
0.899249 0.626086 0.345064
0.929892 0.633247 0.344514
0.110224 0.392462 0.206442
0.341381 0.509560 0.270055
0.495671 0.568480 0.297598
0.637534 0.616083 0.322334
0.743407 0.649429 0.357170
0.821254 0.672624 0.386403
0.881580 0.687619 0.373684
0.933549 0.701242 0.362171
0.972580 0.711870 0.352957
0.116281 0.417912 0.215801
0.355689 0.540667 0.276391
0.513425 0.601611 0.303285
0.657634 0.651641 0.324228
0.768433 0.687355 0.354429
0.856223 0.711443 0.376968
0.889803 0.719460 0.372382
0.936077 0.728621 0.368228
0.976788 0.739186 0.357608
0.121491 0.439213 0.219202
0.367843 0.566654 0.279696
0.528460 0.629252 0.306919
0.673221 0.680588 0.327632
0.804258 0.712424 0.345035
0.887382 0.744184 0.368141
0.904782 0.749074 0.371005
0.949506 0.758917 0.359935
0.983052 0.765409 0.356307
0.125580 0.454604 0.221474
0.377194 0.585406 0.282002
0.540000 0.649179 0.309455
0.702834 0.684998 0.327356
0.820785 0.733326 0.345833
0.912155 0.768141 0.360807
0.928939 0.766131 0.365863
0.958857 0.776083 0.359789
0.995455 0.787716 0.350137
0.105126 0.111287 0.478189
0.237895 0.094336 0.470863
0.310813 0.094336 0.470863
0.375503 0.094336 0.470863
0.490779 0.083449 0.500567
0.525008 0.083449 0.485975
0.525008 0.083449 0.464643
0.552288 0.085884 0.469897
0.572008 0.087625 0.473080
0.105126 0.225780 0.411590
0.334440 0.298844 0.432729
0.407232 0.286797 0.402683
0.503791 0.286797 0.383823
0.568886 0.286797 0.368764
0.654028 0.274880 0.367640
0.662559 0.274880 0.346166
0.696957 0.280586 0.338865
0.722225 0.284651 0.331535
0.111662 0.289622 0.325049
0.334440 0.378195 0.346565
0.488427 0.416667 0.349549
0.577046 0.409330 0.329740
0.649112 0.409330 0.318443
0.725756 0.399488 0.325063
0.745625 0.399488 0.320339
0.783805 0.406579 0.322974
0.811692 0.411622 0.324761
0.111662 0.345829 0.276522
0.338090 0.441122 0.296026
0.494519 0.486291 0.320091
0.638424 0.525808 0.338890
0.717008 0.522563 0.337845
0.785911 0.515586 0.342035
0.812984 0.515586 0.339875
0.851089 0.523810 0.342352
0.878881 0.529655 0.344021
0.112968 0.393429 0.240134
0.349308 0.493517 0.291325
0.505515 0.544965 0.316800
0.644253 0.588110 0.338890
0.761155 0.620152 0.360271
0.816434 0.617396 0.367634
0.856531 0.615538 0.361266
0.901103 0.626544 0.356972
0.930452 0.633247 0.358087
0.114803 0.417912 0.228240
0.352846 0.534486 0.291325
0.509902 0.588333 0.316800
0.653564 0.633292 0.336803
0.764001 0.665959 0.367063
0.848108 0.690244 0.388761
0.880069 0.689039 0.389249
0.924697 0.701254 0.384993
0.963094 0.712433 0.374277
0.116448 0.417912 0.219147
0.356009 0.540667 0.284092
0.513821 0.601611 0.312741
0.658092 0.651641 0.334937
0.774056 0.689675 0.358562
0.854133 0.713655 0.388307
0.887932 0.722682 0.410866
0.939951 0.736368 0.398401
0.980504 0.747616 0.386538
0.121662 0.439213 0.228296
0.368169 0.566654 0.290168
0.528863 0.629252 0.317970
0.673685 0.680588 0.339108
0.795909 0.721743 0.355439
0.882568 0.741908 0.384746
0.919882 0.755669 0.401048
0.947305 0.762138 0.397345
0.982197 0.769559 0.392718
0.125755 0.454604 0.230623
0.377525 0.585406 0.292524
0.540408 0.649179 0.320559
0.685712 0.701441 0.341524
0.809702 0.743570 0.357233
0.908007 0.766131 0.375322
0.946684 0.780404 0.391040
0.960831 0.783630 0.394848
0.994505 0.791547 0.384819
0.108399 0.115308 0.501969
0.243311 0.097296 0.494204
0.317138 0.097296 0.494204
0.382562 0.097296 0.494204
0.499626 0.085884 0.525687
0.550488 0.085884 0.525687
0.552288 0.085884 0.504963
0.552288 0.085884 0.487246
0.572008 0.087625 0.490497
0.108399 0.231408 0.429085
0.342959 0.307530 0.448293
0.414281 0.293306 0.416897
0.514842 0.293306 0.397260
0.580746 0.293306 0.381582
0.668411 0.280586 0.380758
0.696218 0.280586 0.368826
0.696957 0.280586 0.346932
0.722664 0.284651 0.339352
0.115256 0.296402 0.338398
0.342959 0.388153 0.358558
0.499395 0.426614 0.360957
0.589394 0.417333 0.340278
0.662334 0.417333 0.332047
0.717425 0.417333 0.332047
0.771847 0.406579 0.339382
0.784265 0.406579 0.333541
0.812162 0.411622 0.335362
0.115256 0.353345 0.287607
0.346949 0.451095 0.309198
0.505566 0.496418 0.333872
0.649504 0.536507 0.352579
0.729162 0.531786 0.351370
0.787378 0.531786 0.351370
0.831477 0.523810 0.356224
0.851572 0.523810 0.353282
0.879373 0.529655 0.354982
0.116738 0.401529 0.249543
0.358734 0.504506 0.304117
0.517195 0.556175 0.330228
0.655392 0.598930 0.352579
0.778577 0.633310 0.366370
0.838830 0.631096 0.368262
0.870073 0.631558 0.366493
0.902213 0.626759 0.367352
0.930961 0.633247 0.369305
0.118608 0.437929 0.246130
0.362327 0.545996 0.304117
0.521641 0.600052 0.330228
0.665365 0.645041 0.350162
0.782559 0.681721 0.368969
0.871976 0.705913 0.388302
0.897362 0.703661 0.395700
0.930822 0.703402 0.389024
0.964678 0.712831 0.384142
0.120285 0.439213 0.237313
0.365539 0.566120 0.304117
0.525612 0.621307 0.330228
0.669941 0.667205 0.350162
0.791783 0.704783 0.365790
0.872018 0.727727 0.396040
0.912662 0.738501 0.410593
0.938799 0.737538 0.410993
0.972704 0.747258 0.406245
0.121817 0.439213 0.229760
0.368465 0.566654 0.295661
0.529229 0.629252 0.325213
0.674106 0.680588 0.347622
0.796911 0.721991 0.363986
0.883632 0.748242 0.387394
0.918253 0.757455 0.410233
0.944925 0.764773 0.431325
0.985524 0.776061 0.418666
0.125913 0.454604 0.238192
0.377826 0.585406 0.301212
0.540779 0.649179 0.329720
0.686137 0.701441 0.351028
0.810171 0.743570 0.366988
0.903194 0.771934 0.383254
0.941926 0.778204 0.405839
0.972244 0.789659 0.420506
0.991906 0.794191 0.417921
0.110742 0.118523 0.519141
0.247172 0.099416 0.511059
0.321642 0.099416 0.511059
0.387585 0.099416 0.511059
0.506515 0.087625 0.543832
0.557777 0.087625 0.543832
0.572008 0.087625 0.533992
0.572008 0.087625 0.515684
0.572008 0.087625 0.502999
0.110742 0.235755 0.440790
0.349041 0.313874 0.458471
0.419131 0.297946 0.426149
0.522719 0.297946 0.405979
0.589195 0.297946 0.389878
0.678822 0.284651 0.389257
0.706879 0.284651 0.376996
0.721879 0.284651 0.361894
0.723067 0.284651 0.344116
0.110742 0.305351 0.358574
0.349041 0.395416 0.366289
0.507290 0.433878 0.368227
0.598276 0.423029 0.346957
0.671840 0.423029 0.341839
0.727384 0.423029 0.341839
0.783144 0.411622 0.349695
0.809156 0.411622 0.349695
0.812594 0.411622 0.342956
0.117831 0.359098 0.294886
0.353338 0.458315 0.318688
0.513518 0.503753 0.343793
0.657472 0.544321 0.362422
0.737899 0.538345 0.361092
0.796514 0.538345 0.361092
0.825640 0.538345 0.361092
0.868485 0.529655 0.366431
0.879825 0.529655 0.362832
0.119472 0.407726 0.255668
0.365531 0.512450 0.313330
0.518654 0.566294 0.343793
0.663402 0.606768 0.362422
0.787432 0.641385 0.376435
0.850102 0.639025 0.375618
0.880348 0.639025 0.375618
0.914755 0.633247 0.378892
0.931428 0.633247 0.377337
0.121368 0.444447 0.254567
0.369163 0.554313 0.313330
0.530091 0.608525 0.339891
0.673850 0.653539 0.359764
0.793111 0.690541 0.376435
0.890475 0.717935 0.386124
0.916938 0.715599 0.392373
0.942943 0.715999 0.390942
0.969088 0.714299 0.386916
0.123067 0.454604 0.250384
0.372410 0.574614 0.313330
0.534099 0.629953 0.339891
0.678460 0.675871 0.359764
0.801711 0.713618 0.374802
0.891283 0.739839 0.392806
0.933216 0.751205 0.406500
0.953075 0.749099 0.413675
0.978629 0.749367 0.407080
0.124620 0.454604 0.242589
0.375369 0.585406 0.310165
0.537749 0.647627 0.339891
0.682656 0.694281 0.359764
0.806335 0.732618 0.374802
0.899115 0.759307 0.390510
0.933023 0.768531 0.413933
0.966062 0.777569 0.427233
0.984837 0.776914 0.427523
0.126059 0.454604 0.237179
0.378102 0.585406 0.303917
0.541119 0.649179 0.334109
0.686529 0.701441 0.356658
0.810602 0.743570 0.373454
0.907330 0.773527 0.384851
0.944004 0.783477 0.405837
0.971216 0.790911 0.426988
0.987899 0.795289 0.446101
