Resources/LUTs/Polaroid_600_Linear.cube
# Polaroid 600 - Instant Film Emulation
# 33x33x33 3D LUT for Linear Colorspace
#
# Characteristics:
# - Warm yellow/amber cast
# - Cyan shadow crossover
# - Very soft contrast, lifted blacks
# - Muted, desaturated colors
# - Dreamy, nostalgic instant film look
#
TITLE "Polaroid 600 Linear"
LUT_3D_SIZE 5
DOMAIN_MIN 0.0 0.0 0.0
DOMAIN_MAX 1.0 1.0 1.0
0.024020 0.027172 0.047947
0.268955 0.059131 0.061702
0.459847 0.080797 0.077266
0.566969 0.092146 0.085036
0.618408 0.097812 0.088601
0.083584 0.186217 0.079214
0.293964 0.254028 0.031058
0.483673 0.298521 0.038624
0.599343 0.318062 0.039755
0.656467 0.327466 0.039253
0.117061 0.308023 0.090808
0.300932 0.368250 0.044114
0.518809 0.437881 0.030782
0.643730 0.498903 0.033268
0.704994 0.510030 0.034399
0.137467 0.375569 0.091500
0.243368 0.375569 0.068030
0.545134 0.541353 0.033268
0.653290 0.541353 0.033268
0.715073 0.548805 0.034399
0.149019 0.407862 0.098391
0.253960 0.407862 0.071963
0.560299 0.591092 0.034399
0.670135 0.591092 0.034399
0.723392 0.591092 0.034399
0.069397 0.068627 0.237857
0.251881 0.056662 0.234641
0.427023 0.074418 0.266119
0.525008 0.083449 0.281037
0.572008 0.087625 0.287337
0.072597 0.203751 0.159623
0.356804 0.312331 0.227832
0.619450 0.369461 0.204449
0.762049 0.399054 0.203590
0.831707 0.413892 0.207450
0.098836 0.341293 0.144746
0.474034 0.489106 0.213130
0.648756 0.534682 0.189102
0.789981 0.562819 0.199183
0.863065 0.577947 0.202384
0.138913 0.375569 0.140930
0.531670 0.581644 0.234696
0.674915 0.617238 0.209984
0.814532 0.655701 0.194832
0.890921 0.683331 0.197391
0.150534 0.407862 0.146415
0.561639 0.625450 0.245721
0.659505 0.625450 0.232326
0.839748 0.713691 0.197391
0.900376 0.713691 0.197391
0.093017 0.096555 0.392505
0.287055 0.083389 0.386737
0.427023 0.074418 0.383007
0.525008 0.083449 0.401414
0.572008 0.087625 0.409165
0.098386 0.264306 0.271551
0.447856 0.381545 0.301601
0.609190 0.372754 0.275346
0.744579 0.399488 0.281524
0.810593 0.411622 0.285626
0.099276 0.341293 0.189543
0.462325 0.501476 0.266360
0.695606 0.572832 0.337150
0.861765 0.612658 0.317185
0.938924 0.630672 0.314307
0.116094 0.417912 0.197302
0.532842 0.581644 0.277392
0.780795 0.682874 0.327398
0.882084 0.707649 0.313566
0.957679 0.722757 0.311738
0.125384 0.454604 0.202687
0.562849 0.625450 0.284799
0.820199 0.733326 0.330123
0.902087 0.751506 0.318000
0.974458 0.770754 0.309180
0.105126 0.111287 0.478189
0.310813 0.094336 0.470863
0.490779 0.083449 0.500567
0.525008 0.083449 0.464643
0.572008 0.087625 0.473080
0.111662 0.289622 0.325049
0.488427 0.416667 0.349549
0.649112 0.409330 0.318443
0.745625 0.399488 0.320339
0.811692 0.411622 0.324761
0.112968 0.393429 0.240134
0.505515 0.544965 0.316800
0.761155 0.620152 0.360271
0.856531 0.615538 0.361266
0.930452 0.633247 0.358087
0.116448 0.417912 0.219147
0.513821 0.601611 0.312741
0.774056 0.689675 0.358562
0.887932 0.722682 0.410866
0.980504 0.747616 0.386538
0.125755 0.454604 0.230623
0.540408 0.649179 0.320559
0.809702 0.743570 0.357233
0.946684 0.780404 0.391040
0.994505 0.791547 0.384819
0.110742 0.118523 0.519141
0.321642 0.099416 0.511059
0.506515 0.087625 0.543832
0.572008 0.087625 0.533992
0.572008 0.087625 0.502999
0.110742 0.305351 0.358574
0.507290 0.433878 0.368227
0.671840 0.423029 0.341839
0.783144 0.411622 0.349695
0.812594 0.411622 0.342956
0.119472 0.407726 0.255668
0.518654 0.566294 0.343793
0.787432 0.641385 0.376435
0.880348 0.639025 0.375618
0.931428 0.633247 0.377337
0.123067 0.454604 0.250384
0.534099 0.629953 0.339891
0.801711 0.713618 0.374802
0.933216 0.751205 0.406500
0.978629 0.749367 0.407080
0.126059 0.454604 0.237179
0.541119 0.649179 0.334109
0.810602 0.743570 0.373454
0.944004 0.783477 0.405837
0.987899 0.795289 0.446101
