Resources/LUTs/Polaroid_600_Linear.cube
# Polaroid 600 - Instant Film Emulation
# 33x33x33 3D LUT for Linear Colorspace
#
# Characteristics:
# - Warm yellow/amber cast
# - Cyan shadow crossover
# - Very soft contrast, lifted blacks
# - Muted, desaturated colors
# - Dreamy, nostalgic instant film look
#
TITLE "Polaroid 600 Linear"
LUT_3D_SIZE 33
DOMAIN_MIN 0.0 0.0 0.0
DOMAIN_MAX 1.0 1.0 1.0
0.024020 0.027172 0.047947
0.071727 0.034702 0.047689
0.104272 0.039126 0.050117
0.134286 0.043103 0.052420
0.162528 0.046634 0.054372
0.189654 0.049876 0.056101
0.215997 0.052913 0.057675
0.242122 0.055863 0.059242
0.268955 0.059131 0.061702
0.295022 0.062239 0.064010
0.320387 0.065209 0.066188
0.345097 0.068057 0.068254
0.369189 0.070793 0.070220
0.392691 0.073429 0.072097
0.415624 0.075971 0.073893
0.438006 0.078425 0.075614
0.459847 0.080797 0.077266
0.481157 0.083091 0.078854
0.501939 0.085310 0.080381
0.521538 0.087387 0.081803
0.531341 0.088420 0.082508
0.540779 0.089411 0.083183
0.549860 0.090362 0.083829
0.558590 0.091274 0.084446
0.566969 0.092146 0.085036
0.574994 0.092980 0.085599
0.582655 0.093774 0.086133
0.589940 0.094527 0.086640
0.596821 0.095236 0.087117
0.603258 0.095899 0.087561
0.609176 0.096565 0.087968
0.614425 0.097273 0.088328
0.618408 0.097812 0.088601
0.038888 0.061633 0.057010
0.075580 0.073107 0.044906
0.107752 0.078063 0.048013
0.139274 0.082880 0.049760
0.168987 0.089549 0.051233
0.197562 0.093863 0.052533
0.225340 0.097866 0.053711
0.252913 0.101725 0.054899
0.281297 0.105983 0.056926
0.308890 0.110001 0.058823
0.335755 0.113814 0.060609
0.361939 0.117446 0.062300
0.387480 0.120917 0.063906
0.412404 0.124241 0.065437
0.436735 0.127432 0.066900
0.460487 0.130500 0.068300
0.459847 0.137144 0.077266
0.481157 0.140262 0.078854
0.501939 0.143269 0.068132
0.521538 0.146075 0.068967
0.531341 0.147468 0.069159
0.540779 0.148804 0.069330
0.549860 0.150083 0.069481
0.558590 0.151308 0.069612
0.566969 0.152479 0.069725
0.574994 0.153597 0.069819
0.582655 0.154660 0.069893
0.589940 0.155668 0.069948
0.596821 0.156617 0.069981
0.603258 0.157502 0.069992
0.609176 0.158391 0.069975
0.614425 0.159335 0.069924
0.618408 0.160054 0.069804
0.047176 0.083283 0.065526
0.077453 0.092881 0.053214
0.111300 0.103552 0.045962
0.144369 0.111996 0.047180
0.168987 0.114016 0.051233
0.197562 0.118430 0.052533
0.225340 0.122494 0.053711
0.252913 0.126389 0.045074
0.281297 0.136023 0.046373
0.308890 0.140666 0.047558
0.335755 0.145063 0.048649
0.361939 0.149243 0.049657
0.387480 0.153231 0.050592
0.412404 0.157046 0.051464
0.436735 0.160701 0.052278
0.460487 0.164211 0.053039
0.483673 0.167585 0.053751
0.506299 0.170830 0.054419
0.528371 0.173954 0.055045
0.549191 0.176866 0.055601
0.559606 0.178311 0.055692
0.569634 0.179694 0.055770
0.579285 0.181018 0.055834
0.588562 0.182285 0.055885
0.597467 0.183496 0.055923
0.605996 0.184651 0.055948
0.614140 0.185749 0.055961
0.621884 0.186789 0.055959
0.629199 0.187768 0.055944
0.636042 0.188681 0.055912
0.642335 0.189611 0.055862
0.647916 0.190622 0.055788
0.652151 0.191392 0.055665
0.054572 0.102519 0.073142
0.075460 0.102519 0.066067
0.107971 0.115958 0.046718
0.144369 0.131022 0.037796
0.175594 0.141370 0.038054
0.197562 0.141830 0.041149
0.225340 0.146342 0.041579
0.252913 0.150660 0.042040
0.281297 0.155419 0.043226
0.308890 0.159880 0.044307
0.335755 0.164086 0.045300
0.361939 0.168071 0.046217
0.387480 0.180280 0.047067
0.412404 0.184472 0.047858
0.436735 0.188486 0.048595
0.460487 0.192336 0.049283
0.483673 0.196034 0.049927
0.506299 0.199589 0.050529
0.528371 0.203009 0.051093
0.549191 0.206194 0.051592
0.559606 0.207774 0.051663
0.569634 0.209286 0.051722
0.579285 0.210733 0.051768
0.588562 0.212117 0.051803
0.597467 0.213440 0.051826
0.605996 0.214701 0.051838
0.614140 0.215900 0.051837
0.621884 0.217035 0.051825
0.629199 0.218104 0.051799
0.636042 0.219101 0.051759
0.642335 0.220114 0.051702
0.647916 0.221218 0.051623
0.652151 0.222057 0.051499
0.061173 0.120224 0.079955
0.081303 0.120224 0.057917
0.115365 0.137348 0.046466
0.150246 0.156650 0.036614
0.175594 0.156650 0.036015
0.205660 0.169038 0.036166
0.234914 0.173469 0.036285
0.252913 0.172647 0.039646
0.281297 0.177797 0.040744
0.308890 0.182620 0.041743
0.335755 0.187164 0.042660
0.361939 0.191465 0.043506
0.387480 0.195551 0.044289
0.412404 0.199445 0.045016
0.436735 0.203164 0.045694
0.460487 0.206724 0.046326
0.483673 0.221564 0.046916
0.506299 0.225382 0.047467
0.528371 0.229052 0.047983
0.549191 0.232469 0.048438
0.559606 0.234163 0.048493
0.569634 0.235784 0.048538
0.579285 0.237335 0.048571
0.588562 0.238819 0.048593
0.597467 0.240236 0.048605
0.605996 0.241587 0.048606
0.614140 0.242871 0.048596
0.621884 0.244088 0.048575
0.629199 0.245232 0.048542
0.636042 0.246299 0.048495
0.642335 0.247384 0.048433
0.647916 0.248565 0.048351
0.652151 0.249464 0.048227
0.067268 0.136958 0.072830
0.086496 0.136958 0.058520
0.102619 0.136958 0.056832
0.142777 0.157667 0.045133
0.181305 0.181112 0.034932
0.205660 0.181112 0.034418
0.234914 0.195631 0.034499
0.263979 0.200175 0.034631
0.293964 0.205205 0.035401
0.308890 0.203824 0.039603
0.335755 0.208667 0.040457
0.361939 0.213248 0.041244
0.387480 0.217598 0.041971
0.412404 0.221741 0.042647
0.436735 0.225697 0.043275
0.460487 0.229481 0.043860
0.483673 0.233105 0.044406
0.506299 0.236582 0.044915
0.528371 0.239919 0.045391
0.549191 0.243021 0.045810
0.559606 0.244557 0.045853
0.569634 0.246026 0.045885
0.579285 0.247431 0.045907
0.588562 0.263531 0.045920
0.597467 0.265032 0.045922
0.605996 0.266462 0.045915
0.614140 0.267822 0.045897
0.621884 0.269109 0.045869
0.629199 0.270321 0.045830
0.636042 0.271450 0.045779
0.642335 0.272599 0.045713
0.647916 0.273848 0.045628
0.652151 0.274799 0.045504
0.073005 0.153007 0.074684
0.091236 0.153007 0.058878
0.107850 0.153007 0.057124
0.149497 0.177233 0.044676
0.168619 0.177233 0.043873
0.211250 0.204754 0.033410
0.234914 0.204754 0.032956
0.263979 0.207983 0.033056
0.293964 0.226932 0.033778
0.323131 0.231918 0.034431
0.335755 0.229056 0.038556
0.361939 0.233892 0.039292
0.387480 0.238482 0.039972
0.412404 0.242852 0.040603
0.436735 0.247022 0.041188
0.460487 0.251010 0.041734
0.483673 0.254828 0.042242
0.506299 0.258490 0.042715
0.528371 0.262004 0.043157
0.549191 0.265268 0.043545
0.559606 0.266884 0.043577
0.569634 0.268430 0.043600
0.579285 0.269908 0.043613
0.588562 0.271321 0.043617
0.597467 0.272669 0.043612
0.605996 0.273953 0.043597
0.614140 0.275173 0.043574
0.621884 0.276328 0.043540
0.629199 0.277414 0.043496
0.636042 0.278426 0.043441
0.642335 0.279430 0.043372
0.647916 0.280476 0.043285
0.652151 0.281270 0.043161
0.078506 0.168872 0.076383
0.095640 0.168872 0.059189
0.112701 0.168872 0.057374
0.126499 0.168872 0.056063
0.175365 0.196635 0.043447
0.216388 0.228267 0.032531
0.240379 0.228267 0.032075
0.263979 0.228267 0.031665
0.293964 0.232108 0.032345
0.323131 0.253506 0.032958
0.351544 0.258443 0.033516
0.379251 0.263105 0.034027
0.387480 0.258876 0.038208
0.412404 0.263460 0.038799
0.436735 0.267832 0.039348
0.460487 0.272012 0.039859
0.483673 0.276013 0.040334
0.506299 0.279849 0.040776
0.528371 0.283528 0.041188
0.549191 0.286947 0.041549
0.559606 0.288639 0.041572
0.569634 0.290256 0.041586
0.579285 0.291803 0.041592
0.588562 0.293281 0.041589
0.597467 0.294692 0.041577
0.606163 0.296036 0.041556
0.614606 0.297313 0.041527
0.622645 0.298521 0.041489
0.630254 0.299657 0.041441
0.637388 0.300715 0.041382
0.643968 0.301765 0.041310
0.649834 0.302859 0.041222
0.654348 0.303690 0.041099
0.083584 0.186217 0.079214
0.099370 0.186217 0.060430
0.116803 0.186217 0.058537
0.130885 0.186217 0.057170
0.181205 0.217869 0.043798
0.199662 0.217869 0.043077
0.244612 0.254028 0.031853
0.268449 0.254028 0.031438
0.293964 0.254028 0.031058
0.323131 0.257775 0.031637
0.351544 0.281754 0.032163
0.379251 0.286656 0.032643
0.406288 0.291302 0.033084
0.432683 0.295718 0.033489
0.436735 0.289954 0.037699
0.460487 0.294331 0.038179
0.483673 0.298521 0.038624
0.506299 0.302535 0.039039
0.528371 0.306386 0.039424
0.549436 0.309962 0.039761
0.560183 0.311731 0.039776
0.570540 0.313423 0.039783
0.580517 0.315041 0.039782
0.590117 0.316587 0.039772
0.599343 0.318062 0.039755
0.608189 0.319466 0.039729
0.616648 0.320801 0.039695
0.624703 0.322064 0.039653
0.632327 0.323251 0.039601
0.639474 0.324357 0.039540
0.646067 0.325455 0.039466
0.651944 0.326598 0.039376
0.656467 0.327466 0.039253
0.088406 0.203000 0.081637
0.102831 0.203000 0.061418
0.120603 0.203000 0.059454
0.134944 0.203000 0.058036
0.147527 0.203000 0.056890
0.205431 0.238469 0.043279
0.223110 0.238469 0.042628
0.272587 0.279078 0.031174
0.298326 0.279078 0.030791
0.323131 0.279078 0.030437
0.351544 0.282737 0.030933
0.379251 0.309298 0.031386
0.406288 0.314153 0.031802
0.432683 0.318768 0.032183
0.458659 0.323164 0.032535
0.484193 0.327361 0.032860
0.484585 0.320073 0.037074
0.507578 0.324254 0.037463
0.530021 0.328263 0.037825
0.551215 0.331985 0.038140
0.561981 0.333827 0.038149
0.572358 0.335588 0.038149
0.582353 0.337271 0.038142
0.591971 0.338880 0.038127
0.601214 0.340414 0.038104
0.610076 0.341876 0.038074
0.618551 0.343264 0.038036
0.626620 0.344578 0.038199
0.634257 0.345813 0.038392
0.641417 0.346964 0.038573
0.648022 0.348105 0.038738
0.653909 0.349294 0.038884
0.658440 0.350197 0.038994
0.093006 0.219276 0.083711
0.106066 0.219276 0.062194
0.124151 0.219276 0.060167
0.138731 0.219276 0.058704
0.151516 0.219276 0.057521
0.210851 0.258490 0.043377
0.228796 0.258490 0.042711
0.246225 0.258490 0.042113
0.302393 0.303474 0.030496
0.327392 0.303474 0.030139
0.351663 0.303474 0.029807
0.379752 0.307048 0.030235
0.407181 0.336185 0.030627
0.433976 0.340985 0.030987
0.460158 0.345557 0.031319
0.485741 0.349921 0.031624
0.510735 0.354094 0.031905
0.535147 0.358089 0.032165
0.531653 0.349280 0.036361
0.552884 0.353139 0.036657
0.563670 0.355048 0.036659
0.574065 0.356874 0.036794
0.584077 0.358618 0.037057
0.593712 0.360285 0.037308
0.602970 0.361876 0.037547
0.611848 0.363390 0.037776
0.620336 0.364829 0.037993
0.628419 0.366190 0.038199
0.636069 0.367470 0.038392
0.643241 0.368662 0.038573
0.649857 0.369844 0.038738
0.655753 0.371076 0.038884
0.660292 0.372011 0.038994
0.097410 0.235086 0.085479
0.109108 0.235086 0.062790
0.127485 0.235086 0.060706
0.142286 0.235086 0.059202
0.155257 0.235086 0.057987
0.215970 0.277974 0.043388
0.234163 0.277974 0.042710
0.251911 0.277974 0.042101
0.306706 0.327257 0.030180
0.332302 0.327257 0.029820
0.357047 0.327257 0.029486
0.381019 0.327257 0.029172
0.408501 0.330750 0.029543
0.435346 0.334051 0.029883
0.461576 0.367188 0.030196
0.487204 0.371710 0.030483
0.512242 0.376032 0.030782
0.536694 0.380168 0.031292
0.560565 0.384131 0.031782
0.583109 0.387808 0.032237
0.565265 0.375487 0.036520
0.575677 0.377373 0.036794
0.585706 0.379176 0.037057
0.595356 0.380898 0.037308
0.604629 0.382540 0.037547
0.613521 0.384105 0.037776
0.622023 0.385591 0.037993
0.630119 0.386996 0.038199
0.637781 0.388318 0.038392
0.644964 0.389549 0.038573
0.651590 0.390770 0.038738
0.657496 0.392042 0.038884
0.662041 0.393008 0.038994
0.101637 0.250461 0.086978
0.111983 0.250461 0.063232
0.130631 0.250461 0.061095
0.145640 0.250461 0.059555
0.158785 0.250461 0.058310
0.170911 0.250461 0.057249
0.239869 0.296954 0.042636
0.258176 0.296954 0.042017
0.277517 0.296954 0.041452
0.337190 0.350459 0.029485
0.362144 0.350459 0.029149
0.386311 0.350459 0.028833
0.409754 0.350459 0.028536
0.436648 0.353874 0.029113
0.462922 0.357111 0.029695
0.488594 0.392791 0.030250
0.513672 0.397254 0.030782
0.538165 0.401525 0.031292
0.562073 0.405616 0.031782
0.584652 0.409412 0.032237
0.596119 0.411288 0.032462
0.607170 0.413081 0.032677
0.617815 0.414795 0.032883
0.628060 0.416431 0.033080
0.637904 0.417992 0.033268
0.615111 0.404093 0.037776
0.623626 0.405623 0.037993
0.631733 0.407071 0.038199
0.639406 0.408432 0.038392
0.646600 0.409700 0.038573
0.653236 0.410958 0.038738
0.659151 0.412267 0.038884
0.663703 0.413262 0.038994
0.105705 0.265425 0.088238
0.114709 0.265425 0.063538
0.133612 0.265425 0.061356
0.148856 0.265425 0.059782
0.162603 0.265425 0.058511
0.175123 0.265425 0.057428
0.245600 0.315454 0.042501
0.264156 0.315454 0.041873
0.283753 0.315454 0.041301
0.302454 0.315454 0.040773
0.366985 0.373107 0.029113
0.391338 0.373107 0.029113
0.414957 0.373107 0.029113
0.437889 0.373107 0.029113
0.464207 0.376444 0.029695
0.489919 0.379616 0.030250
0.515037 0.417814 0.030782
0.539567 0.422212 0.031292
0.563512 0.426425 0.031782
0.586124 0.430332 0.032237
0.597607 0.432264 0.032462
0.608675 0.434110 0.032677
0.619335 0.435874 0.032883
0.629594 0.437558 0.033080
0.639452 0.439165 0.033268
0.648905 0.440694 0.033447
0.657944 0.442147 0.033617
0.666550 0.443520 0.033777
0.674696 0.444811 0.033929
0.682332 0.446013 0.034070
0.654806 0.430466 0.038738
0.660729 0.431811 0.038884
0.665288 0.432833 0.038994
0.109625 0.279997 0.089283
0.117302 0.279997 0.063727
0.136605 0.279997 0.061502
0.152514 0.279997 0.059899
0.166454 0.279997 0.058604
0.179143 0.279997 0.057501
0.190949 0.279997 0.056530
0.269880 0.333494 0.041909
0.289719 0.333494 0.041909
0.308645 0.333494 0.041909
0.371599 0.395217 0.029695
0.396128 0.395217 0.029695
0.419912 0.395217 0.029695
0.443002 0.395217 0.029695
0.465437 0.395217 0.029695
0.491189 0.398480 0.030250
0.516344 0.401585 0.030782
0.540910 0.442271 0.031292
0.564889 0.446599 0.031782
0.587533 0.450613 0.032237
0.599032 0.452597 0.032462
0.610115 0.454493 0.032677
0.620791 0.456305 0.032883
0.631064 0.458035 0.033080
0.640935 0.459685 0.033268
0.650401 0.461256 0.033447
0.659451 0.462747 0.033617
0.668069 0.464158 0.033777
0.676226 0.465483 0.033929
0.683872 0.466718 0.034070
0.690925 0.467960 0.034199
0.697211 0.469287 0.034313
0.702047 0.470295 0.034399
0.113407 0.294193 0.090133
0.119849 0.294193 0.063811
0.139891 0.294193 0.061548
0.156018 0.294193 0.059918
0.170140 0.294193 0.058602
0.182990 0.294193 0.057812
0.194941 0.294193 0.057812
0.275369 0.351089 0.043033
0.295439 0.351089 0.043033
0.314580 0.351089 0.043033
0.332910 0.351089 0.043033
0.400702 0.416805 0.030250
0.424644 0.416805 0.030250
0.447884 0.416805 0.030250
0.470461 0.416805 0.030250
0.492408 0.416805 0.030250
0.517599 0.419993 0.030782
0.542200 0.423033 0.031292
0.566212 0.425934 0.031782
0.588887 0.470288 0.032237
0.600401 0.472323 0.032462
0.611499 0.474266 0.032677
0.622188 0.476124 0.032883
0.632475 0.477897 0.033080
0.642359 0.479588 0.033268
0.651837 0.481198 0.033447
0.660899 0.482727 0.033617
0.669528 0.484173 0.033777
0.677695 0.485532 0.033929
0.685351 0.486797 0.034070
0.692413 0.488070 0.034199
0.698706 0.489430 0.034313
0.703548 0.490463 0.034399
0.117061 0.308023 0.090808
0.122734 0.308023 0.063801
0.143046 0.308023 0.061505
0.159379 0.308023 0.059851
0.173675 0.308023 0.059584
0.186678 0.308023 0.059584
0.198767 0.308023 0.059584
0.210380 0.308023 0.059584
0.300932 0.368250 0.044114
0.320277 0.368250 0.044114
0.338798 0.368250 0.044114
0.405080 0.437881 0.030782
0.429173 0.437881 0.030782
0.452555 0.437881 0.030782
0.475268 0.437881 0.030782
0.497344 0.437881 0.030782
0.518809 0.437881 0.030782
0.543442 0.440995 0.031292
0.567486 0.443968 0.031782
0.590190 0.446717 0.032237
0.601720 0.448072 0.032462
0.612831 0.493457 0.032677
0.623534 0.495357 0.032883
0.633834 0.497172 0.033080
0.643730 0.498903 0.033268
0.653220 0.500550 0.033447
0.662293 0.502115 0.033617
0.670933 0.503594 0.033777
0.679110 0.504984 0.033929
0.686775 0.506279 0.034070
0.693845 0.507581 0.034199
0.700146 0.508972 0.034313
0.704994 0.510030 0.034399
0.120591 0.321496 0.091321
0.125509 0.321496 0.063708
0.146080 0.321496 0.061381
0.162609 0.321496 0.061295
0.177070 0.321496 0.061295
0.190219 0.321496 0.061295
0.202440 0.321496 0.061295
0.214176 0.321496 0.061295
0.306215 0.384984 0.045155
0.325754 0.384984 0.045155
0.344457 0.384984 0.045155
0.362419 0.384984 0.045155
0.433514 0.458451 0.031292
0.457033 0.458451 0.031292
0.479875 0.458451 0.031292
0.502074 0.458451 0.031292
0.523656 0.458451 0.031292
0.544641 0.458451 0.031292
0.568716 0.461492 0.031782
0.591449 0.464303 0.032237
0.602992 0.465690 0.032462
0.614118 0.467013 0.032677
0.624834 0.468276 0.032883
0.635146 0.515882 0.033080
0.645054 0.517651 0.033268
0.654555 0.519334 0.033447
0.663639 0.520932 0.033617
0.672289 0.522443 0.033777
0.680475 0.523864 0.033929
0.688150 0.525186 0.034070
0.695228 0.526517 0.034199
0.701537 0.527938 0.034313
0.706390 0.529018 0.034399
0.124157 0.334617 0.091686
0.128183 0.334617 0.063539
0.149000 0.334617 0.062948
0.165717 0.334617 0.062948
0.180336 0.334617 0.062948
0.193623 0.334617 0.062948
0.205970 0.334617 0.062948
0.217824 0.334617 0.062948
0.311300 0.401296 0.046158
0.331026 0.401296 0.046158
0.349903 0.401296 0.046158
0.368027 0.401296 0.046158
0.385473 0.401296 0.046158
0.461330 0.478519 0.031782
0.484296 0.478519 0.031782
0.506613 0.478519 0.031782
0.528308 0.478519 0.031782
0.549400 0.478519 0.031782
0.569906 0.478519 0.031782
0.592666 0.481390 0.032237
0.604224 0.482806 0.032462
0.615362 0.484158 0.032677
0.626091 0.485447 0.032883
0.636415 0.486677 0.033080
0.646335 0.487849 0.033268
0.655847 0.488963 0.033447
0.664941 0.539197 0.033617
0.673601 0.540739 0.033777
0.681796 0.542188 0.033929
0.689480 0.543537 0.034070
0.696566 0.544895 0.034199
0.702881 0.546345 0.034313
0.707741 0.547446 0.034399
0.127835 0.346976 0.091825
0.130694 0.346976 0.064494
0.151740 0.346976 0.064494
0.168632 0.346976 0.064494
0.183398 0.346976 0.064494
0.196814 0.346976 0.064494
0.209277 0.346976 0.064494
0.221240 0.346976 0.064494
0.233740 0.346976 0.064494
0.335966 0.416672 0.047092
0.355005 0.416672 0.047092
0.373282 0.416672 0.047092
0.390871 0.416672 0.047092
0.465358 0.497450 0.032237
0.488440 0.497450 0.032237
0.510868 0.497450 0.032237
0.532668 0.497450 0.032237
0.553861 0.497450 0.032237
0.574462 0.497450 0.032237
0.593846 0.497450 0.032237
0.605417 0.498893 0.032462
0.616568 0.500271 0.032677
0.627309 0.501585 0.032883
0.637645 0.502839 0.033080
0.647576 0.504033 0.033268
0.657098 0.505168 0.033447
0.666203 0.506245 0.033617
0.674872 0.507263 0.033777
0.683077 0.508218 0.033929
0.690768 0.509107 0.034070
0.697863 0.562150 0.034199
0.704185 0.563626 0.034313
0.709049 0.564748 0.034399
0.129899 0.353151 0.090609
0.132172 0.353151 0.065262
0.153353 0.353151 0.065262
0.170347 0.353151 0.065262
0.185198 0.353151 0.065262
0.198690 0.353151 0.065262
0.211221 0.353151 0.065262
0.223249 0.353151 0.065262
0.235814 0.353151 0.065262
0.338819 0.424360 0.047556
0.357951 0.424360 0.047556
0.376315 0.424360 0.047556
0.393987 0.424360 0.047556
0.411026 0.424360 0.047556
0.490991 0.506921 0.032462
0.513486 0.506921 0.032462
0.535351 0.506921 0.032462
0.556606 0.506921 0.032462
0.577266 0.506921 0.032462
0.596705 0.506921 0.032462
0.606576 0.506921 0.032462
0.617739 0.508311 0.032677
0.628492 0.509638 0.032883
0.638839 0.510903 0.033080
0.648781 0.512108 0.033268
0.658314 0.513254 0.033447
0.667428 0.514341 0.033617
0.676107 0.515368 0.033777
0.684320 0.516332 0.033929
0.692020 0.517229 0.034070
0.699121 0.518050 0.034199
0.705450 0.518775 0.034313
0.710319 0.573375 0.034399
0.131893 0.359094 0.089381
0.133597 0.359094 0.065999
0.154907 0.359094 0.065999
0.171999 0.359094 0.065999
0.186933 0.359094 0.065999
0.200497 0.359094 0.065999
0.213094 0.359094 0.065999
0.225183 0.359094 0.065999
0.237810 0.359094 0.065999
0.341565 0.431761 0.048001
0.360786 0.431761 0.048001
0.379234 0.431761 0.048001
0.396985 0.431761 0.048001
0.414099 0.431761 0.048001
0.493448 0.516040 0.032677
0.516008 0.516040 0.032677
0.537935 0.516040 0.032677
0.559249 0.516040 0.032677
0.579966 0.516040 0.032677
0.599457 0.516040 0.032677
0.609354 0.516040 0.032677
0.618878 0.516040 0.032677
0.629642 0.517379 0.032883
0.640000 0.518655 0.033080
0.649952 0.519871 0.033268
0.659495 0.521027 0.033447
0.668619 0.522123 0.033617
0.677307 0.523159 0.033777
0.685528 0.524132 0.033929
0.693236 0.525037 0.034070
0.700345 0.525865 0.034199
0.706680 0.526596 0.034313
0.711555 0.527149 0.034399
0.133817 0.364810 0.089330
0.135331 0.364810 0.066877
0.156405 0.364810 0.066706
0.173591 0.364810 0.066706
0.188604 0.364810 0.066706
0.202238 0.364810 0.066706
0.214898 0.364810 0.066706
0.227045 0.364810 0.066706
0.239733 0.364810 0.066706
0.344210 0.438882 0.048426
0.363516 0.438882 0.048426
0.382045 0.438882 0.048426
0.399872 0.438882 0.048426
0.417058 0.438882 0.048426
0.495815 0.524817 0.032883
0.518438 0.524817 0.032883
0.540424 0.524817 0.032883
0.561795 0.524817 0.032883
0.582567 0.524817 0.032883
0.602108 0.524817 0.032883
0.612031 0.524817 0.032883
0.621579 0.524817 0.032883
0.630762 0.524817 0.032883
0.641130 0.526104 0.033080
0.651093 0.527329 0.033268
0.660646 0.528495 0.033447
0.669779 0.529601 0.033617
0.678475 0.530645 0.033777
0.686705 0.531626 0.033929
0.694420 0.532539 0.034070
0.701536 0.533374 0.034199
0.707878 0.534111 0.034313
0.712757 0.534668 0.034399
0.135675 0.370301 0.090438
0.137202 0.370301 0.067813
0.157849 0.370301 0.067382
0.175126 0.370301 0.067382
0.190215 0.370301 0.067382
0.203915 0.370301 0.067382
0.216636 0.370301 0.067382
0.228840 0.370301 0.067382
0.241585 0.370301 0.067382
0.346756 0.445725 0.048834
0.366145 0.445725 0.048834
0.384750 0.445725 0.048834
0.402650 0.445725 0.048834
0.419905 0.445725 0.048834
0.498096 0.533254 0.033080
0.520779 0.533254 0.033080
0.542822 0.533254 0.033080
0.564248 0.533254 0.033080
0.585072 0.533254 0.033080
0.604663 0.533254 0.033080
0.614610 0.533254 0.033080
0.624181 0.533254 0.033080
0.633386 0.533254 0.033080
0.642232 0.533254 0.033080
0.652205 0.534489 0.033268
0.661767 0.535664 0.033447
0.670909 0.536779 0.033617
0.679614 0.537832 0.033777
0.687852 0.538820 0.033929
0.695575 0.539740 0.034070
0.702698 0.540582 0.034199
0.709045 0.541325 0.034313
0.713929 0.541886 0.034399
0.137467 0.375569 0.091500
0.139005 0.375569 0.068712
0.159241 0.375569 0.068030
0.176604 0.375569 0.068030
0.191766 0.375569 0.068030
0.205531 0.375569 0.068030
0.218309 0.375569 0.068030
0.230567 0.375569 0.068030
0.243368 0.375569 0.068030
0.349206 0.452292 0.049223
0.368674 0.452292 0.049223
0.387354 0.452292 0.049223
0.405323 0.452292 0.049223
0.422645 0.452292 0.049223
0.439367 0.452292 0.049223
0.523035 0.541353 0.033268
0.545134 0.541353 0.033268
0.566612 0.541353 0.033268
0.587487 0.541353 0.033268
0.607124 0.541353 0.033268
0.617095 0.541353 0.033268
0.626688 0.541353 0.033268
0.635915 0.541353 0.033268
0.644781 0.541353 0.033268
0.653290 0.541353 0.033268
0.662861 0.542536 0.033447
0.672012 0.543659 0.033617
0.680725 0.544720 0.033777
0.688971 0.545716 0.033929
0.696701 0.546642 0.034070
0.703831 0.547490 0.034199
0.710185 0.548239 0.034313
0.715073 0.548805 0.034399
0.139193 0.380612 0.092516
0.140742 0.380612 0.069571
0.160581 0.380612 0.068648
0.178028 0.380612 0.068648
0.193259 0.380612 0.068648
0.207086 0.380612 0.068648
0.219919 0.380612 0.068648
0.232230 0.380612 0.068648
0.245084 0.380612 0.068648
0.257234 0.380612 0.068648
0.371106 0.458580 0.049595
0.389857 0.458580 0.049595
0.407893 0.458580 0.049595
0.425278 0.458580 0.049595
0.442060 0.458580 0.049595
0.525208 0.549110 0.033447
0.547359 0.549110 0.033447
0.568889 0.549110 0.033447
0.589812 0.549110 0.033447
0.609494 0.549110 0.033447
0.619487 0.549110 0.033447
0.629103 0.549110 0.033447
0.638350 0.549110 0.033447
0.647236 0.549110 0.033447
0.655763 0.549110 0.033447
0.663930 0.549110 0.033447
0.673090 0.550241 0.033617
0.681811 0.551309 0.033777
0.690065 0.552312 0.033929
0.697802 0.553245 0.034070
0.704938 0.554099 0.034199
0.711298 0.554852 0.034313
0.716190 0.555422 0.034399
0.140853 0.385426 0.093484
0.142412 0.385426 0.070392
0.161870 0.385426 0.069237
0.179396 0.385426 0.069237
0.194695 0.385426 0.069237
0.208580 0.385426 0.069237
0.221467 0.385426 0.069237
0.233828 0.385426 0.069237
0.246733 0.385426 0.069237
0.258930 0.385426 0.069237
0.373441 0.464584 0.049948
0.392260 0.464584 0.049948
0.410361 0.464584 0.049948
0.427806 0.464584 0.049948
0.444646 0.464584 0.049948
0.527299 0.556518 0.033617
0.549501 0.556518 0.033617
