Resources/LUTs/provia_100f_33.cube
TITLE "Fujifilm Provia 100F (Linear)"
LUT_3D_SIZE 9
DOMAIN_MIN 0.0 0.0 0.0
DOMAIN_MAX 1.0 1.0 1.0
# Provia 100F: Moderate contrast, natural colors, clean greens
# Linear colorspace - for use with sRGB->Linear->LUT->Linear->sRGB pipeline
0.007276 0.009984 0.014497
0.101139 0.005134 0.005134
0.227171 0.000000 0.000000
0.364476 0.000000 0.000000
0.509984 0.000000 0.000000
0.655492 0.000000 0.000000
0.792796 0.000000 0.000000
0.913695 0.000000 0.000000
1.000000 0.007984 0.007984
0.012040 0.098809 0.007464
0.099741 0.099741 0.006532
0.227171 0.094622 0.000000
0.364476 0.091307 0.000000
0.509984 0.089822 0.000000
0.655492 0.089017 0.000000
0.792796 0.088535 0.000000
0.913695 0.088233 0.000000
1.000000 0.094638 0.007984
0.014921 0.223238 0.003934
0.097113 0.223238 0.003934
0.225476 0.225476 0.001696
0.362691 0.218851 0.001785
0.509984 0.215647 0.000000
0.655492 0.213714 0.000000
0.792796 0.212557 0.000000
0.913695 0.211833 0.000000
1.000000 0.216026 0.007984
0.018260 0.364476 0.000000
0.100419 0.364476 0.000000
0.219213 0.364476 0.000000
0.364476 0.364476 0.000000
0.509984 0.358547 0.000000
0.655492 0.355333 0.000000
0.792796 0.353409 0.000000
0.913695 0.352205 0.000000
1.000000 0.353887 0.007984
0.025550 0.509984 0.000000
0.106372 0.509984 0.000000
0.219589 0.509984 0.000000
0.358547 0.509984 0.000000
0.509984 0.509984 0.000000
0.655492 0.505412 0.000000
0.792796 0.502677 0.000000
0.913695 0.500964 0.000000
1.000000 0.499984 0.007984
0.032840 0.655492 0.000000
0.112937 0.655492 0.000000
0.225140 0.655492 0.000000
0.355333 0.655492 0.000000
0.505412 0.655492 0.000000
0.655492 0.655492 0.000000
0.792796 0.651944 0.000000
0.913695 0.649723 0.000000
1.000000 0.646081 0.007984
0.039719 0.792796 0.000000
0.119383 0.792796 0.000000
0.230978 0.792796 0.000000
0.357717 0.792796 0.000000
0.502677 0.792796 0.000000
0.651944 0.792796 0.000000
0.792796 0.792796 0.000000
0.913695 0.790095 0.000000
1.000000 0.783941 0.007984
0.045776 0.913695 0.000000
0.125169 0.913695 0.000000
0.236383 0.913695 0.000000
0.362690 0.913695 0.000000
0.500964 0.913695 0.000000
0.649723 0.913695 0.000000
0.790095 0.913695 0.000000
0.913695 0.913695 0.000000
1.000000 0.905329 0.007984
0.057684 1.000000 0.007984
0.135656 1.000000 0.007984
0.244881 1.000000 0.007984
0.368927 1.000000 0.007984
0.500385 1.000000 0.007984
0.646081 1.000000 0.007984
0.783941 1.000000 0.007984
0.905329 1.000000 0.007984
1.000000 1.000000 0.007984
0.004201 0.005427 0.102072
0.099741 0.006532 0.099741
0.227171 0.000000 0.094622
0.364476 0.000000 0.091307
0.509984 0.000000 0.089822
0.655492 0.000000 0.089017
0.792796 0.000000 0.088535
0.913695 0.000000 0.088233
1.000000 0.007984 0.094638
0.008862 0.097411 0.097411
0.095482 0.096289 0.097634
0.223860 0.089495 0.089698
0.369001 0.081778 0.081782
0.522689 0.073601 0.073601
0.676374 0.065423 0.065423
0.821395 0.057706 0.057706
0.949088 0.050912 0.050912
1.000000 0.094289 0.094289
0.003934 0.223238 0.093445
0.097089 0.220718 0.092811
0.222034 0.222023 0.091453
0.369019 0.216265 0.081778
0.522689 0.208088 0.073601
0.676374 0.199910 0.065423
0.821395 0.192194 0.057706
0.949088 0.185399 0.050912
1.000000 0.215724 0.094289
0.000000 0.364476 0.082196
0.102476 0.362032 0.088750
0.217639 0.362032 0.088750
0.364892 0.364820 0.085961
0.509608 0.357174 0.086681
0.676374 0.352648 0.065423
0.821395 0.344932 0.057706
0.949088 0.338137 0.050912
1.000000 0.353638 0.094289
0.000000 0.509984 0.073272
0.105908 0.511788 0.084501
0.221045 0.511788 0.084501
0.359000 0.516148 0.080141
0.516148 0.516148 0.080141
0.658579 0.506145 0.083218
0.799152 0.502877 0.079950
0.922928 0.500000 0.077072
1.000000 0.499791 0.094289
0.000000 0.655492 0.065096
0.109375 0.661545 0.080252
0.224512 0.661545 0.080252
0.355274 0.661545 0.080252
0.510328 0.667477 0.074320
0.667477 0.667477 0.074320
0.799152 0.655311 0.079950
0.922928 0.652434 0.077072
1.000000 0.645944 0.094289
0.000000 0.792796 0.057687
0.112646 0.802859 0.076243
0.227783 0.802859 0.076243
0.358545 0.802859 0.076243
0.504836 0.810273 0.068828
0.661984 0.810273 0.068828
0.810273 0.810273 0.068828
0.922928 0.796274 0.077072
1.000000 0.783858 0.094289
0.000000 0.913695 0.051298
0.115527 0.927288 0.072712
0.230664 0.927288 0.072712
0.361426 0.927288 0.072712
0.500000 0.927288 0.072712
0.657148 0.936008 0.063992
0.805437 0.936008 0.063992
0.936008 0.936008 0.063992
1.000000 0.905293 0.094289
0.007984 1.000000 0.053621
0.139665 1.000000 0.094289
0.248932 1.000000 0.094289
0.373027 1.000000 0.094289
0.504536 1.000000 0.094289
0.645944 1.000000 0.094289
0.783858 1.000000 0.094289
0.905293 1.000000 0.094289
1.000000 1.000000 0.094289
0.000000 0.002845 0.227171
0.094622 0.000000 0.227171
0.225476 0.001696 0.225476
0.364476 0.000000 0.219213
0.509984 0.000000 0.215647
0.655492 0.000000 0.213714
0.792796 0.000000 0.212557
0.913695 0.000000 0.211833
1.000000 0.007984 0.216026
0.000000 0.096047 0.227171
0.087980 0.089441 0.225635
0.221942 0.091453 0.222159
0.369003 0.081778 0.216266
0.522689 0.073601 0.208088
0.676374 0.065423 0.199910
0.821395 0.057706 0.192194
0.949088 0.050912 0.185399
1.000000 0.094289 0.215724
0.007290 0.219881 0.219881
0.094706 0.218759 0.218777
0.217325 0.217188 0.217188
0.362488 0.209471 0.209471
0.516172 0.201293 0.201293
0.669779 0.193116 0.193116
0.814684 0.185399 0.185399
0.942294 0.178605 0.178605
1.000000 0.215188 0.215188
0.005505 0.358971 0.218096
0.088794 0.362032 0.215838
0.216747 0.358501 0.213178
0.360663 0.359984 0.211695
0.516393 0.354031 0.201293
0.669889 0.345854 0.193116
0.814705 0.338137 0.185399
0.942294 0.331343 0.178605
1.000000 0.353196 0.215188
0.000000 0.509984 0.211705
0.084501 0.511788 0.203874
0.219909 0.508258 0.208929
0.355226 0.508258 0.208929
0.511984 0.511313 0.205875
0.656034 0.503268 0.206993
0.796406 0.500000 0.203726
0.942294 0.493206 0.178605
1.000000 0.499449 0.215188
0.000000 0.655492 0.202288
0.080252 0.661545 0.191909
0.224964 0.658015 0.204681
0.357465 0.658015 0.204681
0.505722 0.662641 0.200055
0.662802 0.662641 0.200055
0.796330 0.652434 0.203726
0.920050 0.649557 0.200848
1.000000 0.645702 0.215188
0.000000 0.792796 0.194136
0.076243 0.802859 0.180619
0.230720 0.799329 0.200671
0.361481 0.799329 0.200671
0.500054 0.799329 0.200671
0.657164 0.805438 0.194562
0.805437 0.805438 0.194562
0.920050 0.793397 0.200848
1.000000 0.783710 0.215188
0.000000 0.913695 0.187283
0.072712 0.927288 0.170679
0.233544 0.923757 0.197141
0.364306 0.923757 0.197141
0.502881 0.923757 0.197141
0.652312 0.931172 0.189727
0.800602 0.931172 0.189727
0.931172 0.931172 0.189727
1.000000 0.905228 0.215188
0.007984 1.000000 0.187172
0.094289 1.000000 0.182515
0.254507 1.000000 0.215188
0.378686 1.000000 0.215188
0.510285 1.000000 0.215188
0.645702 1.000000 0.215188
0.783710 1.000000 0.215188
0.905228 1.000000 0.215188
1.000000 1.000000 0.215188
0.000000 0.004565 0.364476
0.091307 0.000000 0.364476
0.219213 0.000000 0.364476
0.364476 0.000000 0.364476
0.509984 0.000000 0.358547
0.655492 0.000000 0.355333
0.792796 0.000000 0.353409
0.913695 0.000000 0.352205
1.000000 0.007984 0.353887
0.000000 0.098141 0.364476
0.078979 0.082657 0.371810
0.216085 0.078989 0.371796
0.364822 0.085961 0.364820
0.516148 0.080141 0.359000
0.676374 0.065423 0.352648
0.821395 0.057706 0.344932
0.949088 0.050912 0.338137
1.000000 0.094289 0.353638
0.005505 0.218096 0.358971
0.078989 0.216787 0.371792
0.208143 0.208873 0.363692
0.360346 0.211695 0.359984
0.516215 0.201293 0.354031
0.669800 0.193116 0.345854
0.814691 0.185399 0.338137
0.942294 0.178605 0.331343
1.000000 0.215188 0.353196
0.005505 0.358971 0.358971
0.093006 0.357849 0.357849
0.215975 0.356277 0.356277
0.355728 0.354492 0.354492
0.509311 0.346315 0.346315
0.662857 0.338137 0.338137
0.807183 0.330421 0.330421
0.934577 0.323626 0.323626
1.000000 0.352492 0.352492
0.003614 0.506370 0.357079
0.091041 0.505248 0.355957
0.209524 0.508258 0.353950
0.353961 0.504249 0.350243
0.507075 0.505820 0.348672
0.653185 0.500000 0.347566
0.807065 0.492283 0.330421
0.934577 0.485489 0.323626
1.000000 0.498904 0.352492
0.001722 0.653770 0.355188
0.080252 0.661545 0.351794
0.205046 0.658015 0.342865
0.354668 0.654005 0.345995
0.500565 0.654005 0.345995
0.657519 0.657148 0.342852
0.793088 0.649166 0.344298
0.916782 0.646289 0.341421
1.000000 0.645317 0.352492
0.000000 0.792796 0.349102
0.076243 0.802859 0.340504
0.200782 0.799329 0.330598
0.362036 0.795319 0.341985
0.502453 0.795319 0.341985
0.651667 0.799945 0.337359
0.799945 0.799945 0.337359
0.916782 0.790129 0.341421
1.000000 0.783475 0.352492
0.000000 0.913695 0.341720
0.072712 0.927288 0.330563
0.197141 0.923757 0.320622
0.367578 0.919748 0.338455
0.506152 0.919748 0.338455
0.646820 0.925680 0.332523
0.795109 0.925680 0.332523
0.925680 0.925680 0.332523
1.000000 0.905125 0.352492
0.007984 1.000000 0.338846
0.094289 1.000000 0.334248
0.215188 1.000000 0.327705
0.384932 1.000000 0.352492
0.516674 1.000000 0.352492
0.648416 1.000000 0.352492
0.783475 1.000000 0.352492
0.905125 1.000000 0.352492
1.000000 1.000000 0.352492
0.000000 0.006388 0.509984
0.089822 0.000000 0.509984
0.215647 0.000000 0.509984
0.358547 0.000000 0.509984
0.509984 0.000000 0.509984
0.655492 0.000000 0.505412
0.792796 0.000000 0.502677
0.913695 0.000000 0.500964
1.000000 0.007984 0.499984
0.000000 0.102235 0.509984
0.069240 0.074974 0.527049
0.206339 0.069240 0.527049
0.359000 0.080141 0.516148
0.516148 0.080141 0.516148
0.667477 0.074320 0.510328
0.810273 0.068828 0.504836
0.949088 0.050912 0.500000
1.000000 0.094289 0.499791
0.000000 0.218604 0.509984
0.069240 0.213238 0.527049
0.198369 0.201233 0.518948
0.354181 0.198239 0.518948
0.511700 0.205875 0.511313
0.662918 0.200055 0.505492
0.814699 0.185399 0.500000
0.942294 0.178605 0.493206
1.000000 0.215188 0.499449
0.003614 0.357079 0.506370
0.091041 0.355957 0.505248
0.198582 0.354203 0.518948
0.345715 0.345408 0.509749
0.507063 0.348672 0.505820
0.662858 0.338137 0.500000
0.807160 0.330421 0.492283
0.934577 0.323626 0.485489
1.000000 0.352492 0.498904
0.003614 0.506370 0.506370
0.091041 0.505248 0.505248
0.214188 0.503677 0.503677
0.354038 0.501892 0.501892
0.501600 0.500000 0.500000
0.654582 0.491822 0.491822
0.799022 0.484106 0.484106
0.926399 0.477311 0.477311
1.000000 0.498000 0.498000
0.001722 0.653770 0.504479
0.089149 0.652648 0.503357
0.211995 0.651076 0.501785
0.351407 0.649291 0.500000
0.498738 0.649757 0.495751
0.651740 0.651328 0.494180
0.789635 0.645703 0.493269
0.926399 0.639174 0.477311
1.000000 0.644677 0.498000
0.000000 0.792796 0.502677
0.087364 0.791737 0.501572
0.209957 0.790166 0.500000
0.342117 0.795319 0.489614
0.502275 0.791071 0.491742
0.645836 0.794125 0.488687
0.794125 0.794125 0.488687
0.913319 0.786666 0.490392
1.000000 0.783084 0.498000
0.000000 0.913695 0.500964
0.085793 0.914207 0.500000
0.197141 0.923757 0.490059
0.338455 0.919748 0.478769
0.509619 0.915499 0.488212
0.648193 0.915499 0.488212
0.789289 0.919859 0.483852
0.919859 0.919859 0.483852
1.000000 0.904954 0.498000
0.007984 1.000000 0.499582
0.094289 1.000000 0.495046
0.215188 1.000000 0.488613
0.352492 1.000000 0.481135
0.523150 1.000000 0.498000
0.655130 1.000000 0.498000
0.783084 1.000000 0.498000
0.904954 1.000000 0.498000
1.000000 1.000000 0.498000
0.000000 0.008210 0.655492
0.087496 0.000000 0.655492
0.213714 0.000000 0.655492
0.355333 0.000000 0.655492
0.505412 0.000000 0.655492
0.655492 0.000000 0.655492
0.792796 0.000000 0.651944
0.913695 0.000000 0.649723
1.000000 0.007984 0.646081
0.000000 0.103916 0.655492
0.059491 0.067292 0.682305
0.196590 0.059491 0.682305
0.352294 0.059491 0.682305
0.510328 0.074320 0.667477
0.667477 0.074320 0.667477
0.810273 0.068828 0.661984
0.936008 0.063992 0.657148
1.000000 0.094289 0.645944
0.000000 0.222283 0.655492
0.059491 0.209689 0.682305
0.188572 0.194199 0.674205
0.344327 0.188490 0.674205
0.505728 0.200055 0.662641
0.662944 0.200055 0.662641
0.805595 0.194562 0.657148
0.931172 0.189727 0.652312
1.000000 0.215188 0.645702
0.001722 0.355188 0.653770
0.059491 0.353692 0.682305
0.188672 0.350340 0.674205
0.335752 0.337268 0.665006
0.500978 0.342852 0.657148
0.658101 0.342852 0.657148
0.800234 0.337359 0.651656
0.925680 0.332523 0.646820
1.000000 0.352492 0.645317
0.001722 0.504479 0.653770
0.089149 0.503357 0.652648
0.212057 0.501785 0.651076
0.335911 0.500000 0.665006
0.491293 0.490916 0.655257
0.652139 0.494180 0.651328
0.794411 0.488687 0.645836
0.926399 0.477311 0.639174
1.000000 0.498000 0.644677
0.001722 0.653770 0.653770
0.089149 0.652648 0.652648
0.211964 0.651076 0.651076
0.351334 0.649291 0.649291
0.498687 0.647399 0.647399
0.645944 0.645508 0.645508
0.790593 0.637791 0.637791
0.918222 0.630997 0.630997
1.000000 0.643508 0.643508
0.000000 0.792796 0.651944
0.087364 0.791737 0.650863
0.209940 0.790166 0.649291
0.349039 0.788381 0.647506
0.496378 0.786489 0.645614
0.644583 0.786822 0.641499
0.788305 0.788305 0.640016
0.909856 0.783203 0.639363
1.000000 0.782371 0.643508
0.000000 0.913695 0.649723
0.085793 0.914207 0.649291
0.208263 0.912636 0.647719
0.347352 0.910851 0.645934
0.488212 0.915499 0.636241
0.651660 0.911250 0.637968
0.783469 0.914039 0.635180
0.914039 0.914039 0.635180
1.000000 0.904641 0.643508
0.007984 1.000000 0.646081
0.094289 1.000000 0.645944
0.215188 1.000000 0.645702
0.352492 1.000000 0.642218
0.498000 1.000000 0.634223
0.661368 1.000000 0.643508
0.786317 1.000000 0.643508
0.904641 1.000000 0.643508
1.000000 1.000000 0.643508
0.000000 0.009930 0.792796
0.085259 0.000000 0.792796
0.212557 0.000000 0.792796
0.353409 0.000000 0.792796
0.502677 0.000000 0.792796
0.651944 0.000000 0.792796
0.792796 0.000000 0.792796
0.913695 0.000000 0.790095
1.000000 0.007984 0.783941
0.000000 0.105118 0.792796
0.050292 0.060043 0.828810
0.187391 0.050292 0.828810
0.343094 0.050292 0.828810
0.504836 0.068828 0.810273
0.661984 0.068828 0.810273
0.810273 0.068828 0.810273
0.936008 0.063992 0.805438
1.000000 0.094289 0.783858
0.000000 0.226373 0.792796
0.050292 0.206341 0.828810
0.179315 0.187324 0.820709
0.335031 0.179291 0.820709
0.500111 0.194562 0.805438
0.657289 0.194562 0.805438
0.805604 0.194562 0.805437
0.931172 0.189727 0.800602
1.000000 0.215188 0.783710
0.000000 0.356640 0.792796
0.050292 0.350343 0.828810
0.179340 0.347394 0.820709
0.326048 0.331503 0.811510
0.491108 0.325795 0.811510
0.651984 0.337359 0.799945
0.800209 0.337359 0.799945
0.925680 0.332523 0.795109
1.000000 0.352492 0.783475
0.000000 0.502677 0.792796
0.087364 0.501572 0.791737
0.179366 0.500000 0.820709
0.326057 0.496291 0.811510
0.481493 0.484045 0.801761
0.646195 0.488687 0.794125
0.794365 0.488687 0.794125
0.919859 0.483852 0.789289
1.000000 0.498000 0.783084
0.000000 0.651944 0.792796
0.087364 0.650863 0.791737
0.210007 0.649291 0.790166
0.349162 0.647506 0.788381
0.496582 0.645614 0.786489
0.636492 0.637194 0.792012
0.788305 0.640016 0.788305
0.914039 0.635180 0.783469
1.000000 0.643508 0.782371
0.000000 0.792796 0.792796
0.087364 0.791737 0.791737
0.209924 0.790166 0.790166
0.349009 0.788381 0.788381
0.496329 0.786489 0.786489
0.643723 0.784597 0.784597
0.782813 0.782813 0.782813
0.910505 0.776018 0.776018
1.000000 0.780813 0.780813
0.000000 0.913695 0.790095
0.085793 0.914207 0.790166
0.208263 0.912636 0.788594
0.347352 0.910851 0.786809
0.494752 0.908959 0.784917
0.642151 0.907068 0.783026
0.783644 0.907241 0.779282
0.908547 0.908547 0.777977
1.000000 0.903958 0.780813
0.007984 1.000000 0.783941
0.094289 1.000000 0.783858
0.215188 1.000000 0.783710
0.352492 1.000000 0.783475
0.498000 1.000000 0.783084
0.643508 1.000000 0.778424
0.791794 1.000000 0.780813
0.903958 1.000000 0.780813
1.000000 1.000000 0.780813
0.000000 0.011444 0.913695
0.083420 0.000000 0.913695
0.211833 0.000000 0.913695
0.352205 0.000000 0.913695
0.500964 0.000000 0.913695
0.649723 0.000000 0.913695
0.790095 0.000000 0.913695
0.913695 0.000000 0.913695
1.000000 0.007984 0.905329
0.000000 0.106308 0.913695
0.042192 0.053660 0.957808
0.178126 0.042192 0.957808
0.334994 0.042192 0.957808
0.500000 0.063992 0.936008
0.657148 0.063992 0.936008
0.805437 0.063992 0.936008
0.936008 0.063992 0.936008
1.000000 0.094289 0.905293
0.000000 0.230246 0.913695
0.042192 0.201062 0.957808
0.171190 0.180941 0.949708
0.326894 0.171190 0.949708
0.491900 0.171190 0.949708
0.652312 0.189727 0.931172
0.800602 0.189727 0.931172
0.931172 0.189727 0.931172
1.000000 0.215188 0.905228
0.000000 0.360069 0.913695
0.042192 0.347394 0.957808
0.171190 0.344446 0.949708
0.317695 0.325495 0.940509
0.482700 0.317695 0.940509
0.646820 0.332523 0.925680
0.795109 0.332523 0.925680
0.925680 0.332523 0.925680
1.000000 0.352492 0.905125
0.000000 0.500964 0.913695
0.042192 0.500000 0.957808
0.171190 0.497051 0.949708
0.317695 0.493702 0.940509
0.472951 0.478685 0.930760
0.637957 0.472951 0.930760
0.789289 0.483852 0.919859
0.919859 0.483852 0.919859
1.000000 0.498000 0.904954
0.000000 0.649723 0.913695
0.085793 0.649291 0.914207
0.208263 0.647719 0.912636
0.347352 0.645934 0.910851
0.472951 0.642759 0.930760
0.628213 0.631876 0.921011
0.783469 0.635180 0.914039
0.914039 0.635180 0.914039
1.000000 0.643508 0.904641
0.000000 0.790095 0.913695
0.085793 0.790166 0.914207
0.208263 0.788594 0.912636
0.347352 0.786809 0.910851
0.494752 0.784917 0.908959
0.642151 0.783026 0.907068
0.774712 0.775964 0.911811
0.908547 0.777977 0.908547
1.000000 0.780813 0.903958
0.000000 0.913695 0.913695
0.085793 0.914207 0.914207
0.208263 0.912636 0.912636
0.347352 0.910851 0.910851
0.494752 0.908959 0.908959
0.642151 0.907068 0.907068
0.781241 0.905283 0.905283
0.903711 0.903711 0.903711
1.000000 0.901711 0.901711
0.007984 1.000000 0.905329
0.094289 1.000000 0.905293
0.215188 1.000000 0.905228
0.352492 1.000000 0.905125
0.498000 1.000000 0.904954
0.643508 1.000000 0.904641
0.780813 1.000000 0.903958
0.906635 1.000000 0.901711
1.000000 1.000000 0.901711
0.007984 0.020409 1.000000
0.088726 0.007984 1.000000
0.216026 0.007984 1.000000
0.353887 0.007984 1.000000
0.499984 0.007984 1.000000
0.646081 0.007984 1.000000
0.783941 0.007984 1.000000
0.905329 0.007984 1.000000
1.000000 0.007984 1.000000
0.007984 0.113576 1.000000
0.094289 0.105633 1.000000
0.213506 0.094289 1.000000
0.353638 0.094289 1.000000
0.499791 0.094289 1.000000
0.645944 0.094289 1.000000
0.783858 0.094289 1.000000
0.905293 0.094289 1.000000
1.000000 0.094289 1.000000
0.007984 0.237667 1.000000
0.094289 0.236194 1.000000
0.215188 0.225017 1.000000
0.353196 0.215188 1.000000
0.499449 0.215188 1.000000
0.645702 0.215188 1.000000
0.783710 0.215188 1.000000
0.905228 0.215188 1.000000
1.000000 0.215188 1.000000
0.007984 0.365167 1.000000
0.094289 0.368180 1.000000
0.215188 0.372314 1.000000
0.352492 0.360602 1.000000
0.498904 0.352492 1.000000
0.645317 0.352492 1.000000
0.783475 0.352492 1.000000
0.905125 0.352492 1.000000
1.000000 0.352492 1.000000
0.007984 0.500285 1.000000
0.094289 0.503349 1.000000
0.215188 0.507576 1.000000
0.352492 0.512232 1.000000
0.498000 0.504288 1.000000
0.644677 0.498000 1.000000
0.783084 0.498000 1.000000
0.904954 0.498000 1.000000
1.000000 0.498000 1.000000
0.007984 0.646081 1.000000
0.094289 0.645944 1.000000
0.215188 0.645702 1.000000
0.352492 0.647641 1.000000
0.498000 0.652516 1.000000
0.643508 0.647973 1.000000
0.782371 0.643508 1.000000
0.904641 0.643508 1.000000
1.000000 0.643508 1.000000
0.007984 0.783941 1.000000
0.094289 0.783858 1.000000
0.215188 0.783710 1.000000
0.352492 0.783475 1.000000
0.498000 0.783084 1.000000
0.643508 0.785330 1.000000
0.780813 0.783558 1.000000
0.903958 0.780813 1.000000
1.000000 0.780813 1.000000
0.007984 0.905329 1.000000
0.094289 0.905293 1.000000
0.215188 0.905228 1.000000
0.352492 0.905125 1.000000
0.498000 0.904954 1.000000
0.643508 0.904641 1.000000
0.780813 0.903958 1.000000
0.901711 0.902942 1.000000
1.000000 0.901711 1.000000
0.007984 1.000000 1.000000
0.094289 1.000000 1.000000
0.215188 1.000000 1.000000
0.352492 1.000000 1.000000
0.498000 1.000000 1.000000
0.643508 1.000000 1.000000
0.780813 1.000000 1.000000
0.902485 0.999226 0.999226
0.998000 0.998000 0.998000
