Resources/LUTs/provia_100f_33.cube
TITLE "Fujifilm Provia 100F (Linear)"
LUT_3D_SIZE 5
DOMAIN_MIN 0.0 0.0 0.0
DOMAIN_MAX 1.0 1.0 1.0
# Provia 100F: Moderate contrast, natural colors, clean greens
# Linear colorspace - for use with sRGB->Linear->LUT->Linear->sRGB pipeline
0.007276 0.009984 0.014497
0.227171 0.000000 0.000000
0.509984 0.000000 0.000000
0.792796 0.000000 0.000000
1.000000 0.007984 0.007984
0.014921 0.223238 0.003934
0.225476 0.225476 0.001696
0.509984 0.215647 0.000000
0.792796 0.212557 0.000000
1.000000 0.216026 0.007984
0.025550 0.509984 0.000000
0.219589 0.509984 0.000000
0.509984 0.509984 0.000000
0.792796 0.502677 0.000000
1.000000 0.499984 0.007984
0.039719 0.792796 0.000000
0.230978 0.792796 0.000000
0.502677 0.792796 0.000000
0.792796 0.792796 0.000000
1.000000 0.783941 0.007984
0.057684 1.000000 0.007984
0.244881 1.000000 0.007984
0.500385 1.000000 0.007984
0.783941 1.000000 0.007984
1.000000 1.000000 0.007984
0.000000 0.002845 0.227171
0.225476 0.001696 0.225476
0.509984 0.000000 0.215647
0.792796 0.000000 0.212557
1.000000 0.007984 0.216026
0.007290 0.219881 0.219881
0.217325 0.217188 0.217188
0.516172 0.201293 0.201293
0.814684 0.185399 0.185399
1.000000 0.215188 0.215188
0.000000 0.509984 0.211705
0.219909 0.508258 0.208929
0.511984 0.511313 0.205875
0.796406 0.500000 0.203726
1.000000 0.499449 0.215188
0.000000 0.792796 0.194136
0.230720 0.799329 0.200671
0.500054 0.799329 0.200671
0.805437 0.805438 0.194562
1.000000 0.783710 0.215188
0.007984 1.000000 0.187172
0.254507 1.000000 0.215188
0.510285 1.000000 0.215188
0.783710 1.000000 0.215188
1.000000 1.000000 0.215188
0.000000 0.006388 0.509984
0.215647 0.000000 0.509984
0.509984 0.000000 0.509984
0.792796 0.000000 0.502677
1.000000 0.007984 0.499984
0.000000 0.218604 0.509984
0.198369 0.201233 0.518948
0.511700 0.205875 0.511313
0.814699 0.185399 0.500000
1.000000 0.215188 0.499449
0.003614 0.506370 0.506370
0.214188 0.503677 0.503677
0.501600 0.500000 0.500000
0.799022 0.484106 0.484106
1.000000 0.498000 0.498000
0.000000 0.792796 0.502677
0.209957 0.790166 0.500000
0.502275 0.791071 0.491742
0.794125 0.794125 0.488687
1.000000 0.783084 0.498000
0.007984 1.000000 0.499582
0.215188 1.000000 0.488613
0.523150 1.000000 0.498000
0.783084 1.000000 0.498000
1.000000 1.000000 0.498000
0.000000 0.009930 0.792796
0.212557 0.000000 0.792796
0.502677 0.000000 0.792796
0.792796 0.000000 0.792796
1.000000 0.007984 0.783941
0.000000 0.226373 0.792796
0.179315 0.187324 0.820709
0.500111 0.194562 0.805438
0.805604 0.194562 0.805437
1.000000 0.215188 0.783710
0.000000 0.502677 0.792796
0.179366 0.500000 0.820709
0.481493 0.484045 0.801761
0.794365 0.488687 0.794125
1.000000 0.498000 0.783084
0.000000 0.792796 0.792796
0.209924 0.790166 0.790166
0.496329 0.786489 0.786489
0.782813 0.782813 0.782813
1.000000 0.780813 0.780813
0.007984 1.000000 0.783941
0.215188 1.000000 0.783710
0.498000 1.000000 0.783084
0.791794 1.000000 0.780813
1.000000 1.000000 0.780813
0.007984 0.020409 1.000000
0.216026 0.007984 1.000000
0.499984 0.007984 1.000000
0.783941 0.007984 1.000000
1.000000 0.007984 1.000000
0.007984 0.237667 1.000000
0.215188 0.225017 1.000000
0.499449 0.215188 1.000000
0.783710 0.215188 1.000000
1.000000 0.215188 1.000000
0.007984 0.500285 1.000000
0.215188 0.507576 1.000000
0.498000 0.504288 1.000000
0.783084 0.498000 1.000000
1.000000 0.498000 1.000000
0.007984 0.783941 1.000000
0.215188 0.783710 1.000000
0.498000 0.783084 1.000000
0.780813 0.783558 1.000000
1.000000 0.780813 1.000000
0.007984 1.000000 1.000000
0.215188 1.000000 1.000000
0.498000 1.000000 1.000000
0.780813 1.000000 1.000000
0.998000 0.998000 0.998000
