Resources/LUTs/provia_100f_33.cube
TITLE "Fujifilm Provia 100F (Linear)"
LUT_3D_SIZE 33
DOMAIN_MIN 0.0 0.0 0.0
DOMAIN_MAX 1.0 1.0 1.0
# Provia 100F: Moderate contrast, natural colors, clean greens
# Linear colorspace - for use with sRGB->Linear->LUT->Linear->sRGB pipeline
0.007276 0.009984 0.014497
0.025519 0.009120 0.010297
0.046499 0.008041 0.008041
0.072939 0.006634 0.006634
0.101139 0.005134 0.005134
0.130964 0.003547 0.003547
0.162278 0.001880 0.001880
0.194946 0.000142 0.000142
0.227171 0.000000 0.000000
0.260280 0.000000 0.000000
0.294286 0.000000 0.000000
0.329060 0.000000 0.000000
0.364476 0.000000 0.000000
0.400404 0.000000 0.000000
0.436717 0.000000 0.000000
0.473286 0.000000 0.000000
0.509984 0.000000 0.000000
0.546681 0.000000 0.000000
0.583250 0.000000 0.000000
0.619563 0.000000 0.000000
0.655492 0.000000 0.000000
0.690907 0.000000 0.000000
0.725682 0.000000 0.000000
0.759688 0.000000 0.000000
0.792796 0.000000 0.000000
0.824880 0.000000 0.000000
0.855809 0.000000 0.000000
0.885457 0.000000 0.000000
0.913695 0.000000 0.000000
0.940395 0.000000 0.000000
0.965428 0.000000 0.000000
0.988667 0.000000 0.000000
1.000000 0.007984 0.007984
0.009401 0.025810 0.010801
0.025288 0.025977 0.010517
0.046499 0.025147 0.008041
0.072939 0.023740 0.006634
0.101139 0.022239 0.005134
0.130964 0.020653 0.003547
0.162278 0.018986 0.001880
0.194946 0.017248 0.000142
0.227171 0.016859 0.000000
0.260280 0.016655 0.000000
0.294286 0.016497 0.000000
0.329060 0.016371 0.000000
0.364476 0.016269 0.000000
0.400404 0.016185 0.000000
0.436717 0.016114 0.000000
0.473286 0.016055 0.000000
0.509984 0.016004 0.000000
0.546681 0.015960 0.000000
0.583250 0.015923 0.000000
0.619563 0.015890 0.000000
0.655492 0.015861 0.000000
0.690907 0.015835 0.000000
0.725682 0.015813 0.000000
0.759688 0.015793 0.000000
0.792796 0.015775 0.000000
0.824880 0.015759 0.000000
0.855809 0.015745 0.000000
0.885457 0.015732 0.000000
0.913695 0.015721 0.000000
0.940395 0.015711 0.000000
0.965428 0.015702 0.000000
0.988667 0.015694 0.000000
1.000000 0.023424 0.007984
0.010808 0.045565 0.008974
0.025452 0.045565 0.008974
0.045939 0.045939 0.008601
0.071008 0.044783 0.008565
0.101139 0.043591 0.005134
0.130964 0.042004 0.003547
0.162278 0.040338 0.001880
0.194946 0.038600 0.000142
0.227171 0.037903 0.000000
0.260280 0.037444 0.000000
0.294286 0.037088 0.000000
0.329060 0.036805 0.000000
0.364476 0.036576 0.000000
0.400404 0.036386 0.000000
0.436717 0.036228 0.000000
0.473286 0.036095 0.000000
0.509984 0.035981 0.000000
0.546681 0.035882 0.000000
0.583250 0.035797 0.000000
0.619563 0.035723 0.000000
0.655492 0.035658 0.000000
0.690907 0.035601 0.000000
0.725682 0.035550 0.000000
0.759688 0.035505 0.000000
0.792796 0.035465 0.000000
0.824880 0.035429 0.000000
0.855809 0.035398 0.000000
0.885457 0.035369 0.000000
0.913695 0.035344 0.000000
0.940395 0.035322 0.000000
0.965428 0.035302 0.000000
0.988667 0.035284 0.000000
1.000000 0.042696 0.007984
0.011404 0.071330 0.008243
0.026049 0.071330 0.008243
0.044937 0.071973 0.007600
0.071973 0.071973 0.007600
0.098343 0.070372 0.007930
0.127253 0.069700 0.007258
0.162278 0.068185 0.001880
0.194946 0.066447 0.000142
0.227171 0.065349 0.000000
0.260280 0.064558 0.000000
0.294286 0.063944 0.000000
0.329060 0.063456 0.000000
0.364476 0.063060 0.000000
0.400404 0.062734 0.000000
0.436717 0.062461 0.000000
0.473286 0.062231 0.000000
0.509984 0.062034 0.000000
0.546681 0.061865 0.000000
0.583250 0.061718 0.000000
0.619563 0.061590 0.000000
0.655492 0.061478 0.000000
0.690907 0.061379 0.000000
0.725682 0.061292 0.000000
0.759688 0.061214 0.000000
0.792796 0.061145 0.000000
0.824880 0.061084 0.000000
0.855809 0.061029 0.000000
0.885457 0.060981 0.000000
0.913695 0.060937 0.000000
0.940395 0.060898 0.000000
0.965428 0.060864 0.000000
0.988667 0.060834 0.000000
1.000000 0.067831 0.007984
0.012040 0.098809 0.007464
0.026685 0.098809 0.007464
0.044965 0.098809 0.007464
0.070905 0.099741 0.006532
0.099741 0.099741 0.006532
0.127253 0.097671 0.007258
0.157607 0.096965 0.006552
0.194946 0.096148 0.000142
0.227171 0.094622 0.000000
0.260280 0.093476 0.000000
0.294286 0.092587 0.000000
0.329060 0.091881 0.000000
0.364476 0.091307 0.000000
0.400404 0.090835 0.000000
0.436717 0.090440 0.000000
0.473286 0.090107 0.000000
0.509984 0.089822 0.000000
0.546681 0.089577 0.000000
0.583250 0.089365 0.000000
0.619563 0.089179 0.000000
0.655492 0.089017 0.000000
0.690907 0.088874 0.000000
0.725682 0.088747 0.000000
0.759688 0.088635 0.000000
0.792796 0.088535 0.000000
0.824880 0.088446 0.000000
0.855809 0.088367 0.000000
0.885457 0.088296 0.000000
0.913695 0.088233 0.000000
0.940395 0.088177 0.000000
0.965428 0.088128 0.000000
0.988667 0.088084 0.000000
1.000000 0.094638 0.007984
0.012713 0.127872 0.006639
0.027358 0.127872 0.006639
0.045637 0.127872 0.006639
0.069776 0.129109 0.005402
0.098612 0.129109 0.005402
0.129109 0.129109 0.005402
0.157607 0.126547 0.006552
0.189272 0.125811 0.005816
0.222119 0.125048 0.005052
0.260280 0.124061 0.000000
0.294286 0.122881 0.000000
0.329060 0.121943 0.000000
0.364476 0.121182 0.000000
0.400404 0.120555 0.000000
0.436717 0.120031 0.000000
0.473286 0.119588 0.000000
0.509984 0.119211 0.000000
0.546681 0.118885 0.000000
0.583250 0.118604 0.000000
0.619563 0.118358 0.000000
0.655492 0.118142 0.000000
0.690907 0.117952 0.000000
0.725682 0.117784 0.000000
0.759688 0.117635 0.000000
0.792796 0.117503 0.000000
0.824880 0.117385 0.000000
0.855809 0.117279 0.000000
0.885457 0.117186 0.000000
0.913695 0.117102 0.000000
0.940395 0.117028 0.000000
0.965428 0.116962 0.000000
0.988667 0.116904 0.000000
1.000000 0.122991 0.007984
0.013419 0.158385 0.005774
0.028064 0.158385 0.005774
0.046344 0.158385 0.005774
0.070184 0.158385 0.005774
0.097426 0.159942 0.004216
0.127923 0.159942 0.004216
0.159942 0.159942 0.004216
0.189272 0.156870 0.005816
0.222119 0.156107 0.005052
0.256015 0.155319 0.004264
0.290831 0.154510 0.003455
0.329060 0.153506 0.000000
0.364476 0.152548 0.000000
0.400404 0.151759 0.000000
0.436717 0.151100 0.000000
0.473286 0.150542 0.000000
0.509984 0.150067 0.000000
0.546681 0.149657 0.000000
0.583250 0.149302 0.000000
0.619563 0.148993 0.000000
0.655492 0.148721 0.000000
0.690907 0.148482 0.000000
0.725682 0.148271 0.000000
0.759688 0.148083 0.000000
0.792796 0.147916 0.000000
0.824880 0.147768 0.000000
0.855809 0.147636 0.000000
0.885457 0.147518 0.000000
0.913695 0.147412 0.000000
0.940395 0.147319 0.000000
0.965428 0.147236 0.000000
0.988667 0.147163 0.000000
1.000000 0.152759 0.007984
0.014156 0.190218 0.004870
0.028801 0.190218 0.004870
0.047081 0.190218 0.004870
0.070921 0.190218 0.004870
0.096349 0.190218 0.004870
0.126686 0.192109 0.002979
0.158705 0.192109 0.002979
0.192109 0.192109 0.002979
0.222119 0.188509 0.005052
0.256015 0.187721 0.004264
0.290831 0.186911 0.003455
0.326433 0.186084 0.002627
0.362691 0.185241 0.001785
0.400404 0.184312 0.000000
0.436717 0.183511 0.000000
0.473286 0.182834 0.000000
0.509984 0.182257 0.000000
0.546681 0.181759 0.000000
0.583250 0.181328 0.000000
0.619563 0.180952 0.000000
0.655492 0.180623 0.000000
0.690907 0.180332 0.000000
0.725682 0.180075 0.000000
0.759688 0.179848 0.000000
0.792796 0.179645 0.000000
0.824880 0.179465 0.000000
0.855809 0.179304 0.000000
0.885457 0.179161 0.000000
0.913695 0.179033 0.000000
0.940395 0.178920 0.000000
0.965428 0.178819 0.000000
0.988667 0.178730 0.000000
1.000000 0.183813 0.007984
0.014921 0.223238 0.003934
0.029565 0.223238 0.003934
0.047845 0.223238 0.003934
0.071686 0.223238 0.003934
0.097113 0.223238 0.003934
0.125402 0.225476 0.001696
0.157422 0.225476 0.001696
0.190826 0.225476 0.001696
0.225476 0.225476 0.001696
0.256015 0.221331 0.004264
0.290831 0.220522 0.003455
0.326433 0.219694 0.002627
0.362691 0.218851 0.001785
0.399475 0.217996 0.000929
0.436717 0.217131 0.000000
0.473286 0.216331 0.000000
0.509984 0.215647 0.000000
0.546681 0.215059 0.000000
0.583250 0.214549 0.000000
0.619563 0.214104 0.000000
0.655492 0.213714 0.000000
0.690907 0.213370 0.000000
0.725682 0.213066 0.000000
0.759688 0.212797 0.000000
0.792796 0.212557 0.000000
0.824880 0.212344 0.000000
0.855809 0.212154 0.000000
0.885457 0.211984 0.000000
0.913695 0.211833 0.000000
0.940395 0.211699 0.000000
0.965428 0.211580 0.000000
0.988667 0.211475 0.000000
1.000000 0.216026 0.007984
0.015710 0.257313 0.002967
0.030354 0.257313 0.002967
0.048634 0.257313 0.002967
0.072475 0.257313 0.002967
0.097902 0.257313 0.002967
0.124794 0.257313 0.002967
0.156098 0.259909 0.000371
0.189502 0.259909 0.000371
0.224151 0.259909 0.000371
0.259909 0.259909 0.000371
0.290831 0.255206 0.003455
0.326433 0.254378 0.002627
0.362691 0.253536 0.001785
0.399475 0.252680 0.000929
0.436652 0.251816 0.000065
0.473286 0.250897 0.000000
0.509984 0.250105 0.000000
0.546681 0.249422 0.000000
0.583250 0.248831 0.000000
0.619563 0.248315 0.000000
0.655492 0.247863 0.000000
0.690907 0.247464 0.000000
0.725682 0.247112 0.000000
0.759688 0.246799 0.000000
0.792796 0.246521 0.000000
0.824880 0.246274 0.000000
0.855809 0.246053 0.000000
0.885457 0.245856 0.000000
0.913695 0.245681 0.000000
0.940395 0.245525 0.000000
0.965428 0.245387 0.000000
0.988667 0.245266 0.000000
1.000000 0.249269 0.007984
0.016520 0.292312 0.001974
0.031164 0.292312 0.001974
0.049444 0.292312 0.001974
0.073285 0.292312 0.001974
0.098712 0.292312 0.001974
0.125605 0.292312 0.001974
0.154687 0.294286 0.000000
0.187868 0.294286 0.000000
0.222286 0.294286 0.000000
0.257805 0.294286 0.000000
0.294286 0.294286 0.000000
0.326433 0.290003 0.002627
0.362691 0.289160 0.001785
0.399475 0.288305 0.000929
0.436652 0.287441 0.000065
0.473286 0.286401 0.000000
0.509984 0.285496 0.000000
0.546681 0.284717 0.000000
0.583250 0.284042 0.000000
0.619563 0.283453 0.000000
0.655492 0.282937 0.000000
0.690907 0.282482 0.000000
0.725682 0.282080 0.000000
0.759688 0.281723 0.000000
0.792796 0.281405 0.000000
0.824880 0.281123 0.000000
0.855809 0.280871 0.000000
0.885457 0.280647 0.000000
0.913695 0.280447 0.000000
0.940395 0.280269 0.000000
0.965428 0.280111 0.000000
0.988667 0.279972 0.000000
1.000000 0.283412 0.007984
0.017348 0.328102 0.000958
0.031993 0.328102 0.000958
0.050273 0.328102 0.000958
0.074113 0.328102 0.000958
0.099541 0.328102 0.000958
0.126433 0.328102 0.000958
0.154668 0.328102 0.000958
0.186433 0.329060 0.000000
0.220589 0.329060 0.000000
0.255837 0.329060 0.000000
0.292039 0.329060 0.000000
0.329060 0.329060 0.000000
0.362691 0.325590 0.001785
0.399475 0.324735 0.000929
0.436652 0.323871 0.000065
0.473286 0.322708 0.000000
0.509984 0.321688 0.000000
0.546681 0.320810 0.000000
0.583250 0.320050 0.000000
0.619563 0.319386 0.000000
0.655492 0.318804 0.000000
0.690907 0.318292 0.000000
0.725682 0.317838 0.000000
0.759688 0.317436 0.000000
0.792796 0.317079 0.000000
0.824880 0.316760 0.000000
0.855809 0.316477 0.000000
0.885457 0.316224 0.000000
0.913695 0.315998 0.000000
0.940395 0.315798 0.000000
0.965428 0.315621 0.000000
0.988667 0.315464 0.000000
1.000000 0.318328 0.007984
0.018260 0.364476 0.000000
0.032899 0.364476 0.000000
0.051171 0.364476 0.000000
0.075002 0.364476 0.000000
0.100419 0.364476 0.000000
0.127300 0.364476 0.000000
0.155523 0.364476 0.000000
0.185271 0.364476 0.000000
0.219213 0.364476 0.000000
0.254241 0.364476 0.000000
0.290217 0.364476 0.000000
0.327008 0.364476 0.000000
0.364476 0.364476 0.000000
0.399475 0.361836 0.000929
0.436652 0.360972 0.000065
0.473286 0.359683 0.000000
0.509984 0.358547 0.000000
0.546681 0.357569 0.000000
0.583250 0.356721 0.000000
0.619563 0.355981 0.000000
0.655492 0.355333 0.000000
0.690907 0.354761 0.000000
0.725682 0.354256 0.000000
0.759688 0.353808 0.000000
0.792796 0.353409 0.000000
0.824880 0.353055 0.000000
0.855809 0.352738 0.000000
0.885457 0.352456 0.000000
0.913695 0.352205 0.000000
0.940395 0.351982 0.000000
0.965428 0.351784 0.000000
0.988667 0.351610 0.000000
1.000000 0.353887 0.007984
0.020060 0.400404 0.000000
0.034623 0.400404 0.000000
0.052801 0.400404 0.000000
0.076508 0.400404 0.000000
0.101794 0.400404 0.000000
0.128536 0.400404 0.000000
0.156613 0.400404 0.000000
0.185904 0.400404 0.000000
0.218079 0.400404 0.000000
0.252925 0.400404 0.000000
0.288716 0.400404 0.000000
0.325316 0.400404 0.000000
0.362590 0.400404 0.000000
0.400404 0.400404 0.000000
0.436652 0.398611 0.000065
0.473286 0.397194 0.000000
0.509984 0.395939 0.000000
0.546681 0.394859 0.000000
0.583250 0.393923 0.000000
0.619563 0.393106 0.000000
0.655492 0.392390 0.000000
0.690907 0.391759 0.000000
0.725682 0.391201 0.000000
0.759688 0.390706 0.000000
0.792796 0.390266 0.000000
0.824880 0.389874 0.000000
0.855809 0.389525 0.000000
0.885457 0.389214 0.000000
0.913695 0.388936 0.000000
0.940395 0.388690 0.000000
0.965428 0.388471 0.000000
0.988667 0.388279 0.000000
1.000000 0.389961 0.007984
0.021880 0.436717 0.000000
0.036379 0.436717 0.000000
0.054478 0.436717 0.000000
0.078082 0.436717 0.000000
0.103258 0.436717 0.000000
0.129884 0.436717 0.000000
0.157839 0.436717 0.000000
0.187003 0.436717 0.000000
0.217254 0.436717 0.000000
0.251826 0.436717 0.000000
0.287461 0.436717 0.000000
0.323902 0.436717 0.000000
0.361015 0.436717 0.000000
0.398665 0.436717 0.000000
0.436717 0.436717 0.000000
0.473286 0.435106 0.000000
0.509984 0.433732 0.000000
0.546681 0.432549 0.000000
0.583250 0.431523 0.000000
0.619563 0.430628 0.000000
0.655492 0.429844 0.000000
0.690907 0.429152 0.000000
0.725682 0.428541 0.000000
0.759688 0.427999 0.000000
0.792796 0.427517 0.000000
0.824880 0.427088 0.000000
0.855809 0.426705 0.000000
0.885457 0.426364 0.000000
0.913695 0.426061 0.000000
0.940395 0.425790 0.000000
0.965428 0.425551 0.000000
0.988667 0.425340 0.000000
1.000000 0.426421 0.007984
0.023712 0.473286 0.000000
0.038158 0.473286 0.000000
0.056190 0.473286 0.000000
0.079707 0.473286 0.000000
0.104790 0.473286 0.000000
0.131317 0.473286 0.000000
0.159170 0.473286 0.000000
0.188226 0.473286 0.000000
0.218366 0.473286 0.000000
0.250897 0.473286 0.000000
0.286401 0.473286 0.000000
0.322708 0.473286 0.000000
0.359683 0.473286 0.000000
0.397194 0.473286 0.000000
0.435106 0.473286 0.000000
0.473286 0.473286 0.000000
0.509984 0.471791 0.000000
0.546681 0.470504 0.000000
0.583250 0.469388 0.000000
0.619563 0.468415 0.000000
0.655492 0.467562 0.000000
0.690907 0.466810 0.000000
0.725682 0.466145 0.000000
0.759688 0.465555 0.000000
0.792796 0.465031 0.000000
0.824880 0.464564 0.000000
0.855809 0.464148 0.000000
0.885457 0.463777 0.000000
0.913695 0.463447 0.000000
0.940395 0.463153 0.000000
0.965428 0.462893 0.000000
0.988667 0.462663 0.000000
1.000000 0.463138 0.007984
0.025550 0.509984 0.000000
0.039951 0.509984 0.000000
0.057925 0.509984 0.000000
0.081369 0.509984 0.000000
0.106372 0.509984 0.000000
0.132816 0.509984 0.000000
0.160580 0.509984 0.000000
0.189545 0.509984 0.000000
0.219589 0.509984 0.000000
0.250594 0.509984 0.000000
0.285496 0.509984 0.000000
0.321688 0.509984 0.000000
0.358547 0.509984 0.000000
0.395939 0.509984 0.000000
0.433732 0.509984 0.000000
0.471791 0.509984 0.000000
0.509984 0.509984 0.000000
0.546681 0.508593 0.000000
0.583250 0.507387 0.000000
0.619563 0.506335 0.000000
0.655492 0.505412 0.000000
0.690907 0.504599 0.000000
0.725682 0.503881 0.000000
0.759688 0.503243 0.000000
0.792796 0.502677 0.000000
0.824880 0.502172 0.000000
0.855809 0.501722 0.000000
0.885457 0.501321 0.000000
0.913695 0.500964 0.000000
0.940395 0.500647 0.000000
0.965428 0.500365 0.000000
0.988667 0.500117 0.000000
1.000000 0.499984 0.007984
0.027389 0.546681 0.000000
0.041750 0.546681 0.000000
0.059676 0.546681 0.000000
0.083055 0.546681 0.000000
0.107990 0.546681 0.000000
0.134362 0.546681 0.000000
0.162050 0.546681 0.000000
0.190936 0.546681 0.000000
0.220899 0.546681 0.000000
0.251819 0.546681 0.000000
0.284717 0.546681 0.000000
0.320810 0.546681 0.000000
0.357569 0.546681 0.000000
0.394859 0.546681 0.000000
0.432549 0.546681 0.000000
0.470504 0.546681 0.000000
0.508593 0.546681 0.000000
0.546681 0.546681 0.000000
0.583250 0.545385 0.000000
0.619563 0.544254 0.000000
0.655492 0.543263 0.000000
0.690907 0.542389 0.000000
0.725682 0.541617 0.000000
0.759688 0.540931 0.000000
0.792796 0.540322 0.000000
0.824880 0.539780 0.000000
0.855809 0.539296 0.000000
0.885457 0.538865 0.000000
0.913695 0.538481 0.000000
0.940395 0.538140 0.000000
0.965428 0.537837 0.000000
0.988667 0.537571 0.000000
1.000000 0.536830 0.007984
0.029221 0.583250 0.000000
0.043548 0.583250 0.000000
0.061431 0.583250 0.000000
0.084755 0.583250 0.000000
0.109631 0.583250 0.000000
0.135940 0.583250 0.000000
0.163563 0.583250 0.000000
0.192380 0.583250 0.000000
0.222272 0.583250 0.000000
0.253119 0.583250 0.000000
0.284802 0.583250 0.000000
0.320050 0.583250 0.000000
0.356721 0.583250 0.000000
0.393923 0.583250 0.000000
0.431523 0.583250 0.000000
0.469388 0.583250 0.000000
0.507387 0.583250 0.000000
0.545385 0.583250 0.000000
0.583250 0.583250 0.000000
0.619563 0.582041 0.000000
0.655492 0.580981 0.000000
0.690907 0.580047 0.000000
0.725682 0.579220 0.000000
0.759688 0.578488 0.000000
0.792796 0.577836 0.000000
0.824880 0.577256 0.000000
0.855809 0.576739 0.000000
0.885457 0.576278 0.000000
0.913695 0.575868 0.000000
0.940395 0.575503 0.000000
0.965428 0.575179 0.000000
0.988667 0.574894 0.000000
1.000000 0.573547 0.007984
0.031040 0.619563 0.000000
0.045338 0.619563 0.000000
0.063184 0.619563 0.000000
0.086459 0.619563 0.000000
0.111284 0.619563 0.000000
0.137538 0.619563 0.000000
0.165104 0.619563 0.000000
0.193861 0.619563 0.000000
0.223691 0.619563 0.000000
0.254474 0.619563 0.000000
0.286091 0.619563 0.000000
0.319386 0.619563 0.000000
0.355981 0.619563 0.000000
0.393106 0.619563 0.000000
0.430628 0.619563 0.000000
0.468415 0.619563 0.000000
0.506335 0.619563 0.000000
0.544254 0.619563 0.000000
0.582041 0.619563 0.000000
0.619563 0.619563 0.000000
0.655492 0.618435 0.000000
0.690907 0.617440 0.000000
0.725682 0.616561 0.000000
0.759688 0.615781 0.000000
0.792796 0.615087 0.000000
0.824880 0.614470 0.000000
0.855809 0.613920 0.000000
0.885457 0.613429 0.000000
0.913695 0.612992 0.000000
0.940395 0.612603 0.000000
0.965428 0.612259 0.000000
0.988667 0.611955 0.000000
1.000000 0.610007 0.007984
0.032840 0.655492 0.000000
0.047112 0.655492 0.000000
0.064925 0.655492 0.000000
0.088158 0.655492 0.000000
0.112937 0.655492 0.000000
0.139144 0.655492 0.000000
0.166660 0.655492 0.000000
0.195364 0.655492 0.000000
0.225140 0.655492 0.000000
0.255867 0.655492 0.000000
0.287427 0.655492 0.000000
0.319700 0.655492 0.000000
0.355333 0.655492 0.000000
0.392390 0.655492 0.000000
0.429844 0.655492 0.000000
0.467562 0.655492 0.000000
0.505412 0.655492 0.000000
0.543263 0.655492 0.000000
0.580981 0.655492 0.000000
0.618435 0.655492 0.000000
0.655492 0.655492 0.000000
0.690907 0.654438 0.000000
0.725682 0.653506 0.000000
0.759688 0.652679 0.000000
0.792796 0.651944 0.000000
0.824880 0.651290 0.000000
0.855809 0.650706 0.000000
0.885457 0.650186 0.000000
0.913695 0.649723 0.000000
0.940395 0.649311 0.000000
0.965428 0.648946 0.000000
0.988667 0.648624 0.000000
1.000000 0.646081 0.007984
0.034614 0.690907 0.000000
0.048863 0.690907 0.000000
0.066648 0.690907 0.000000
0.089844 0.690907 0.000000
0.114583 0.690907 0.000000
0.140748 0.690907 0.000000
0.168219 0.690907 0.000000
0.196877 0.690907 0.000000
0.226605 0.690907 0.000000
0.257283 0.690907 0.000000
0.288792 0.690907 0.000000
0.321013 0.690907 0.000000
0.354761 0.690907 0.000000
0.391759 0.690907 0.000000
0.429152 0.690907 0.000000
0.466810 0.690907 0.000000
0.504599 0.690907 0.000000
0.542389 0.690907 0.000000
0.580047 0.690907 0.000000
0.617440 0.690907 0.000000
0.654438 0.690907 0.000000
0.690907 0.690907 0.000000
0.725682 0.689923 0.000000
0.759688 0.689051 0.000000
0.792796 0.688275 0.000000
0.824880 0.687584 0.000000
0.855809 0.686968 0.000000
0.885457 0.686419 0.000000
0.913695 0.685930 0.000000
0.940395 0.685495 0.000000
0.965428 0.685110 0.000000
0.988667 0.684770 0.000000
1.000000 0.681640 0.007984
0.036357 0.725682 0.000000
0.050585 0.725682 0.000000
0.068345 0.725682 0.000000
0.091507 0.725682 0.000000
0.116211 0.725682 0.000000
0.142339 0.725682 0.000000
0.169771 0.725682 0.000000
0.198389 0.725682 0.000000
0.228074 0.725682 0.000000
0.258708 0.725682 0.000000
0.290172 0.725682 0.000000
0.322348 0.725682 0.000000
0.355116 0.725682 0.000000
0.391201 0.725682 0.000000
0.428541 0.725682 0.000000
0.466145 0.725682 0.000000
0.503881 0.725682 0.000000
0.541617 0.725682 0.000000
0.579220 0.725682 0.000000
0.616561 0.725682 0.000000
0.653506 0.725682 0.000000
0.689923 0.725682 0.000000
0.725682 0.725682 0.000000
0.759688 0.724764 0.000000
0.792796 0.723948 0.000000
0.824880 0.723221 0.000000
0.855809 0.722573 0.000000
0.885457 0.721996 0.000000
0.913695 0.721482 0.000000
0.940395 0.721024 0.000000
0.965428 0.720619 0.000000
0.988667 0.720261 0.000000
1.000000 0.716555 0.007984
0.038060 0.759688 0.000000
0.052271 0.759688 0.000000
0.070008 0.759688 0.000000
0.093141 0.759688 0.000000
0.117814 0.759688 0.000000
0.143908 0.759688 0.000000
0.171306 0.759688 0.000000
0.199887 0.759688 0.000000
0.229535 0.759688 0.000000
0.260130 0.759688 0.000000
0.291554 0.759688 0.000000
0.323689 0.759688 0.000000
0.356417 0.759688 0.000000
0.390706 0.759688 0.000000
0.427999 0.759688 0.000000
0.465555 0.759688 0.000000
0.503243 0.759688 0.000000
0.540931 0.759688 0.000000
0.578488 0.759688 0.000000
0.615781 0.759688 0.000000
0.652679 0.759688 0.000000
0.689051 0.759688 0.000000
0.724764 0.759688 0.000000
0.759688 0.759688 0.000000
0.792796 0.758832 0.000000
0.824880 0.758071 0.000000
0.855809 0.757392 0.000000
0.885457 0.756786 0.000000
0.913695 0.756247 0.000000
0.940395 0.755768 0.000000
0.965428 0.755343 0.000000
0.988667 0.754968 0.000000
1.000000 0.750699 0.007984
0.039719 0.792796 0.000000
0.053913 0.792796 0.000000
0.071631 0.792796 0.000000
0.094738 0.792796 0.000000
0.119383 0.792796 0.000000
0.145448 0.792796 0.000000
0.172814 0.792796 0.000000
0.201364 0.792796 0.000000
0.230978 0.792796 0.000000
0.261539 0.792796 0.000000
0.292928 0.792796 0.000000
0.325027 0.792796 0.000000
0.357717 0.792796 0.000000
0.390881 0.792796 0.000000
0.427517 0.792796 0.000000
0.465031 0.792796 0.000000
0.502677 0.792796 0.000000
0.540322 0.792796 0.000000
0.577836 0.792796 0.000000
0.615087 0.792796 0.000000
0.651944 0.792796 0.000000
0.688275 0.792796 0.000000
0.723948 0.792796 0.000000
0.758832 0.792796 0.000000
0.792796 0.792796 0.000000
0.824880 0.792000 0.000000
0.855809 0.791291 0.000000
0.885457 0.790659 0.000000
0.913695 0.790095 0.000000
0.940395 0.789594 0.000000
0.965428 0.789150 0.000000
0.988667 0.788759 0.000000
1.000000 0.783941 0.007984
0.041326 0.824880 0.000000
0.055506 0.824880 0.000000
0.073206 0.824880 0.000000
0.096290 0.824880 0.000000
0.120910 0.824880 0.000000
0.146949 0.824880 0.000000
0.174288 0.824880 0.000000
0.202809 0.824880 0.000000
0.232393 0.824880 0.000000
0.262923 0.824880 0.000000
0.294281 0.824880 0.000000
0.326348 0.824880 0.000000
0.359005 0.824880 0.000000
0.392135 0.824880 0.000000
0.427088 0.824880 0.000000
0.464564 0.824880 0.000000
0.502172 0.824880 0.000000
0.539780 0.824880 0.000000
0.577256 0.824880 0.000000
0.614470 0.824880 0.000000
0.651290 0.824880 0.000000
0.687584 0.824880 0.000000
0.723221 0.824880 0.000000
0.758071 0.824880 0.000000
0.792000 0.824880 0.000000
0.824880 0.824880 0.000000
0.855809 0.824141 0.000000
0.885457 0.823482 0.000000
0.913695 0.822895 0.000000
0.940395 0.822374 0.000000
0.965428 0.821911 0.000000
0.988667 0.821503 0.000000
1.000000 0.816154 0.007984
0.042876 0.855809 0.000000
0.057043 0.855809 0.000000
0.074727 0.855809 0.000000
0.097790 0.855809 0.000000
0.122389 0.855809 0.000000
0.148404 0.855809 0.000000
0.175719 0.855809 0.000000
0.204214 0.855809 0.000000
0.233772 0.855809 0.000000
0.264275 0.855809 0.000000
0.295604 0.855809 0.000000
0.327642 0.855809 0.000000
0.360270 0.855809 0.000000
0.393371 0.855809 0.000000
0.426826 0.855809 0.000000
0.464148 0.855809 0.000000
0.501722 0.855809 0.000000
0.539296 0.855809 0.000000
0.576739 0.855809 0.000000
0.613920 0.855809 0.000000
0.650706 0.855809 0.000000
0.686968 0.855809 0.000000
